%
(TOCK_THREAD_BASE_1-8BIT_V01)
(MACHINE)
(  VENDOR KIRBRE ENTERPRISES INC)
(  MODEL JOURNEYMAN)
(  DESCRIPTION ONEFINITY COMMUNITY EDITION V2022.02.21.1)
(T1 D=3.175 CR=0 - ZMIN=-12.7 - FLAT END MILL)
N10 G90 G94 G17 G91.1
N15 G21

(BOARD HOLES)
(T1)
N20 S16000 M3
N25 G54
N30 G0 X102.191 Y102.543
N35 G43 Z15.24 H1
N40 G0 Z5.08
N45 G1 Z0.567 F1270
N50 X102.158 Y102.545 Z0.424 F1016
N55 X102.064 Y102.54 Z0.312
N60 X101.998 Y102.528 Z0.283
N65 X101.934 Y102.507 Z0.254
N70 X101.863 Y102.474 Z0.24
N75 X101.798 Y102.431 Z0.226
N80 G3 X102.478 Y101.535 Z-0.085 I0.34 J-0.448
N85 X101.798 Y102.431 Z-0.397 I-0.34 J0.448
N90 X102.478 Y101.535 Z-0.708 I0.34 J-0.448
N95 X101.798 Y102.431 Z-1.02 I-0.34 J0.448
N100 X102.478 Y101.535 Z-1.332 I0.34 J-0.448
N105 X101.798 Y102.431 Z-1.643 I-0.34 J0.448
N110 X102.478 Y101.535 Z-1.955 I0.34 J-0.448
N115 X101.798 Y102.431 Z-2.266 I-0.34 J0.448
N120 X102.478 Y101.535 Z-2.578 I0.34 J-0.448
N125 X101.798 Y102.431 Z-2.89 I-0.34 J0.448
N130 X102.478 Y101.535 Z-3.201 I0.34 J-0.448
N135 X101.798 Y102.431 Z-3.513 I-0.34 J0.448
N140 X102.478 Y101.535 Z-3.824 I0.34 J-0.448
N145 X101.798 Y102.431 Z-4.136 I-0.34 J0.448
N150 X102.478 Y101.535 Z-4.447 I0.34 J-0.448
N155 X101.798 Y102.431 Z-4.759 I-0.34 J0.448
N160 X102.478 Y101.535 Z-5.071 I0.34 J-0.448
N165 X101.798 Y102.431 Z-5.382 I-0.34 J0.448
N170 X102.478 Y101.535 Z-5.694 I0.34 J-0.448
N175 X101.798 Y102.431 Z-6.005 I-0.34 J0.448
N180 X102.478 Y101.535 Z-6.317 I0.34 J-0.448
N185 X101.798 Y102.431 Z-6.629 I-0.34 J0.448
N190 X102.478 Y101.535 Z-6.94 I0.34 J-0.448
N195 X101.798 Y102.431 Z-7.252 I-0.34 J0.448
N200 X102.478 Y101.535 Z-7.563 I0.34 J-0.448
N205 X101.798 Y102.431 Z-7.875 I-0.34 J0.448
N210 X102.478 Y101.535 Z-8.187 I0.34 J-0.448
N215 X101.798 Y102.431 Z-8.498 I-0.34 J0.448
N220 X102.478 Y101.535 Z-8.81 I0.34 J-0.448
N225 X101.798 Y102.431 Z-9.121 I-0.34 J0.448
N230 X102.478 Y101.535 Z-9.433 I0.34 J-0.448
N235 X102.7 Y101.986 Z-9.525 I-0.34 J0.448
N240 X102.138 Y102.546 I-0.563 J-0.003 F1778
N245 Y101.42 I0 J-0.563
N250 X102.7 Y101.986 I0 J0.563
N255 G1 X102.694 Y102.046 Z-9.513
N260 X102.677 Y102.105 Z-9.501
N265 X102.654 Y102.15 Z-9.466
N270 X102.623 Y102.192 Z-9.432
N275 X102.573 Y102.239 Z-9.329
N280 X102.553 Y102.252 Z-9.208
N285 G0 Z5.08
N290 X110.248 Y74.264
N295 G1 Z0.567 F1270
N300 X110.246 Y74.231 Z0.424 F1016
N305 X110.25 Y74.137 Z0.312
N310 X110.262 Y74.071 Z0.283
N315 X110.283 Y74.007 Z0.254
N320 G3 X111.333 Y74.409 Z-0.058 I0.525 J0.201
N325 X110.283 Y74.007 Z-0.369 I-0.525 J-0.201
N330 X111.333 Y74.409 Z-0.681 I0.525 J0.201
N335 X110.283 Y74.007 Z-0.992 I-0.525 J-0.201
N340 X111.333 Y74.409 Z-1.304 I0.525 J0.201
N345 X110.283 Y74.007 Z-1.616 I-0.525 J-0.201
N350 X111.333 Y74.409 Z-1.927 I0.525 J0.201
N355 X110.283 Y74.007 Z-2.239 I-0.525 J-0.201
N360 X111.333 Y74.409 Z-2.55 I0.525 J0.201
N365 X110.283 Y74.007 Z-2.862 I-0.525 J-0.201
N370 X111.333 Y74.409 Z-3.174 I0.525 J0.201
N375 X110.283 Y74.007 Z-3.485 I-0.525 J-0.201
N380 X111.333 Y74.409 Z-3.797 I0.525 J0.201
N385 X110.283 Y74.007 Z-4.108 I-0.525 J-0.201
N390 X111.333 Y74.409 Z-4.42 I0.525 J0.201
N395 X110.283 Y74.007 Z-4.732 I-0.525 J-0.201
N400 X111.333 Y74.409 Z-5.043 I0.525 J0.201
N405 X110.283 Y74.007 Z-5.355 I-0.525 J-0.201
N410 X111.333 Y74.409 Z-5.666 I0.525 J0.201
N415 X110.283 Y74.007 Z-5.978 I-0.525 J-0.201
N420 X111.333 Y74.409 Z-6.29 I0.525 J0.201
N425 X110.283 Y74.007 Z-6.601 I-0.525 J-0.201
N430 X111.333 Y74.409 Z-6.913 I0.525 J0.201
N435 X110.283 Y74.007 Z-7.224 I-0.525 J-0.201
N440 X111.333 Y74.409 Z-7.536 I0.525 J0.201
N445 X110.283 Y74.007 Z-7.847 I-0.525 J-0.201
N450 X111.333 Y74.409 Z-8.159 I0.525 J0.201
N455 X110.283 Y74.007 Z-8.471 I-0.525 J-0.201
N460 X111.333 Y74.409 Z-8.782 I0.525 J0.201
N465 X110.283 Y74.007 Z-9.094 I-0.525 J-0.201
N470 X111.333 Y74.409 Z-9.405 I0.525 J0.201
N475 X110.808 Y74.77 Z-9.525 I-0.525 J-0.201
N480 Y73.645 I0 J-0.563 F1778
N485 Y74.77 I0 J0.563
N490 G1 X110.748 Y74.764 Z-9.513
N495 X110.689 Y74.747 Z-9.501
N500 X110.643 Y74.724 Z-9.466
N505 X110.602 Y74.694 Z-9.432
N510 X110.555 Y74.644 Z-9.329
N515 X110.541 Y74.624 Z-9.208
N520 G0 Z5.08
N525 X116.598 Y26.004
N530 G1 Z0.567 F1270
N535 X116.596 Y25.971 Z0.424 F1016
N540 X116.6 Y25.877 Z0.312
N545 X116.612 Y25.811 Z0.283
N550 X116.633 Y25.747 Z0.254
N555 G3 X117.683 Y26.149 Z-0.058 I0.525 J0.201
N560 X116.633 Y25.747 Z-0.369 I-0.525 J-0.201
N565 X117.683 Y26.149 Z-0.681 I0.525 J0.201
N570 X116.633 Y25.747 Z-0.992 I-0.525 J-0.201
N575 X117.683 Y26.149 Z-1.304 I0.525 J0.201
N580 X116.633 Y25.747 Z-1.616 I-0.525 J-0.201
N585 X117.683 Y26.149 Z-1.927 I0.525 J0.201
N590 X116.633 Y25.747 Z-2.239 I-0.525 J-0.201
N595 X117.683 Y26.149 Z-2.55 I0.525 J0.201
N600 X116.633 Y25.747 Z-2.862 I-0.525 J-0.201
N605 X117.683 Y26.149 Z-3.174 I0.525 J0.201
N610 X116.633 Y25.747 Z-3.485 I-0.525 J-0.201
N615 X117.683 Y26.149 Z-3.797 I0.525 J0.201
N620 X116.633 Y25.747 Z-4.108 I-0.525 J-0.201
N625 X117.683 Y26.149 Z-4.42 I0.525 J0.201
N630 X116.633 Y25.747 Z-4.732 I-0.525 J-0.201
N635 X117.683 Y26.149 Z-5.043 I0.525 J0.201
N640 X116.633 Y25.747 Z-5.355 I-0.525 J-0.201
N645 X117.683 Y26.149 Z-5.666 I0.525 J0.201
N650 X116.633 Y25.747 Z-5.978 I-0.525 J-0.201
N655 X117.683 Y26.149 Z-6.29 I0.525 J0.201
N660 X116.633 Y25.747 Z-6.601 I-0.525 J-0.201
N665 X117.683 Y26.149 Z-6.913 I0.525 J0.201
N670 X116.633 Y25.747 Z-7.224 I-0.525 J-0.201
N675 X117.683 Y26.149 Z-7.536 I0.525 J0.201
N680 X116.633 Y25.747 Z-7.847 I-0.525 J-0.201
N685 X117.683 Y26.149 Z-8.159 I0.525 J0.201
N690 X116.633 Y25.747 Z-8.471 I-0.525 J-0.201
N695 X117.683 Y26.149 Z-8.782 I0.525 J0.201
N700 X116.633 Y25.747 Z-9.094 I-0.525 J-0.201
N705 X117.683 Y26.149 Z-9.405 I0.525 J0.201
N710 X117.158 Y26.51 Z-9.525 I-0.525 J-0.201
N715 Y25.385 I0 J-0.563 F1778
N720 Y26.51 I0 J0.563
N725 G1 X117.098 Y26.504 Z-9.513
N730 X117.039 Y26.487 Z-9.501
N735 X116.993 Y26.464 Z-9.466
N740 X116.952 Y26.434 Z-9.432
N745 X116.905 Y26.384 Z-9.329
N750 X116.891 Y26.364 Z-9.208
N755 G0 Z5.08
N760 X34.048 Y26.004
N765 G1 Z0.567 F1270
N770 X34.045 Y25.971 Z0.424 F1016
N775 X34.049 Y25.877 Z0.312
N780 X34.062 Y25.811 Z0.283
N785 X34.082 Y25.747 Z0.254
N790 G3 X35.133 Y26.149 Z-0.058 I0.525 J0.201
N795 X34.082 Y25.747 Z-0.369 I-0.525 J-0.201
N800 X35.133 Y26.149 Z-0.681 I0.525 J0.201
N805 X34.082 Y25.747 Z-0.992 I-0.525 J-0.201
N810 X35.133 Y26.149 Z-1.304 I0.525 J0.201
N815 X34.082 Y25.747 Z-1.616 I-0.525 J-0.201
N820 X35.133 Y26.149 Z-1.927 I0.525 J0.201
N825 X34.082 Y25.747 Z-2.239 I-0.525 J-0.201
N830 X35.133 Y26.149 Z-2.55 I0.525 J0.201
N835 X34.082 Y25.747 Z-2.862 I-0.525 J-0.201
N840 X35.133 Y26.149 Z-3.174 I0.525 J0.201
N845 X34.082 Y25.747 Z-3.485 I-0.525 J-0.201
N850 X35.133 Y26.149 Z-3.797 I0.525 J0.201
N855 X34.082 Y25.747 Z-4.108 I-0.525 J-0.201
N860 X35.133 Y26.149 Z-4.42 I0.525 J0.201
N865 X34.082 Y25.747 Z-4.732 I-0.525 J-0.201
N870 X35.133 Y26.149 Z-5.043 I0.525 J0.201
N875 X34.082 Y25.747 Z-5.355 I-0.525 J-0.201
N880 X35.133 Y26.149 Z-5.666 I0.525 J0.201
N885 X34.082 Y25.747 Z-5.978 I-0.525 J-0.201
N890 X35.133 Y26.149 Z-6.29 I0.525 J0.201
N895 X34.082 Y25.747 Z-6.601 I-0.525 J-0.201
N900 X35.133 Y26.149 Z-6.913 I0.525 J0.201
N905 X34.082 Y25.747 Z-7.224 I-0.525 J-0.201
N910 X35.133 Y26.149 Z-7.536 I0.525 J0.201
N915 X34.082 Y25.747 Z-7.847 I-0.525 J-0.201
N920 X35.133 Y26.149 Z-8.159 I0.525 J0.201
N925 X34.082 Y25.747 Z-8.471 I-0.525 J-0.201
N930 X35.133 Y26.149 Z-8.782 I0.525 J0.201
N935 X34.082 Y25.747 Z-9.094 I-0.525 J-0.201
N940 X35.133 Y26.149 Z-9.405 I0.525 J0.201
N945 X34.607 Y26.51 Z-9.525 I-0.525 J-0.201
N950 X34.608 Y25.385 I0 J-0.563 F1778
N955 X34.607 Y26.51 I0 J0.563
N960 G1 X34.547 Y26.504 Z-9.513
N965 X34.489 Y26.487 Z-9.501
N970 X34.443 Y26.464 Z-9.466
N975 X34.401 Y26.434 Z-9.432
N980 X34.354 Y26.384 Z-9.329
N985 X34.34 Y26.364 Z-9.208
N990 G0 Z5.08
N995 X35.318 Y74.264
N1000 G1 Z0.567 F1270
N1005 X35.315 Y74.231 Z0.424 F1016
N1010 X35.319 Y74.137 Z0.312
N1015 X35.332 Y74.071 Z0.283
N1020 X35.352 Y74.007 Z0.254
N1025 G3 X36.403 Y74.409 Z-0.058 I0.525 J0.201
N1030 X35.352 Y74.007 Z-0.369 I-0.525 J-0.201
N1035 X36.403 Y74.409 Z-0.681 I0.525 J0.201
N1040 X35.352 Y74.007 Z-0.992 I-0.525 J-0.201
N1045 X36.403 Y74.409 Z-1.304 I0.525 J0.201
N1050 X35.352 Y74.007 Z-1.616 I-0.525 J-0.201
N1055 X36.403 Y74.409 Z-1.927 I0.525 J0.201
N1060 X35.352 Y74.007 Z-2.239 I-0.525 J-0.201
N1065 X36.403 Y74.409 Z-2.55 I0.525 J0.201
N1070 X35.352 Y74.007 Z-2.862 I-0.525 J-0.201
N1075 X36.403 Y74.409 Z-3.174 I0.525 J0.201
N1080 X35.352 Y74.007 Z-3.485 I-0.525 J-0.201
N1085 X36.403 Y74.409 Z-3.797 I0.525 J0.201
N1090 X35.352 Y74.007 Z-4.108 I-0.525 J-0.201
N1095 X36.403 Y74.409 Z-4.42 I0.525 J0.201
N1100 X35.352 Y74.007 Z-4.732 I-0.525 J-0.201
N1105 X36.403 Y74.409 Z-5.043 I0.525 J0.201
N1110 X35.352 Y74.007 Z-5.355 I-0.525 J-0.201
N1115 X36.403 Y74.409 Z-5.666 I0.525 J0.201
N1120 X35.352 Y74.007 Z-5.978 I-0.525 J-0.201
N1125 X36.403 Y74.409 Z-6.29 I0.525 J0.201
N1130 X35.352 Y74.007 Z-6.601 I-0.525 J-0.201
N1135 X36.403 Y74.409 Z-6.913 I0.525 J0.201
N1140 X35.352 Y74.007 Z-7.224 I-0.525 J-0.201
N1145 X36.403 Y74.409 Z-7.536 I0.525 J0.201
N1150 X35.352 Y74.007 Z-7.847 I-0.525 J-0.201
N1155 X36.403 Y74.409 Z-8.159 I0.525 J0.201
N1160 X35.352 Y74.007 Z-8.471 I-0.525 J-0.201
N1165 X36.403 Y74.409 Z-8.782 I0.525 J0.201
N1170 X35.352 Y74.007 Z-9.094 I-0.525 J-0.201
N1175 X36.403 Y74.409 Z-9.405 I0.525 J0.201
N1180 X35.877 Y74.77 Z-9.525 I-0.525 J-0.201
N1185 Y73.645 I0 J-0.563 F1778
N1190 Y74.77 I0 J0.563
N1195 G1 X35.817 Y74.764 Z-9.513
N1200 X35.759 Y74.747 Z-9.501
N1205 X35.713 Y74.724 Z-9.466
N1210 X35.671 Y74.694 Z-9.432
N1215 X35.624 Y74.644 Z-9.329
N1220 X35.61 Y74.624 Z-9.208
N1225 G0 Z5.08
N1230 X44.191 Y102.543
N1235 G1 Z0.567 F1270
N1240 X44.157 Y102.545 Z0.424 F1016
N1245 X44.063 Y102.54 Z0.312
N1250 X43.997 Y102.528 Z0.283
N1255 X43.933 Y102.507 Z0.254
N1260 G3 X44.342 Y101.459 Z-0.058 I0.204 J-0.524
N1265 X43.933 Y102.507 Z-0.369 I-0.204 J0.524
N1270 X44.342 Y101.459 Z-0.681 I0.204 J-0.524
N1275 X43.933 Y102.507 Z-0.992 I-0.204 J0.524
N1280 X44.342 Y101.459 Z-1.304 I0.204 J-0.524
N1285 X43.933 Y102.507 Z-1.616 I-0.204 J0.524
N1290 X44.342 Y101.459 Z-1.927 I0.204 J-0.524
N1295 X43.933 Y102.507 Z-2.239 I-0.204 J0.524
N1300 X44.342 Y101.459 Z-2.55 I0.204 J-0.524
N1305 X43.933 Y102.507 Z-2.862 I-0.204 J0.524
N1310 X44.342 Y101.459 Z-3.174 I0.204 J-0.524
N1315 X43.933 Y102.507 Z-3.485 I-0.204 J0.524
N1320 X44.342 Y101.459 Z-3.797 I0.204 J-0.524
N1325 X43.933 Y102.507 Z-4.108 I-0.204 J0.524
N1330 X44.342 Y101.459 Z-4.42 I0.204 J-0.524
N1335 X43.933 Y102.507 Z-4.732 I-0.204 J0.524
N1340 X44.342 Y101.459 Z-5.043 I0.204 J-0.524
N1345 X43.933 Y102.507 Z-5.355 I-0.204 J0.524
N1350 X44.342 Y101.459 Z-5.666 I0.204 J-0.524
N1355 X43.933 Y102.507 Z-5.978 I-0.204 J0.524
N1360 X44.342 Y101.459 Z-6.29 I0.204 J-0.524
N1365 X43.933 Y102.507 Z-6.601 I-0.204 J0.524
N1370 X44.342 Y101.459 Z-6.913 I0.204 J-0.524
N1375 X43.933 Y102.507 Z-7.224 I-0.204 J0.524
N1380 X44.342 Y101.459 Z-7.536 I0.204 J-0.524
N1385 X43.933 Y102.507 Z-7.847 I-0.204 J0.524
N1390 X44.342 Y101.459 Z-8.159 I0.204 J-0.524
N1395 X43.933 Y102.507 Z-8.471 I-0.204 J0.524
N1400 X44.342 Y101.459 Z-8.782 I0.204 J-0.524
N1405 X43.933 Y102.507 Z-9.094 I-0.204 J0.524
N1410 X44.342 Y101.459 Z-9.405 I0.204 J-0.524
N1415 X44.7 Y101.986 Z-9.525 I-0.204 J0.524
N1420 X44.138 Y102.546 I-0.563 J-0.003 F1778
N1425 Y101.42 I0 J-0.563
N1430 X44.7 Y101.986 I0 J0.563
N1435 G1 X44.694 Y102.046 Z-9.513
N1440 X44.676 Y102.105 Z-9.501
N1445 X44.653 Y102.15 Z-9.466
N1450 X44.623 Y102.192 Z-9.432
N1455 X44.572 Y102.239 Z-9.329
N1460 X44.553 Y102.252 Z-9.208
N1465 G0 Z5.08
N1470 X43.578 Y151.04
N1475 G1 Z0.567 F1270
N1480 X43.575 Y151.006 Z0.424 F1016
N1485 X43.579 Y150.912 Z0.312
N1490 X43.592 Y150.846 Z0.283
N1495 X43.612 Y150.782 Z0.254
N1500 X43.645 Y150.711 Z0.24
N1505 X43.688 Y150.645 Z0.226
N1510 G3 X44.588 Y151.321 Z-0.085 I0.45 J0.338
N1515 X43.688 Y150.645 Z-0.397 I-0.45 J-0.338
N1520 X44.588 Y151.321 Z-0.708 I0.45 J0.338
N1525 X43.688 Y150.645 Z-1.02 I-0.45 J-0.338
N1530 X44.588 Y151.321 Z-1.332 I0.45 J0.338
N1535 X43.688 Y150.645 Z-1.643 I-0.45 J-0.338
N1540 X44.588 Y151.321 Z-1.955 I0.45 J0.338
N1545 X43.688 Y150.645 Z-2.266 I-0.45 J-0.338
N1550 X44.588 Y151.321 Z-2.578 I0.45 J0.338
N1555 X43.688 Y150.645 Z-2.89 I-0.45 J-0.338
N1560 X44.587 Y151.321 Z-3.201 I0.45 J0.338
N1565 X43.688 Y150.645 Z-3.513 I-0.45 J-0.338
N1570 X44.587 Y151.321 Z-3.824 I0.45 J0.338
N1575 X43.688 Y150.645 Z-4.136 I-0.45 J-0.338
N1580 X44.587 Y151.321 Z-4.447 I0.45 J0.338
N1585 X43.688 Y150.645 Z-4.759 I-0.45 J-0.338
N1590 X44.587 Y151.321 Z-5.071 I0.45 J0.338
N1595 X43.688 Y150.645 Z-5.382 I-0.45 J-0.338
N1600 X44.587 Y151.321 Z-5.694 I0.45 J0.338
N1605 X43.688 Y150.645 Z-6.005 I-0.45 J-0.338
N1610 X44.587 Y151.321 Z-6.317 I0.45 J0.338
N1615 X43.688 Y150.645 Z-6.629 I-0.45 J-0.338
N1620 X44.587 Y151.321 Z-6.94 I0.45 J0.338
N1625 X43.688 Y150.645 Z-7.252 I-0.45 J-0.338
N1630 X44.587 Y151.321 Z-7.563 I0.45 J0.338
N1635 X43.688 Y150.645 Z-7.875 I-0.45 J-0.338
N1640 X44.587 Y151.321 Z-8.187 I0.45 J0.338
N1645 X43.688 Y150.645 Z-8.498 I-0.45 J-0.338
N1650 X44.587 Y151.321 Z-8.81 I0.45 J0.338
N1655 X43.688 Y150.645 Z-9.121 I-0.45 J-0.338
N1660 X44.587 Y151.321 Z-9.433 I0.45 J0.338
N1665 X44.138 Y151.546 Z-9.525 I-0.45 J-0.338
N1670 Y150.421 I0 J-0.563 F1778
N1675 Y151.546 I0 J0.563
N1680 G1 X44.077 Y151.54 Z-9.513
N1685 X44.019 Y151.523 Z-9.501
N1690 X43.973 Y151.5 Z-9.466
N1695 X43.931 Y151.469 Z-9.432
N1700 X43.884 Y151.419 Z-9.329
N1705 X43.87 Y151.4 Z-9.208
N1710 G0 Z5.08
N1715 X101.578 Y151.04
N1720 G1 Z0.567 F1270
N1725 X101.576 Y151.006 Z0.424 F1016
N1730 X101.58 Y150.912 Z0.312
N1735 X101.592 Y150.846 Z0.283
N1740 X101.613 Y150.782 Z0.254
N1745 X101.646 Y150.711 Z0.24
N1750 X101.688 Y150.645 Z0.226
N1755 G3 X102.588 Y151.321 Z-0.085 I0.45 J0.338
N1760 X101.688 Y150.645 Z-0.397 I-0.45 J-0.338
N1765 X102.588 Y151.321 Z-0.708 I0.45 J0.338
N1770 X101.688 Y150.645 Z-1.02 I-0.45 J-0.338
N1775 X102.588 Y151.321 Z-1.332 I0.45 J0.338
N1780 X101.688 Y150.645 Z-1.643 I-0.45 J-0.338
N1785 X102.588 Y151.321 Z-1.955 I0.45 J0.338
N1790 X101.688 Y150.645 Z-2.266 I-0.45 J-0.338
N1795 X102.588 Y151.321 Z-2.578 I0.45 J0.338
N1800 X101.688 Y150.645 Z-2.89 I-0.45 J-0.338
N1805 X102.588 Y151.321 Z-3.201 I0.45 J0.338
N1810 X101.688 Y150.645 Z-3.513 I-0.45 J-0.338
N1815 X102.588 Y151.321 Z-3.824 I0.45 J0.338
N1820 X101.688 Y150.645 Z-4.136 I-0.45 J-0.338
N1825 X102.588 Y151.321 Z-4.447 I0.45 J0.338
N1830 X101.688 Y150.645 Z-4.759 I-0.45 J-0.338
N1835 X102.588 Y151.321 Z-5.071 I0.45 J0.338
N1840 X101.688 Y150.645 Z-5.382 I-0.45 J-0.338
N1845 X102.588 Y151.321 Z-5.694 I0.45 J0.338
N1850 X101.688 Y150.645 Z-6.005 I-0.45 J-0.338
N1855 X102.588 Y151.321 Z-6.317 I0.45 J0.338
N1860 X101.688 Y150.645 Z-6.629 I-0.45 J-0.338
N1865 X102.588 Y151.321 Z-6.94 I0.45 J0.338
N1870 X101.688 Y150.645 Z-7.252 I-0.45 J-0.338
N1875 X102.588 Y151.321 Z-7.563 I0.45 J0.338
N1880 X101.688 Y150.645 Z-7.875 I-0.45 J-0.338
N1885 X102.588 Y151.321 Z-8.187 I0.45 J0.338
N1890 X101.688 Y150.645 Z-8.498 I-0.45 J-0.338
N1895 X102.588 Y151.321 Z-8.81 I0.45 J0.338
N1900 X101.688 Y150.645 Z-9.121 I-0.45 J-0.338
N1905 X102.588 Y151.321 Z-9.433 I0.45 J0.338
N1910 X102.138 Y151.546 Z-9.525 I-0.45 J-0.338
N1915 Y150.421 I0 J-0.563 F1778
N1920 Y151.546 I0 J0.563
N1925 G1 X102.078 Y151.54 Z-9.513
N1930 X102.019 Y151.523 Z-9.501
N1935 X101.973 Y151.5 Z-9.466
N1940 X101.932 Y151.469 Z-9.432
N1945 X101.885 Y151.419 Z-9.329
N1950 X101.871 Y151.4 Z-9.208
N1955 G0 Z15.24

(LID HOLES)
N1960 G0 X25.832 Y7.956
N1965 Z15.24
N1970 Z5.08
N1975 G1 Z0.567 F1270
N1980 X25.799 Y7.964 Z0.424 F1016
N1985 X25.707 Y7.984 Z0.312
N1990 X25.574 Y8.003 Z0.254
N1995 G3 X25.226 Y4.697 Z-0.667 I-0.174 J-1.653
N2000 X25.574 Y8.003 Z-1.588 I0.174 J1.653
N2005 X25.226 Y4.697 Z-2.509 I-0.174 J-1.653
N2010 X27.063 Y6.35 Z-3 I0.174 J1.653
N2015 X26.353 Y7.06 I-0.71 J0
N2020 X25.642 Y6.35 I0 J-0.71
N2025 X27.063 I0.71 J0 F1778
N2030 X23.737 I-1.663 J0
N2035 X27.063 I1.663 J0
N2040 G1 X27.057 Y6.41 Z-2.988
N2045 X27.04 Y6.469 Z-2.976
N2050 X27.017 Y6.515 Z-2.941
N2055 X26.986 Y6.556 Z-2.907
N2060 X26.936 Y6.603 Z-2.804
N2065 X26.917 Y6.617 Z-2.683
N2070 G0 Z5.08
N2075 X152.832 Y7.956
N2080 G1 Z0.567 F1270
N2085 X152.799 Y7.964 Z0.424 F1016
N2090 X152.707 Y7.984 Z0.312
N2095 X152.574 Y8.003 Z0.254
N2100 G3 X152.226 Y4.697 Z-0.667 I-0.174 J-1.653
N2105 X152.574 Y8.003 Z-1.588 I0.174 J1.653
N2110 X152.226 Y4.697 Z-2.509 I-0.174 J-1.653
N2115 X154.063 Y6.35 Z-3 I0.174 J1.653
N2120 X153.352 Y7.06 I-0.71 J0
N2125 X152.643 Y6.35 I0 J-0.71
N2130 X154.063 I0.71 J0 F1778
N2135 X150.737 I-1.663 J0
N2140 X154.063 I1.663 J0
N2145 G1 X154.057 Y6.41 Z-2.988
N2150 X154.04 Y6.469 Z-2.976
N2155 X154.017 Y6.515 Z-2.941
N2160 X153.986 Y6.556 Z-2.907
N2165 X153.936 Y6.603 Z-2.804
N2170 X153.917 Y6.617 Z-2.683
N2175 G0 Z5.08
N2180 X152.832 Y173.056
N2185 G1 Z0.567 F1270
N2190 X152.799 Y173.064 Z0.424 F1016
N2195 X152.707 Y173.084 Z0.312
N2200 X152.574 Y173.103 Z0.254
N2205 G3 X152.226 Y169.797 Z-0.667 I-0.174 J-1.653
N2210 X152.574 Y173.103 Z-1.588 I0.174 J1.653
N2215 X152.226 Y169.797 Z-2.509 I-0.174 J-1.653
N2220 X154.063 Y171.45 Z-3 I0.174 J1.653
N2225 X152.643 I-0.71 J0
N2230 X154.063 I0.71 J0 F1778
N2235 X150.737 I-1.663 J0
N2240 X154.063 I1.663 J0
N2245 G1 X154.057 Y171.51 Z-2.988
N2250 X154.04 Y171.569 Z-2.976
N2255 X154.017 Y171.615 Z-2.941
N2260 X153.986 Y171.656 Z-2.907
N2265 X153.936 Y171.703 Z-2.804
N2270 X153.917 Y171.717 Z-2.683
N2275 G0 Z5.08
N2280 X25.832 Y173.056
N2285 G1 Z0.567 F1270
N2290 X25.799 Y173.064 Z0.424 F1016
N2295 X25.707 Y173.084 Z0.312
N2300 X25.574 Y173.103 Z0.254
N2305 G3 X25.226 Y169.797 Z-0.667 I-0.174 J-1.653
N2310 X25.574 Y173.103 Z-1.588 I0.174 J1.653
N2315 X25.226 Y169.797 Z-2.509 I-0.174 J-1.653
N2320 X27.063 Y171.45 Z-3 I0.174 J1.653
N2325 X25.642 I-0.71 J0
N2330 X27.063 I0.71 J0 F1778
N2335 X23.737 I-1.663 J0
N2340 X27.063 I1.663 J0
N2345 G1 X27.057 Y171.51 Z-2.988
N2350 X27.04 Y171.569 Z-2.976
N2355 X27.017 Y171.615 Z-2.941
N2360 X26.986 Y171.656 Z-2.907
N2365 X26.936 Y171.703 Z-2.804
N2370 X26.917 Y171.717 Z-2.683
N2375 G0 Z15.24
N2380 X151.919 Y172.671
N2385 Z5.08
N2390 G1 Z0.567 F1270
N2395 X151.888 Y172.659 Z0.424 F1016
N2400 X151.803 Y172.619 Z0.312
N2405 X151.687 Y172.552 Z0.254
N2410 G3 X153.113 Y170.348 Z-0.473 I0.713 J-1.102
N2415 X151.687 Y172.552 Z-1.2 I-0.713 J1.102
N2420 X153.113 Y170.348 Z-1.927 I0.713 J-1.102
N2425 X151.687 Y172.552 Z-2.654 I-0.713 J1.102
N2430 X153.113 Y170.348 Z-3.381 I0.713 J-1.102
N2435 X151.687 Y172.552 Z-4.108 I-0.713 J1.102
N2440 X153.113 Y170.348 Z-4.835 I0.713 J-1.102
N2445 X151.687 Y172.552 Z-5.562 I-0.713 J1.102
N2450 X153.113 Y170.348 Z-6.29 I0.713 J-1.102
N2455 X151.687 Y172.552 Z-7.017 I-0.713 J1.102
N2460 X153.113 Y170.348 Z-7.744 I0.713 J-1.102
N2465 X151.687 Y172.552 Z-8.471 I-0.713 J1.102
N2470 X153.113 Y170.348 Z-9.198 I0.713 J-1.102
N2475 X151.687 Y172.552 Z-9.925 I-0.713 J1.102
N2480 X153.113 Y170.348 Z-10.652 I0.713 J-1.102
N2485 X151.687 Y172.552 Z-11.379 I-0.713 J1.102
N2490 X153.113 Y170.348 Z-12.106 I0.713 J-1.102
N2495 X152.4 Y172.762 Z-12.7 I-0.713 J1.102
N2500 Y170.137 I0 J-1.313 F1778
N2505 Y172.762 I0 J1.313
N2510 G1 X152.34 Y172.757 Z-12.688
N2515 X152.281 Y172.74 Z-12.676
N2520 X152.235 Y172.717 Z-12.641
N2525 X152.194 Y172.686 Z-12.607
N2530 X152.147 Y172.636 Z-12.504
N2535 X152.133 Y172.617 Z-12.383
N2540 G0 Z5.08
N2545 X24.919 Y172.671
N2550 G1 Z0.567 F1270
N2555 X24.888 Y172.659 Z0.424 F1016
N2560 X24.803 Y172.619 Z0.312
N2565 X24.687 Y172.552 Z0.254
N2570 G3 X26.113 Y170.348 Z-0.473 I0.713 J-1.102
N2575 X24.687 Y172.552 Z-1.2 I-0.713 J1.102
N2580 X26.113 Y170.348 Z-1.927 I0.713 J-1.102
N2585 X24.687 Y172.552 Z-2.654 I-0.713 J1.102
N2590 X26.113 Y170.348 Z-3.381 I0.713 J-1.102
N2595 X24.687 Y172.552 Z-4.108 I-0.713 J1.102
N2600 X26.113 Y170.348 Z-4.835 I0.713 J-1.102
N2605 X24.687 Y172.552 Z-5.562 I-0.713 J1.102
N2610 X26.113 Y170.348 Z-6.29 I0.713 J-1.102
N2615 X24.687 Y172.552 Z-7.017 I-0.713 J1.102
N2620 X26.113 Y170.348 Z-7.744 I0.713 J-1.102
N2625 X24.687 Y172.552 Z-8.471 I-0.713 J1.102
N2630 X26.113 Y170.348 Z-9.198 I0.713 J-1.102
N2635 X24.687 Y172.552 Z-9.925 I-0.713 J1.102
N2640 X26.113 Y170.348 Z-10.652 I0.713 J-1.102
N2645 X24.687 Y172.552 Z-11.379 I-0.713 J1.102
N2650 X26.113 Y170.348 Z-12.106 I0.713 J-1.102
N2655 X25.4 Y172.762 Z-12.7 I-0.713 J1.102
N2660 Y170.137 I0 J-1.313 F1778
N2665 Y172.762 I0 J1.313
N2670 G1 X25.34 Y172.757 Z-12.688
N2675 X25.281 Y172.74 Z-12.676
N2680 X25.235 Y172.717 Z-12.641
N2685 X25.194 Y172.686 Z-12.607
N2690 X25.147 Y172.636 Z-12.504
N2695 X25.133 Y172.617 Z-12.383
N2700 G0 Z5.08
N2705 X24.919 Y7.571
N2710 G1 Z0.567 F1270
N2715 X24.888 Y7.559 Z0.424 F1016
N2720 X24.803 Y7.519 Z0.312
N2725 X24.687 Y7.452 Z0.254
N2730 G3 X26.113 Y5.248 Z-0.473 I0.713 J-1.102
N2735 X24.687 Y7.452 Z-1.2 I-0.713 J1.102
N2740 X26.113 Y5.248 Z-1.927 I0.713 J-1.102
N2745 X24.687 Y7.452 Z-2.654 I-0.713 J1.102
N2750 X26.113 Y5.248 Z-3.381 I0.713 J-1.102
N2755 X24.687 Y7.452 Z-4.108 I-0.713 J1.102
N2760 X26.113 Y5.248 Z-4.835 I0.713 J-1.102
N2765 X24.687 Y7.452 Z-5.562 I-0.713 J1.102
N2770 X26.113 Y5.248 Z-6.29 I0.713 J-1.102
N2775 X24.687 Y7.452 Z-7.017 I-0.713 J1.102
N2780 X26.113 Y5.248 Z-7.744 I0.713 J-1.102
N2785 X24.687 Y7.452 Z-8.471 I-0.713 J1.102
N2790 X26.113 Y5.248 Z-9.198 I0.713 J-1.102
N2795 X24.687 Y7.452 Z-9.925 I-0.713 J1.102
N2800 X26.113 Y5.248 Z-10.652 I0.713 J-1.102
N2805 X24.687 Y7.452 Z-11.379 I-0.713 J1.102
N2810 X26.113 Y5.248 Z-12.106 I0.713 J-1.102
N2815 X25.4 Y7.662 Z-12.7 I-0.713 J1.102
N2820 Y5.037 I0 J-1.313 F1778
N2825 Y7.662 I0 J1.313
N2830 G1 X25.34 Y7.657 Z-12.688
N2835 X25.281 Y7.64 Z-12.676
N2840 X25.235 Y7.617 Z-12.641
N2845 X25.194 Y7.586 Z-12.607
N2850 X25.147 Y7.536 Z-12.504
N2855 X25.133 Y7.517 Z-12.383
N2860 G0 Z5.08
N2865 X151.919 Y7.571
N2870 G1 Z0.567 F1270
N2875 X151.888 Y7.559 Z0.424 F1016
N2880 X151.803 Y7.519 Z0.312
N2885 X151.687 Y7.452 Z0.254
N2890 G3 X153.113 Y5.248 Z-0.473 I0.713 J-1.102
N2895 X151.687 Y7.452 Z-1.2 I-0.713 J1.102
N2900 X153.113 Y5.248 Z-1.927 I0.713 J-1.102
N2905 X151.687 Y7.452 Z-2.654 I-0.713 J1.102
N2910 X153.113 Y5.248 Z-3.381 I0.713 J-1.102
N2915 X151.687 Y7.452 Z-4.108 I-0.713 J1.102
N2920 X153.113 Y5.248 Z-4.835 I0.713 J-1.102
N2925 X151.687 Y7.452 Z-5.562 I-0.713 J1.102
N2930 X153.113 Y5.248 Z-6.29 I0.713 J-1.102
N2935 X151.687 Y7.452 Z-7.017 I-0.713 J1.102
N2940 X153.113 Y5.248 Z-7.744 I0.713 J-1.102
N2945 X151.687 Y7.452 Z-8.471 I-0.713 J1.102
N2950 X153.113 Y5.248 Z-9.198 I0.713 J-1.102
N2955 X151.687 Y7.452 Z-9.925 I-0.713 J1.102
N2960 X153.113 Y5.248 Z-10.652 I0.713 J-1.102
N2965 X151.687 Y7.452 Z-11.379 I-0.713 J1.102
N2970 X153.113 Y5.248 Z-12.106 I0.713 J-1.102
N2975 X152.4 Y7.662 Z-12.7 I-0.713 J1.102
N2980 Y5.037 I0 J-1.313 F1778
N2985 Y7.662 I0 J1.313
N2990 G1 X152.34 Y7.657 Z-12.688
N2995 X152.281 Y7.64 Z-12.676
N3000 X152.235 Y7.617 Z-12.641
N3005 X152.194 Y7.586 Z-12.607
N3010 X152.147 Y7.536 Z-12.504
N3015 X152.133 Y7.517 Z-12.383
N3020 G0 Z15.24
N3025 M30
%
