%
(TOCK_THREAD_BASE_1-4BIT_V01)
(MACHINE)
(  VENDOR KIRBRE ENTERPRISES INC)
(  MODEL JOURNEYMAN)
(  DESCRIPTION ONEFINITY COMMUNITY EDITION V2022.02.21.1)
(T1 D=6.35 CR=0 - ZMIN=-16.51 - FLAT END MILL)
N10 G90 G94 G17 G91.1
N15 G21

(BORDER)
(T1)
N20 S16000 M3
N25 G54
N30 G0 X-0.322 Y177.223
N35 G43 Z15.24 H1
N40 G0 Z5.08
N45 G1 Z1 F1905
N50 Z-1.905
N55 X-0.316 Y177.218 Z-2.004 F3810
N60 X-0.3 Y177.201 Z-2.101
N65 X-0.273 Y177.174 Z-2.193
N70 X-0.236 Y177.137 Z-2.278
N75 X-0.19 Y177.092 Z-2.354
N80 X-0.136 Y177.038 Z-2.419
N85 X-0.076 Y176.978 Z-2.471
N90 X-0.011 Y176.913 Z-2.509
N95 X0.057 Y176.844 Z-2.532
N100 X0.127 Y176.774 Z-2.54
N105 X0.576 Y176.325
N110 G3 X1.475 I0.449 J0.449
N115 G2 X12.7 Y180.975 I11.225 J-11.225
N120 G1 X165.1
N125 G2 X180.975 Y165.1 I0 J-15.875
N130 G1 Y12.7
N135 G2 X165.1 Y-3.175 I-15.875 J0
N140 G1 X12.7
N145 G2 X-3.175 Y12.7 I0 J15.875
N150 G1 Y165.1
N155 G2 X1.475 Y176.325 I15.875 J0
N160 G3 Y177.223 I-0.449 J0.449
N165 G1 X1.025 Y177.672
N170 X0.955 Y177.742 Z-2.532
N175 X0.887 Y177.811 Z-2.509
N180 X0.822 Y177.876 Z-2.471
N185 X0.762 Y177.936 Z-2.419
N190 X0.708 Y177.99 Z-2.354
N195 X0.662 Y178.035 Z-2.278
N200 X0.625 Y178.072 Z-2.193
N205 X0.598 Y178.099 Z-2.101
N210 X0.582 Y178.116 Z-2.004
N215 X0.576 Y178.121 Z-1.905
N220 Z1
N225 Z5.08
N230 G0 X-0.322 Y177.223
N235 G1 Z-1.54 F1905
N240 Z-4.445
N245 X-0.316 Y177.218 Z-4.544 F3810
N250 X-0.3 Y177.201 Z-4.641
N255 X-0.273 Y177.174 Z-4.733
N260 X-0.236 Y177.137 Z-4.818
N265 X-0.19 Y177.092 Z-4.894
N270 X-0.136 Y177.038 Z-4.959
N275 X-0.076 Y176.978 Z-5.011
N280 X-0.011 Y176.913 Z-5.049
N285 X0.057 Y176.844 Z-5.072
N290 X0.127 Y176.774 Z-5.08
N295 X0.576 Y176.325
N300 G3 X1.475 I0.449 J0.449
N305 G2 X12.7 Y180.975 I11.225 J-11.225
N310 G1 X165.1
N315 G2 X180.975 Y165.1 I0 J-15.875
N320 G1 Y12.7
N325 G2 X165.1 Y-3.175 I-15.875 J0
N330 G1 X12.7
N335 G2 X-3.175 Y12.7 I0 J15.875
N340 G1 Y165.1
N345 G2 X1.475 Y176.325 I15.875 J0
N350 G3 Y177.223 I-0.449 J0.449
N355 G1 X1.025 Y177.672
N360 X0.955 Y177.742 Z-5.072
N365 X0.887 Y177.811 Z-5.049
N370 X0.822 Y177.876 Z-5.011
N375 X0.762 Y177.936 Z-4.959
N380 X0.708 Y177.99 Z-4.894
N385 X0.662 Y178.035 Z-4.818
N390 X0.625 Y178.072 Z-4.733
N395 X0.598 Y178.099 Z-4.641
N400 X0.582 Y178.116 Z-4.544
N405 X0.576 Y178.121 Z-4.445
N410 Z-1.54
N415 Z5.08
N420 G0 X-0.322 Y177.223
N425 G1 Z-4.08 F1905
N430 Z-6.985
N435 X-0.316 Y177.218 Z-7.084 F3810
N440 X-0.3 Y177.201 Z-7.181
N445 X-0.273 Y177.174 Z-7.273
N450 X-0.236 Y177.137 Z-7.358
N455 X-0.19 Y177.092 Z-7.434
N460 X-0.136 Y177.038 Z-7.499
N465 X-0.076 Y176.978 Z-7.551
N470 X-0.011 Y176.913 Z-7.589
N475 X0.057 Y176.844 Z-7.612
N480 X0.127 Y176.774 Z-7.62
N485 X0.576 Y176.325
N490 G3 X1.475 I0.449 J0.449
N495 G2 X12.7 Y180.975 I11.225 J-11.225
N500 G1 X165.1
N505 G2 X180.975 Y165.1 I0 J-15.875
N510 G1 Y12.7
N515 G2 X165.1 Y-3.175 I-15.875 J0
N520 G1 X12.7
N525 G2 X-3.175 Y12.7 I0 J15.875
N530 G1 Y165.1
N535 G2 X1.475 Y176.325 I15.875 J0
N540 G3 Y177.223 I-0.449 J0.449
N545 G1 X1.025 Y177.672
N550 X0.955 Y177.742 Z-7.612
N555 X0.887 Y177.811 Z-7.589
N560 X0.822 Y177.876 Z-7.551
N565 X0.762 Y177.936 Z-7.499
N570 X0.708 Y177.99 Z-7.434
N575 X0.662 Y178.035 Z-7.358
N580 X0.625 Y178.072 Z-7.273
N585 X0.598 Y178.099 Z-7.181
N590 X0.582 Y178.116 Z-7.084
N595 X0.576 Y178.121 Z-6.985
N600 Z-4.08
N605 Z5.08
N610 G0 X-0.322 Y177.223
N615 G1 Z-6.62 F1905
N620 Z-9.525
N625 X-0.316 Y177.218 Z-9.624 F3810
N630 X-0.3 Y177.201 Z-9.721
N635 X-0.273 Y177.174 Z-9.813
N640 X-0.236 Y177.137 Z-9.898
N645 X-0.19 Y177.092 Z-9.974
N650 X-0.136 Y177.038 Z-10.039
N655 X-0.076 Y176.978 Z-10.091
N660 X-0.011 Y176.913 Z-10.129
N665 X0.057 Y176.844 Z-10.152
N670 X0.127 Y176.774 Z-10.16
N675 X0.576 Y176.325
N680 G3 X1.475 I0.449 J0.449
N685 G2 X12.7 Y180.975 I11.225 J-11.225
N690 G1 X165.1
N695 G2 X180.975 Y165.1 I0 J-15.875
N700 G1 Y12.7
N705 G2 X165.1 Y-3.175 I-15.875 J0
N710 G1 X12.7
N715 G2 X-3.175 Y12.7 I0 J15.875
N720 G1 Y165.1
N725 G2 X1.475 Y176.325 I15.875 J0
N730 G3 Y177.223 I-0.449 J0.449
N735 G1 X1.025 Y177.672
N740 X0.955 Y177.742 Z-10.152
N745 X0.887 Y177.811 Z-10.129
N750 X0.822 Y177.876 Z-10.091
N755 X0.762 Y177.936 Z-10.039
N760 X0.708 Y177.99 Z-9.974
N765 X0.662 Y178.035 Z-9.898
N770 X0.625 Y178.072 Z-9.813
N775 X0.598 Y178.099 Z-9.721
N780 X0.582 Y178.116 Z-9.624
N785 X0.576 Y178.121 Z-9.525
N790 Z-6.62
N795 Z5.08
N800 G0 X-0.322 Y177.223
N805 G1 Z-9.16 F1905
N810 Z-12.065
N815 X-0.316 Y177.218 Z-12.164 F3810
N820 X-0.3 Y177.201 Z-12.261
N825 X-0.273 Y177.174 Z-12.353
N830 X-0.236 Y177.137 Z-12.438
N835 X-0.19 Y177.092 Z-12.514
N840 X-0.136 Y177.038 Z-12.579
N845 X-0.076 Y176.978 Z-12.631
N850 X-0.011 Y176.913 Z-12.669
N855 X0.057 Y176.844 Z-12.692
N860 X0.127 Y176.774 Z-12.7
N865 X0.576 Y176.325
N870 G3 X1.475 I0.449 J0.449
N875 G2 X12.7 Y180.975 I11.225 J-11.225
N880 G1 X165.1
N885 G2 X180.975 Y165.1 I0 J-15.875
N890 G1 Y12.7
N895 G2 X165.1 Y-3.175 I-15.875 J0
N900 G1 X12.7
N905 G2 X-3.175 Y12.7 I0 J15.875
N910 G1 Y165.1
N915 G2 X1.475 Y176.325 I15.875 J0
N920 G3 Y177.223 I-0.449 J0.449
N925 G1 X1.025 Y177.672
N930 X0.955 Y177.742 Z-12.692
N935 X0.887 Y177.811 Z-12.669
N940 X0.822 Y177.876 Z-12.631
N945 X0.762 Y177.936 Z-12.579
N950 X0.708 Y177.99 Z-12.514
N955 X0.662 Y178.035 Z-12.438
N960 X0.625 Y178.072 Z-12.353
N965 X0.598 Y178.099 Z-12.261
N970 X0.582 Y178.116 Z-12.164
N975 X0.576 Y178.121 Z-12.065
N980 Z-9.16
N985 Z5.08
N990 G0 X-0.322 Y177.223
N995 G1 Z-11.7 F1905
N1000 Z-14.605
N1005 X-0.316 Y177.218 Z-14.704 F3810
N1010 X-0.3 Y177.201 Z-14.801
N1015 X-0.273 Y177.174 Z-14.893
N1020 X-0.236 Y177.137 Z-14.978
N1025 X-0.19 Y177.092 Z-15.054
N1030 X-0.136 Y177.038 Z-15.119
N1035 X-0.076 Y176.978 Z-15.171
N1040 X-0.011 Y176.913 Z-15.209
N1045 X0.057 Y176.844 Z-15.232
N1050 X0.127 Y176.774 Z-15.24
N1055 X0.576 Y176.325
N1060 G3 X1.475 I0.449 J0.449
N1065 G2 X12.7 Y180.975 I11.225 J-11.225
N1070 G1 X165.1
N1075 G2 X180.975 Y165.1 I0 J-15.875
N1080 G1 Y12.7
N1085 G2 X165.1 Y-3.175 I-15.875 J0
N1090 G1 X12.7
N1095 G2 X-3.175 Y12.7 I0 J15.875
N1100 G1 Y165.1
N1105 G2 X1.475 Y176.325 I15.875 J0
N1110 G3 Y177.223 I-0.449 J0.449
N1115 G1 X1.025 Y177.672
N1120 X0.955 Y177.742 Z-15.232
N1125 X0.887 Y177.811 Z-15.209
N1130 X0.822 Y177.876 Z-15.171
N1135 X0.762 Y177.936 Z-15.119
N1140 X0.708 Y177.99 Z-15.054
N1145 X0.662 Y178.035 Z-14.978
N1150 X0.625 Y178.072 Z-14.893
N1155 X0.598 Y178.099 Z-14.801
N1160 X0.582 Y178.116 Z-14.704
N1165 X0.576 Y178.121 Z-14.605
N1170 Z-11.7
N1175 Z5.08
N1180 G0 X-0.322 Y177.223
N1185 G1 Z-14.24 F1905
N1190 Z-15.875
N1195 X-0.316 Y177.218 Z-15.974 F3810
N1200 X-0.3 Y177.201 Z-16.071
N1205 X-0.273 Y177.174 Z-16.163
N1210 X-0.236 Y177.137 Z-16.248
N1215 X-0.19 Y177.092 Z-16.324
N1220 X-0.136 Y177.038 Z-16.389
N1225 X-0.076 Y176.978 Z-16.441
N1230 X-0.011 Y176.913 Z-16.479
N1235 X0.057 Y176.844 Z-16.502
N1240 X0.127 Y176.774 Z-16.51
N1245 X0.576 Y176.325
N1250 G3 X1.475 I0.449 J0.449
N1255 G2 X12.7 Y180.975 I11.225 J-11.225
N1260 G1 X165.1
N1265 G2 X180.975 Y165.1 I0 J-15.875
N1270 G1 Y12.7
N1275 G2 X165.1 Y-3.175 I-15.875 J0
N1280 G1 X12.7
N1285 G2 X-3.175 Y12.7 I0 J15.875
N1290 G1 Y165.1
N1295 G2 X1.475 Y176.325 I15.875 J0
N1300 G3 Y177.223 I-0.449 J0.449
N1305 G1 X1.025 Y177.672
N1310 X0.955 Y177.742 Z-16.502
N1315 X0.887 Y177.811 Z-16.479
N1320 X0.822 Y177.876 Z-16.441
N1325 X0.762 Y177.936 Z-16.389
N1330 X0.708 Y177.99 Z-16.324
N1335 X0.662 Y178.035 Z-16.248
N1340 X0.625 Y178.072 Z-16.163
N1345 X0.598 Y178.099 Z-16.071
N1350 X0.582 Y178.116 Z-15.974
N1355 X0.576 Y178.121 Z-15.875
N1360 Z5.08
N1365 G0 Z15.24
N1370 M30
%
