%
(TOCK_THREAD_BASE_45BIT_V01)
(MACHINE)
(  VENDOR KIRBRE ENTERPRISES INC)
(  MODEL JOURNEYMAN)
(  DESCRIPTION ONEFINITY COMMUNITY EDITION V2022.02.21.1)
(T2 D=6.35 CR=0 TAPER=22.5DEG - ZMIN=-2.286 - CHAMFER MILL)
(T45 D=0.711 CR=0.397 TAPER=6.3DEG - ZMIN=-2.286 - TAPERED MILL)
N10 G90 G94 G17 G91.1
N15 G21

(BOARD OUTLINES)
(T2)
N20 S16000 M3
N25 G54
N30 G0 X20.112 Y17.802
N35 G43 Z15.24 H2
N40 G0 Z5.08
N45 G1 Z-0.001 F1270
N50 X20.728 Y18.418 Z-1.488 F2540
N55 X20.711 Y18.462 Z-1.445
N60 X20.695 Y18.505 Z-1.41
N65 X20.683 Y18.549 Z-1.375
N70 X20.67 Y18.592 Z-1.349
N75 X20.661 Y18.636 Z-1.323
N80 X20.652 Y18.679 Z-1.305
N85 X20.647 Y18.723 Z-1.288
N90 X20.641 Y18.767 Z-1.279
N95 X20.639 Y18.81 Z-1.27
N100 X20.638 Y18.854
N105 X20.639 Y81.345
N110 X20.641 Y81.389 Z-1.279
N115 X20.647 Y81.432 Z-1.288
N120 X20.652 Y81.476 Z-1.305
N125 X20.661 Y81.519 Z-1.323
N130 X20.67 Y81.563 Z-1.349
N135 X20.683 Y81.607 Z-1.375
N140 X20.695 Y81.65 Z-1.41
N145 X20.711 Y81.694 Z-1.445
N150 X20.728 Y81.737 Z-1.488
N155 X20.112 Y82.353 Z-0.001
N160 X20.728 Y81.737 Z-1.488
N165 X20.771 Y81.754 Z-1.445
N170 X20.815 Y81.77 Z-1.409
N175 X20.858 Y81.783 Z-1.375
N180 X20.902 Y81.795 Z-1.348
N185 X20.946 Y81.804 Z-1.322
N190 X20.989 Y81.813 Z-1.305
N195 X21.033 Y81.819 Z-1.288
N200 X21.076 Y81.824 Z-1.279
N205 X21.12 Y81.826 Z-1.27
N210 X21.164 Y81.828
N215 X153.866 Y81.826
N220 X153.909 Y81.824 Z-1.279
N225 X153.952 Y81.819 Z-1.287
N230 X153.995 Y81.814 Z-1.304
N235 X154.038 Y81.805 Z-1.321
N240 X154.081 Y81.796 Z-1.347
N245 X154.125 Y81.784 Z-1.373
N250 X154.168 Y81.771 Z-1.406
N255 X154.211 Y81.755 Z-1.441
N260 X154.254 Y81.739 Z-1.483
N265 X154.858 Y82.353 Z-0.001
N270 X154.254 Y81.739 Z-1.483
N275 X154.27 Y81.697 Z-1.441
N280 X154.287 Y81.654 Z-1.406
N285 X154.3 Y81.611 Z-1.373
N290 X154.313 Y81.568 Z-1.347
N295 X154.323 Y81.525 Z-1.321
N300 X154.332 Y81.482 Z-1.304
N305 X154.338 Y81.439 Z-1.287
N310 X154.344 Y81.396 Z-1.279
N315 X154.347 Y81.353 Z-1.27
N320 X154.624 Y64.58
N325 X154.626 Y64.546
N330 X154.631 Y64.478 Z-1.281
N335 X154.641 Y64.41 Z-1.302
N340 X154.647 Y64.376 Z-1.318
N345 X154.105 Y64.146 Z-0.001
N350 X154.647 Y64.376 Z-1.318
N355 X154.668 Y64.348 Z-1.302
N360 X154.71 Y64.293 Z-1.281
N365 X154.755 Y64.242 Z-1.27
N370 X157.013 Y61.982 Z-1.271
N375 X157.037 Y61.956
N380 X157.083 Y61.904 Z-1.282
N385 X157.126 Y61.848 Z-1.304
N390 X157.147 Y61.819 Z-1.321
N395 X157.694 Y62.045 Z-0.001
N400 X157.147 Y61.819 Z-1.321
N405 X157.153 Y61.784 Z-1.305
N410 X157.162 Y61.714 Z-1.282
N415 X157.166 Y61.645 Z-1.271
N420 X157.167 Y61.61
N425 X157.166 Y28.671
N430 X157.162 Y28.601 Z-1.282
N435 X157.152 Y28.531 Z-1.305
N440 X157.147 Y28.496 Z-1.321
N445 X157.694 Y28.27 Z-0.001
N450 X157.147 Y28.496 Z-1.321
N455 X157.126 Y28.468 Z-1.304
N460 X157.083 Y28.412 Z-1.282
N465 X157.037 Y28.359 Z-1.271
N470 X154.782 Y26.102
N475 X154.758 Y26.076
N480 X154.712 Y26.024 Z-1.282
N485 X154.669 Y25.968 Z-1.304
N490 X154.648 Y25.939 Z-1.321
N495 X154.101 Y26.165 Z-0.001
N500 X154.648 Y25.939 Z-1.321
N505 X154.643 Y25.904 Z-1.305
N510 X154.633 Y25.834 Z-1.282
N515 X154.629 Y25.765 Z-1.271
N520 X154.628 Y25.73
N525 X154.626 Y18.81
N530 X154.624 Y18.767 Z-1.28
N535 X154.618 Y18.723 Z-1.289
N540 X154.613 Y18.679 Z-1.306
N545 X154.604 Y18.636 Z-1.323
N550 X154.595 Y18.592 Z-1.349
N555 X154.582 Y18.549 Z-1.376
N560 X154.57 Y18.505 Z-1.41
N565 X154.554 Y18.462 Z-1.446
N570 X154.537 Y18.418 Z-1.489
N575 X155.154 Y17.802 Z-0.001
N580 X154.537 Y18.418 Z-1.489
N585 X154.494 Y18.402 Z-1.445
N590 X154.45 Y18.386 Z-1.41
N595 X154.406 Y18.373 Z-1.375
N600 X154.363 Y18.36 Z-1.349
N605 X154.319 Y18.351 Z-1.323
N610 X154.276 Y18.342 Z-1.305
N615 X154.232 Y18.337 Z-1.288
N620 X154.188 Y18.331 Z-1.279
N625 X154.145 Y18.329 Z-1.27
N630 X154.101 Y18.328
N635 X21.12 Y18.329
N640 X21.076 Y18.331 Z-1.279
N645 X21.033 Y18.337 Z-1.288
N650 X20.989 Y18.342 Z-1.305
N655 X20.946 Y18.351 Z-1.322
N660 X20.902 Y18.36 Z-1.348
N665 X20.858 Y18.373 Z-1.375
N670 X20.815 Y18.385 Z-1.409
N675 X20.771 Y18.402 Z-1.445
N680 X20.728 Y18.418 Z-1.488
N685 G0 Z5.08
N690 X23.035 Y98.487
N695 G1 Z-1.27 F1270
N700 X23.177 Y98.483 F2540
N705 X103.097
N710 X103.168 Y98.485 Z-1.268
N715 X103.239 Y98.487 Z-1.27
N720 X103.306 Y98.492 Z-1.268
N725 X103.373 Y98.498 Z-1.27
N730 X103.437 Y98.506 Z-1.268
N735 X103.501 Y98.515 Z-1.27
N740 X103.562 Y98.526 Z-1.268
N745 X103.623 Y98.538 Z-1.27
N750 X103.682 Y98.552 Z-1.269
N755 X103.74 Y98.565 Z-1.27
N760 X103.797 Y98.582 Z-1.269
N765 X103.853 Y98.598 Z-1.27
N770 X103.907 Y98.616 Z-1.269
N775 X103.962 Y98.634 Z-1.27
N780 X104.014 Y98.655 Z-1.269
N785 X104.066 Y98.675 Z-1.27
N790 X104.117 Y98.697 Z-1.269
N795 X104.167 Y98.719 Z-1.27
N800 X104.216 Y98.743 Z-1.269
N805 X104.265 Y98.767 Z-1.27
N810 X104.359 Y98.818
N815 X104.449 Y98.872
N820 X104.537 Y98.93
N825 X104.621 Y98.991 Z-1.271
N830 X104.703 Y99.054
N835 X104.781 Y99.121
N840 X104.857 Y99.191
N845 X104.929 Y99.263
N850 X104.999 Y99.339
N855 X105.066 Y99.417
N860 X105.129 Y99.499
N865 X105.19 Y99.583
N870 X105.248 Y99.671
N875 X105.302 Y99.761
N880 X105.353 Y99.855
N885 X105.377 Y99.904 Z-1.269
N890 X105.401 Y99.953 Z-1.271
N895 X105.423 Y100.003 Z-1.269
N900 X105.445 Y100.054 Z-1.271
N905 X105.466 Y100.106 Z-1.269
N910 X105.486 Y100.158 Z-1.271
N915 X105.504 Y100.213 Z-1.269
N920 X105.522 Y100.267 Z-1.271
N925 X105.539 Y100.323 Z-1.269
N930 X105.555 Y100.38 Z-1.271
N935 X105.569 Y100.438 Z-1.269
N940 X105.583 Y100.497 Z-1.271
N945 X105.594 Y100.558 Z-1.269
N950 X105.605 Y100.62 Z-1.271
N955 X105.614 Y100.683 Z-1.269
N960 X105.623 Y100.747 Z-1.271
N965 X105.626 Y100.816 Z-1.264
N970 X105.63 Y100.885 Z-1.262
N975 X105.634 Y100.954 Z-1.264
N980 X105.637 Y101.023 Z-1.271
N985 Y151.943
N990 X105.636 Y152.012 Z-1.269
N995 X105.634 Y152.08 Z-1.271
N1000 X105.629 Y152.146 Z-1.269
N1005 X105.623 Y152.211 Z-1.271
N1010 X105.615 Y152.273 Z-1.269
N1015 X105.607 Y152.335 Z-1.271
N1020 X105.596 Y152.395 Z-1.269
N1025 X105.585 Y152.455 Z-1.271
N1030 X105.572 Y152.512 Z-1.269
N1035 X105.559 Y152.569 Z-1.271
N1040 X105.544 Y152.625 Z-1.269
N1045 X105.528 Y152.68 Z-1.271
N1050 X105.511 Y152.733 Z-1.269
N1055 X105.493 Y152.786 Z-1.271
N1060 X105.474 Y152.837 Z-1.269
N1065 X105.455 Y152.888 Z-1.271
N1070 X105.434 Y152.938 Z-1.269
N1075 X105.413 Y152.987 Z-1.271
N1080 X105.367 Y153.083
N1085 X105.319 Y153.175
N1090 X105.267 Y153.264
N1095 X105.212 Y153.35
N1100 X105.154 Y153.433
N1105 X105.093 Y153.514
N1110 X105.03 Y153.591
N1115 X104.964 Y153.666
N1120 X104.895 Y153.738 Z-1.27
N1125 X104.823 Y153.807
N1130 X104.748 Y153.873
N1135 X104.671 Y153.937
N1140 X104.59 Y153.998
N1145 X104.507 Y154.056
N1150 X104.421 Y154.111
N1155 X104.332 Y154.163
N1160 X104.24 Y154.211
N1165 X104.145 Y154.257
N1170 X104.046 Y154.299
N1175 X103.995 Y154.319 Z-1.269
N1180 X103.943 Y154.338 Z-1.27
N1185 X103.89 Y154.355 Z-1.269
N1190 X103.837 Y154.373 Z-1.27
N1195 X103.782 Y154.388 Z-1.269
N1200 X103.727 Y154.404 Z-1.27
N1205 X103.67 Y154.417 Z-1.268
N1210 X103.613 Y154.43 Z-1.27
N1215 X103.553 Y154.441 Z-1.268
N1220 X103.493 Y154.452 Z-1.27
N1225 X103.431 Y154.46 Z-1.268
N1230 X103.369 Y154.468 Z-1.27
N1235 X103.301 Y154.472 Z-1.263
N1240 X103.233 Y154.476 Z-1.261
N1245 X103.166 Y154.479 Z-1.263
N1250 X103.097 Y154.483 Z-1.27
N1255 X23.177
N1260 X23.107 Y154.481 Z-1.272
N1265 X23.036 Y154.479 Z-1.27
N1270 X22.969 Y154.474 Z-1.272
N1275 X22.902 Y154.468 Z-1.27
N1280 X22.838 Y154.459 Z-1.272
N1285 X22.774 Y154.451 Z-1.27
N1290 X22.713 Y154.439 Z-1.272
N1295 X22.652 Y154.428 Z-1.27
N1300 X22.593 Y154.414 Z-1.272
N1305 X22.535 Y154.4 Z-1.27
N1310 X22.478 Y154.384 Z-1.272
N1315 X22.422 Y154.368 Z-1.27
N1320 X22.367 Y154.35 Z-1.271
N1325 X22.313 Y154.331 Z-1.27
N1330 X22.261 Y154.311 Z-1.271
N1335 X22.208 Y154.291 Z-1.27
N1340 X22.158 Y154.269 Z-1.271
N1345 X22.108 Y154.247 Z-1.27
N1350 X22.059 Y154.223 Z-1.271
N1355 X22.01 Y154.199 Z-1.27
N1360 X21.916 Y154.148
N1365 X21.825 Y154.093
N1370 X21.738 Y154.036
N1375 X21.653 Y153.975
N1380 X21.572 Y153.911
N1385 X21.494 Y153.845
N1390 X21.418 Y153.775
N1395 X21.346 Y153.702
N1400 X21.276 Y153.627
N1405 X21.209 Y153.548
N1410 X21.145 Y153.467
N1415 X21.085 Y153.383
N1420 X21.027 Y153.295
N1425 X20.973 Y153.204
N1430 X20.922 Y153.11
N1435 X20.898 Y153.062 Z-1.271
N1440 X20.874 Y153.013 Z-1.27
N1445 X20.852 Y152.962 Z-1.272
N1450 X20.83 Y152.912 Z-1.27
N1455 X20.809 Y152.86 Z-1.272
N1460 X20.789 Y152.807 Z-1.27
N1465 X20.771 Y152.753 Z-1.272
N1470 X20.753 Y152.699 Z-1.27
N1475 X20.736 Y152.642 Z-1.272
N1480 X20.72 Y152.586 Z-1.27
N1485 X20.706 Y152.527 Z-1.272
N1490 X20.692 Y152.469 Z-1.27
N1495 X20.681 Y152.407 Z-1.272
N1500 X20.67 Y152.346 Z-1.27
N1505 X20.661 Y152.282 Z-1.272
N1510 X20.652 Y152.218 Z-1.27
N1515 X20.649 Y152.149 Z-1.277
N1520 X20.645 Y152.081 Z-1.279
N1525 X20.641 Y152.012 Z-1.277
N1530 X20.638 Y151.943 Z-1.27
N1535 Y101.023
N1540 X20.641 Y100.881
N1545 X20.653 Y100.739
N1550 X20.673 Y100.598
N1555 X20.701 Y100.458
N1560 X20.737 Y100.32
N1565 X20.78 Y100.184
N1570 X20.831 Y100.051
N1575 X20.889 Y99.921
N1580 X20.954 Y99.794
N1585 X21.027 Y99.672
N1590 X21.106 Y99.553
N1595 X21.192 Y99.439
N1600 X21.284 Y99.33
N1605 X21.381 Y99.227
N1610 X21.485 Y99.129
N1615 X21.594 Y99.037
N1620 X21.708 Y98.951
N1625 X21.826 Y98.872
N1630 X21.949 Y98.8
N1635 X22.075 Y98.734
N1640 X22.205 Y98.676
N1645 X22.339 Y98.625
N1650 X22.474 Y98.582
N1655 X22.612 Y98.547
N1660 X22.752 Y98.519
N1665 X22.893 Y98.499
N1670 X23.035 Y98.487
N1675 G0 Z15.24

(TOCK LOGO)
N1680 G0 X118.131 Y157.869
N1685 Z15.24
N1690 Z5.08
N1695 G1 Z-0.685 F1270
N1700 X118.179 Y157.839 Z-0.813 F2540
N1705 X118.159 Y157.825 Z-0.765
N1710 X118.179 Y157.839 Z-0.813
N1715 X118.182 Z-0.815
N1720 X118.227 Y157.843 Z-0.847
N1725 X118.254 Y157.848 Z-0.862
N1730 X118.285 Y157.851 Z-0.873
N1735 X118.364 Y157.864 Z-0.889
N1740 X118.389 Y157.867 Z-0.891
N1745 X118.521 Y157.888 Z-0.886
N1750 X118.624 Y157.9 Z-0.87
N1755 X118.724 Y157.912 Z-0.846
N1760 X118.824 Y157.921 Z-0.824
N1765 X118.947 Y157.928 Z-0.805
N1770 X119.083 Y157.934 Z-0.791
N1775 X119.368 Y157.942 Z-0.772
N1780 X119.53 Y157.945 Z-0.764
N1785 X119.697 Y157.947 Z-0.762
N1790 X121.042 Y157.945
N1795 X121.077 Y157.943 Z-0.771
N1800 X121.112 Y157.937 Z-0.781
N1805 X121.147 Y157.931 Z-0.799
N1810 X121.182 Y157.921 Z-0.818
N1815 X121.217 Y157.911 Z-0.846
N1820 X121.252 Y157.898 Z-0.875
N1825 X121.287 Y157.884 Z-0.912
N1830 X121.323 Y157.867 Z-0.951
N1835 X121.358 Y157.849 Z-0.997
N1840 X121.393 Y157.828 Z-1.045
N1845 X121.428 Y157.806 Z-1.1
N1850 X121.463 Y157.781 Z-1.158
N1855 X121.498 Y157.756 Z-1.222
N1860 X121.533 Y157.726 Z-1.29
N1865 X121.568 Y157.697 Z-1.364
N1870 X121.638 Y157.631 Z-1.523
N1875 X121.954 Y157.315 Z-2.286
N1880 X124.536
N1885 X124.864 Y157.641 Z-1.496
N1890 X124.901 Y157.676 Z-1.415
N1895 X124.937 Y157.706 Z-1.339
N1900 X124.974 Y157.736 Z-1.269
N1905 X125.01 Y157.763 Z-1.202
N1910 X125.046 Y157.789 Z-1.142
N1915 X125.083 Y157.811 Z-1.085
N1920 X125.119 Y157.833 Z-1.035
N1925 X125.156 Y157.852 Z-0.987
N1930 X125.192 Y157.87 Z-0.947
N1935 X125.228 Y157.884 Z-0.908
N1940 X125.265 Y157.898 Z-0.879
N1945 X125.319 Y157.913 Z-0.838
N1950 X125.337 Y157.918 Z-0.83
N1955 X125.374 Y157.924 Z-0.81
N1960 X125.41 Y157.93 Z-0.8
N1965 X125.447 Y157.932 Z-0.791
N1970 X125.483 Y157.934
N1975 X126.67 Y157.936 Z-0.793
N1980 X126.841 Y157.938 Z-0.8
N1985 X127.131 Y157.947 Z-0.821
N1990 X127.264 Y157.953 Z-0.835
N1995 X127.565 Y157.972 Z-0.879
N2000 X127.613 Y157.977 Z-0.888
N2005 X127.712 Y157.989 Z-0.902
N2010 X127.785 Y157.996 Z-0.9
N2015 X127.847 Y158.002 Z-0.886
N2020 X127.9 Y158.009 Z-0.87
N2025 X127.975 Y158.015 Z-0.842
N2030 X128.005 Y158.017 Z-0.824
N2035 X128.013 Y158.019 Z-0.815
N2040 X128.025 Y158.026 Z-0.788
N2045 X128.063 Y158.054 Z-0.685
N2050 X128.067 Y158.056 Z-0.676
N2055 X128.063 Y158.054 Z-0.685
N2060 X128.025 Y158.026 Z-0.788
N2065 X128.013 Y158.019 Z-0.815
N2070 X128.036 Y158.006 Z-0.755
N2075 X128.057 Y157.991 Z-0.698
N2080 X128.036 Y158.006 Z-0.755
N2085 X128.013 Y158.019 Z-0.815
N2090 X128.005 Y158.017 Z-0.824
N2095 X127.975 Y158.015 Z-0.842
N2100 X127.9 Y158.009 Z-0.87
N2105 X127.847 Y158.002 Z-0.886
N2110 X127.785 Y157.996 Z-0.9
N2115 X127.712 Y157.989 Z-0.902
N2120 X127.613 Y157.977 Z-0.888
N2125 X127.565 Y157.972 Z-0.879
N2130 X127.264 Y157.953 Z-0.835
N2135 X127.131 Y157.947 Z-0.821
N2140 X126.841 Y157.938 Z-0.8
N2145 X126.67 Y157.936 Z-0.793
N2150 X125.483 Y157.934 Z-0.791
N2155 X125.447 Y157.932
N2160 X125.41 Y157.93 Z-0.8
N2165 X125.374 Y157.924 Z-0.81
N2170 X125.337 Y157.918 Z-0.83
N2175 X125.319 Y157.913 Z-0.838
N2180 X125.265 Y157.898 Z-0.879
N2185 X125.228 Y157.884 Z-0.908
N2190 X125.192 Y157.87 Z-0.947
N2195 X125.156 Y157.852 Z-0.987
N2200 X125.119 Y157.833 Z-1.035
N2205 X125.083 Y157.811 Z-1.085
N2210 X125.046 Y157.789 Z-1.142
N2215 X125.01 Y157.763 Z-1.202
N2220 X124.974 Y157.736 Z-1.269
N2225 X124.937 Y157.706 Z-1.339
N2230 X124.901 Y157.676 Z-1.415
N2235 X124.864 Y157.641 Z-1.496
N2240 X124.536 Y157.315 Z-2.286
N2245 Y146.838
N2250 X125.483 Y145.891 Z-0.001
N2255 X124.536 Y146.838 Z-2.286
N2260 X121.954
N2265 X121.007 Y145.891 Z-0.001
N2270 X121.954 Y146.838 Z-2.286
N2275 Y157.315
N2280 G0 Z5.08
N2285 X131.882 Y151.685
N2290 G1 Z-0.001 F1270
N2295 X132.294 Y152.096 Z-0.993 F2540
N2300 X132.705 Y151.685 Z-0.001
N2305 X132.294 Y152.096 Z-0.993
N2310 Y153.788
N2315 X131.882 Y154.199 Z-0.001
N2320 X132.294 Y153.788 Z-0.993
N2325 X132.705 Y154.199 Z-0.001
N2330 G0 Z5.08
N2335 X128.234 Y153.57
N2340 G1 Z-0.001 F1270
N2345 X128.34 Y153.104 Z-0.81 F2540
N2350 X128.366 Y153.004 Z-0.977
N2355 X128.464 Y153.028 Z-0.795
N2360 X128.91 Y153.125 Z-0.001
N2365 X128.464 Y153.028 Z-0.795
N2370 X128.366 Y153.004 Z-0.977
N2375 X128.245 Y152.773 Z-0.976
N2380 X128.116 Y152.473 Z-0.974
N2385 X128.009 Y152.163 Z-0.972
N2390 X127.924 Y151.841 Z-0.971
N2395 X127.863 Y151.512 Z-0.97
N2400 X127.826 Y151.174 Z-0.969
N2405 X127.814 Y150.834
N2410 X127.82 Y150.602 Z-0.968
N2415 X127.838 Y150.375
N2420 X127.867 Y150.15 Z-0.969
N2425 X127.907 Y149.929
N2430 X127.957 Y149.71 Z-0.968
N2435 X128.021 Y149.486
N2440 X128.09 Y149.293 Z-0.974
N2445 X128.174 Y149.075 Z-0.968
N2450 X128.261 Y148.888 Z-0.974
N2455 X128.365 Y148.681 Z-0.968
N2460 X128.469 Y148.504 Z-0.974
N2465 X128.591 Y148.311 Z-0.969
N2470 X128.712 Y148.145 Z-0.974
N2475 X128.85 Y147.966 Z-0.969
N2480 X128.988 Y147.81 Z-0.974
N2485 X129.143 Y147.646 Z-0.968
N2490 X129.296 Y147.503 Z-0.974
N2495 X129.462 Y147.357 Z-0.971
N2500 X129.63 Y147.228 Z-0.976
N2505 X129.81 Y147.098 Z-0.971
N2510 X129.99 Y146.985 Z-0.978
N2515 X130.182 Y146.874 Z-0.974
N2520 X130.374 Y146.778 Z-0.98
N2525 X130.577 Y146.685 Z-0.975
N2530 X130.779 Y146.607 Z-0.983
N2535 X130.988 Y146.535 Z-0.978
N2540 X131.202 Y146.475 Z-0.979
N2545 X131.42 Y146.425 Z-0.98
N2550 X131.643 Y146.386 Z-0.981
N2555 X131.869 Y146.357 Z-0.982
N2560 X132.097 Y146.34 Z-0.983
N2565 X132.33 Y146.334 Z-0.982
N2570 X132.558 Y146.342 Z-0.98
N2575 X132.699 Y146.35 Z-0.985
N2580 X132.788 Y146.359 Z-0.981
N2585 X133.013 Y146.387 Z-0.983
N2590 X133.058 Y146.394 Z-0.986
N2595 X133.236 Y146.428 Z-0.981
N2600 X133.407 Y146.465 Z-0.987
N2605 X133.454 Y146.478 Z-0.984
N2610 X133.676 Y146.542 Z-0.985
N2615 X133.745 Y146.564 Z-0.991
N2620 X134.091 Y146.693 Z-0.987
N2625 X134.388 Y146.834 Z-0.991
N2630 X134.484 Y146.885 Z-0.984
N2635 X134.691 Y147.006 Z-0.993
N2640 X134.855 Y147.112 Z-0.985
N2645 X134.983 Y147.203 Z-0.994
N2650 X135.203 Y147.371 Z-0.99
N2655 X135.383 Y147.531 Z-0.996
N2660 X135.521 Y147.663 Z-0.99
N2665 X135.57 Y147.713 Z-0.995
N2670 X135.746 Y147.906 Z-0.996
N2675 X135.812 Y147.984 Z-0.991
N2680 X135.91 Y148.109 Z-0.999
N2685 X136.072 Y148.332 Z-0.995
N2690 X136.204 Y148.544 Z-1.002
N2695 X136.297 Y148.705 Z-0.997
N2700 X136.333 Y148.774 Z-1.003
N2705 X136.448 Y149.011 Z-1.004
N2710 X136.487 Y149.101 Z-1
N2715 X136.547 Y149.256 Z-1.008
N2720 X136.636 Y149.508 Z-1.004
N2725 X136.696 Y149.721 Z-1.005
N2730 X136.708 Y149.766 Z-1.007
N2735 X136.747 Y149.941 Z-1.005
N2740 X136.765 Y150.03 Z-1.01
N2745 X136.786 Y150.165 Z-1.006
N2750 X136.805 Y150.301 Z-1.01
N2755 X136.815 Y150.391 Z-1.007
N2760 X136.832 Y150.6 Z-1.01
N2765 X136.833 Y150.622 Z-1.009
N2770 X136.839 Y150.855 Z-1.013
N2775 X136.834 Y151.079 Z-1.005
N2780 X136.824 Y151.293 Z-0.988
N2785 X136.823 Y151.304
N2790 X136.796 Y151.526 Z-0.981
N2795 X136.766 Y151.729 Z-0.965
N2800 X136.763 Y151.744 Z-0.966
N2805 X136.715 Y151.96 Z-0.959
N2810 X136.669 Y152.146 Z-0.944
N2815 X136.661 Y152.173 Z-0.945
N2820 X136.594 Y152.379 Z-0.938
N2825 X136.534 Y152.549 Z-0.923
N2830 X136.519 Y152.584
N2835 X136.433 Y152.783 Z-0.916
N2840 X136.363 Y152.934 Z-0.903
N2845 X136.34 Y152.979 Z-0.904
N2850 X136.236 Y153.168 Z-0.898
N2855 X136.16 Y153.297 Z-0.886
N2860 X136.125 Y153.352 Z-0.888
N2865 X136.003 Y153.532 Z-0.879
N2870 X135.925 Y153.64 Z-0.87
N2875 X135.875 Y153.704 Z-0.872
N2880 X135.738 Y153.87 Z-0.865
N2885 X135.661 Y153.958 Z-0.856
N2890 X135.594 Y154.03 Z-0.858
N2895 X135.442 Y154.182 Z-0.85
N2900 X135.37 Y154.25 Z-0.843
N2905 X135.282 Y154.327 Z-0.845
N2910 X135.117 Y154.466 Z-0.837
N2915 X135.053 Y154.515 Z-0.832
N2920 X134.943 Y154.595 Z-0.834
N2925 X134.74 Y154.735 Z-0.823
N2930 X134.713 Y154.751 Z-0.822
N2935 X134.581 Y154.83 Z-0.825
N2940 X134.351 Y154.955 Z-0.813
N2945 X134.194 Y155.03 Z-0.815
N2950 X133.968 Y155.128 Z-0.805
N2955 X133.787 Y155.193 Z-0.808
N2960 X133.568 Y155.263 Z-0.799
N2965 X133.362 Y155.315 Z-0.801
N2970 X133.151 Y155.362 Z-0.793
N2975 X133.143 Y155.363
N2980 X132.919 Y155.397 Z-0.796
N2985 X132.716 Y155.421 Z-0.787
N2990 X132.694 Y155.422 Z-0.791
N2995 X132.665 Y155.421 Z-0.794
N3000 X132.607 Y155.417 Z-0.812
N3005 X132.549 Y155.407 Z-0.842
N3010 X132.491 Y155.393 Z-0.885
N3015 X132.462 Y155.384 Z-0.912
N3020 X132.428 Y155.37 Z-0.943
N3025 X132.393 Y155.356 Z-0.981
N3030 X132.359 Y155.338 Z-1.021
N3035 X132.324 Y155.32 Z-1.068
N3040 X131.882 Y155.762 Z-0.001
N3045 X132.324 Y155.32 Z-1.068
N3050 X132.316 Y155.282 Z-1.043
N3055 X132.307 Y155.245 Z-1.026
N3060 X132.302 Y155.207 Z-1.01
N3065 X132.297 Y155.17 Z-1.002
N3070 X132.295 Y155.132 Z-0.993
N3075 X132.294 Y154.839
N3080 X131.882 Y154.428 Z-0.001
N3085 X132.294 Y154.839 Z-0.993
N3090 X132.705 Y154.428 Z-0.001
N3095 G0 Z5.08
N3100 X140.233 Y152.999
N3105 G1 Z-2.286 F1270
N3110 X140.248 Y153.05 F2540
N3115 X140.276 Y153.115
N3120 X140.319 Y153.192
N3125 X140.367 Y153.263
N3130 X140.42 Y153.325
N3135 X140.486 Y153.389
N3140 X140.562 Y153.451
N3145 X140.641 Y153.504
N3150 X140.737 Y153.555
N3155 X140.842 Y153.6
N3160 X140.949 Y153.635
N3165 X141.069 Y153.661
N3170 X141.199 Y153.677
N3175 X141.338 Y153.682
N3180 X141.487 Y153.675
N3185 X141.615 Y153.657
N3190 X141.728 Y153.629
N3195 X141.828 Y153.592
N3200 X141.926 Y153.544
N3205 X142.007 Y153.495
N3210 X142.067 Y153.448
N3215 X142.135 Y153.38
N3220 X142.202 Y153.302
N3225 X142.259 Y153.222
N3230 X142.308 Y153.137
N3235 X142.347 Y153.055
N3240 X142.375 Y152.976
N3245 X142.393 Y152.901
N3250 X142.404 Y152.824
N3255 X142.407 Y152.741
N3260 X142.403 Y152.655
N3265 X142.392 Y152.591
N3270 X142.377 Y152.54
N3275 X142.352 Y152.483
N3280 X142.312 Y152.412
N3285 X142.268 Y152.35
N3290 X142.209 Y152.283
N3295 X142.145 Y152.222
N3300 X142.073 Y152.167
N3305 X141.982 Y152.11
N3310 X141.894 Y152.064
N3315 X141.799 Y152.027
N3320 X141.685 Y151.994
N3325 X141.561 Y151.968
N3330 X141.43 Y151.952
N3335 X141.293 Y151.947
N3340 X141.129 Y151.953
N3345 X140.976 Y151.97
N3350 X140.842 Y151.996
N3355 X140.74 Y152.025
N3360 X140.651 Y152.063
N3365 X140.565 Y152.108
N3370 X140.505 Y152.148
N3375 X140.46 Y152.187
N3380 X140.411 Y152.242
N3385 X140.363 Y152.307
N3390 X140.318 Y152.384
N3395 X140.282 Y152.461
N3400 X140.256 Y152.538
N3405 X140.236 Y152.629
N3410 X140.223 Y152.74
N3415 X140.219 Y152.86
N3420 X140.223 Y152.941
N3425 X140.233 Y152.999
N3430 G0 Z5.08
N3435 X141.067 Y148.6
N3440 G1 Z-2.286 F1270
N3445 X141.198 Y148.616 F2540
N3450 X141.34 Y148.622
N3455 X141.487 Y148.615
N3460 X141.615 Y148.597
N3465 X141.728 Y148.569
N3470 X141.828 Y148.532
N3475 X141.926 Y148.484
N3480 X142.007 Y148.435
N3485 X142.067 Y148.388
N3490 X142.135 Y148.32
N3495 X142.202 Y148.242
N3500 X142.259 Y148.162
N3505 X142.308 Y148.077
N3510 X142.347 Y147.995
N3515 X142.375 Y147.916
N3520 X142.393 Y147.841
N3525 X142.404 Y147.764
N3530 X142.407 Y147.681
N3535 X142.403 Y147.595
N3540 X142.392 Y147.531
N3545 X142.377 Y147.48
N3550 X142.352 Y147.423
N3555 X142.312 Y147.352
N3560 X142.268 Y147.29
N3565 X142.209 Y147.223
N3570 X142.145 Y147.162
N3575 X142.073 Y147.107
N3580 X141.982 Y147.05
N3585 X141.894 Y147.005
N3590 X141.784 Y146.961
N3595 X141.663 Y146.922
N3600 X141.549 Y146.897
N3605 X141.425 Y146.88
N3610 X141.293 Y146.875
N3615 X141.129 Y146.881
N3620 X140.976 Y146.898
N3625 X140.842 Y146.924
N3630 X140.74 Y146.953
N3635 X140.651 Y146.991
N3640 X140.563 Y147.037
N3645 X140.505 Y147.076
N3650 X140.46 Y147.115
N3655 X140.411 Y147.169
N3660 X140.364 Y147.234
N3665 X140.318 Y147.312
N3670 X140.287 Y147.378
N3675 X140.263 Y147.456
N3680 X140.239 Y147.564
N3685 X140.224 Y147.68
N3690 X140.219 Y147.804
N3695 X140.223 Y147.88
N3700 X140.233 Y147.938
N3705 X140.248 Y147.991
N3710 X140.276 Y148.055
N3715 X140.319 Y148.132
N3720 X140.367 Y148.203
N3725 X140.419 Y148.263
N3730 X140.486 Y148.328
N3735 X140.564 Y148.393
N3740 X140.641 Y148.444
N3745 X140.735 Y148.494
N3750 X140.842 Y148.539
N3755 X140.951 Y148.575
N3760 X141.067 Y148.6
N3765 G0 Z5.08
N3770 X153.475 Y153.964
N3775 G1 Z-0.002 F1270
N3780 X153.315 Y154.143 Z-0.573 F2540
N3785 X153.283 Y154.173 Z-0.674
N3790 X153.251 Y154.196 Z-0.763
N3795 X153.233 Y154.207 Z-0.809
N3800 X153.218 Y154.223 Z-0.844
N3805 X153.197 Y154.248 Z-0.886
N3810 X153.177 Y154.268 Z-0.911
N3815 X153.142 Y154.299 Z-0.935
N3820 X153.122 Y154.312 Z-0.941
N3825 X153.073 Y154.35 Z-0.949
N3830 X153.021 Y154.384 Z-0.947
N3835 X152.967 Y154.425 Z-0.937
N3840 X152.805 Y154.536 Z-0.896
N3845 X152.696 Y154.602 Z-0.879
N3850 X152.561 Y154.677 Z-0.85
N3855 X152.536 Y154.689 Z-0.848
N3860 X152.306 Y154.799 Z-0.817
N3865 X152.256 Y154.821 Z-0.815
N3870 X152.163 Y154.858 Z-0.806
N3875 X151.972 Y154.928 Z-0.802
N3880 X151.806 Y154.981 Z-0.788
N3885 X151.682 Y155.018 Z-0.785
N3890 X151.582 Y155.044 Z-0.777
N3895 X151.387 Y155.09 Z-0.772
N3900 X151.143 Y155.142 Z-0.755
N3905 X151.092 Y155.15 Z-0.756
N3910 X150.923 Y155.175 Z-0.752
N3915 X150.802 Y155.19 Z-0.754
N3920 X150.684 Y155.202 Z-0.751
N3925 X150.52 Y155.215 Z-0.753
N3930 X150.426 Y155.22 Z-0.748
N3935 X150.247 Y155.225 Z-0.749
N3940 X150.164 Z-0.745
N3945 X149.931 Y155.221 Z-0.739
N3950 X149.717 Y155.208 Z-0.738
N3955 X149.488 Y155.184 Z-0.741
N3960 X149.317 Y155.157 Z-0.745
N3965 X149.27 Y155.146 Z-0.755
N3970 X149.247 Y155.139 Z-0.765
N3975 X149.219 Y155.128 Z-0.775
N3980 X149.19 Y155.117 Z-0.793
N3985 X149.162 Y155.103 Z-0.81
N3990 X149.134 Y155.089 Z-0.835
N3995 X149.107 Y155.072 Z-0.859
N4000 X149.053 Y155.035 Z-0.922
N4005 X149.026 Y155.015 Z-0.96
N4010 X149 Y154.992 Z-0.998
N4015 X148.949 Y154.942 Z-1.086
N4020 X148.9 Y154.886 Z-1.188
N4025 X148.838 Y154.809 Z-1.336
N4030 X148.67 Y154.586 Z-1.74
N4035 X148.525 Y154.382 Z-2.091
N4040 X148.444 Y154.259 Z-2.286
N4045 Y147.164
N4050 X148.58 Y146.972 Z-1.957
N4055 X148.747 Y146.75 Z-1.555
N4060 X148.851 Y146.62 Z-1.307
N4065 X148.906 Y146.558 Z-1.193
N4070 X148.934 Y146.529 Z-1.143
N4075 X148.961 Y146.505 Z-1.098
N4080 X149.015 Y146.462 Z-1.019
N4085 X149.069 Y146.424 Z-0.954
N4090 X149.125 Y146.391 Z-0.901
N4095 X149.153 Y146.376 Z-0.881
N4100 X149.184 Y146.364 Z-0.859
N4105 X149.215 Y146.351 Z-0.844
N4110 X149.247 Y146.342 Z-0.828
N4115 X149.278 Y146.332 Z-0.821
N4120 X149.31 Y146.326 Z-0.813
N4125 X149.347 Y146.319
N4130 X149.399 Y146.312 Z-0.814
N4135 X149.656 Y146.282 Z-0.806
N4140 X149.827 Y146.266 Z-0.792
N4145 X149.919 Y146.261 Z-0.793
N4150 X150.056 Y146.256 Z-0.788
N4155 X150.188 Y146.255 Z-0.791
N4160 X150.249 Z-0.789
N4165 X150.606 Y146.267 Z-0.796
N4170 X150.665 Y146.271 Z-0.793
N4175 X151 Y146.304 Z-0.804
N4180 X151.092 Y146.317 Z-0.801
N4185 X151.37 Y146.367 Z-0.823
N4190 X151.499 Y146.397
N4195 X151.717 Y146.454 Z-0.843
N4200 X151.887 Y146.508 Z-0.842
N4205 X152.049 Y146.565 Z-0.856
N4210 X152.255 Y146.648 Z-0.853
N4215 X152.375 Y146.701 Z-0.863
N4220 X152.59 Y146.809 Z-0.858
N4225 X152.697 Y146.866 Z-0.865
N4230 X152.76 Y146.904 Z-0.863
N4235 X152.923 Y147.007 Z-0.873
N4240 X153.004 Y147.063 Z-0.887
N4245 X153.114 Y147.149 Z-0.886
N4250 X153.189 Y147.21 Z-0.881
N4255 X153.214 Y147.232
N4260 X153.294 Y147.304 Z-0.87
N4265 X153.323 Y147.332 Z-0.861
N4270 X153.36 Y147.366 Z-0.844
N4275 X153.395 Y147.396 Z-0.814
N4280 X153.429 Y147.425 Z-0.776
N4285 X153.44 Y147.437 Z-0.758
N4290 X153.451 Y147.446 Z-0.74
N4295 X153.477 Y147.474 Z-0.681
N4300 X153.514 Y147.5 Z-0.579
N4305 X153.519 Y147.505 Z-0.562
N4310 X153.514 Y147.5 Z-0.579
N4315 X153.477 Y147.474 Z-0.681
N4320 X153.451 Y147.446 Z-0.74
N4325 X153.44 Y147.437 Z-0.758
N4330 X153.429 Y147.425 Z-0.776
N4335 X153.395 Y147.396 Z-0.814
N4340 X153.36 Y147.366 Z-0.844
N4345 X153.323 Y147.332 Z-0.861
N4350 X153.294 Y147.304 Z-0.87
N4355 X153.214 Y147.232 Z-0.881
N4360 X153.189 Y147.21
N4365 X153.114 Y147.149 Z-0.886
N4370 X153.004 Y147.063 Z-0.887
N4375 X152.923 Y147.007 Z-0.873
N4380 X152.76 Y146.904 Z-0.863
N4385 X152.697 Y146.866 Z-0.865
N4390 X152.59 Y146.809 Z-0.858
N4395 X152.375 Y146.701 Z-0.863
N4400 X152.255 Y146.648 Z-0.853
N4405 X152.049 Y146.565 Z-0.856
N4410 X151.887 Y146.508 Z-0.842
N4415 X151.717 Y146.454 Z-0.843
N4420 X151.499 Y146.397 Z-0.823
N4425 X151.37 Y146.367
N4430 X151.092 Y146.317 Z-0.801
N4435 X151 Y146.304 Z-0.804
N4440 X150.665 Y146.271 Z-0.793
N4445 X150.606 Y146.267 Z-0.796
N4450 X150.249 Y146.255 Z-0.789
N4455 X150.188 Z-0.791
N4460 X150.056 Y146.256 Z-0.788
N4465 X149.919 Y146.261 Z-0.793
N4470 X149.827 Y146.266 Z-0.792
N4475 X149.656 Y146.282 Z-0.806
N4480 X149.399 Y146.312 Z-0.814
N4485 X149.347 Y146.319 Z-0.813
N4490 X149.31 Y146.326
N4495 X149.278 Y146.332 Z-0.821
N4500 X149.247 Y146.342 Z-0.828
N4505 X149.215 Y146.351 Z-0.844
N4510 X149.184 Y146.364 Z-0.859
N4515 X149.153 Y146.376 Z-0.881
N4520 X149.125 Y146.391 Z-0.901
N4525 X149.069 Y146.424 Z-0.954
N4530 X149.015 Y146.462 Z-1.019
N4535 X148.961 Y146.505 Z-1.098
N4540 X148.934 Y146.529 Z-1.143
N4545 X148.906 Y146.558 Z-1.193
N4550 X148.851 Y146.62 Z-1.307
N4555 X148.747 Y146.75 Z-1.555
N4560 X148.58 Y146.972 Z-1.957
N4565 X148.444 Y147.164 Z-2.286
N4570 X148.427 Y147.17
N4575 X148.239 Y147.246
N4580 X148.061 Y147.33
N4585 X147.89 Y147.421
N4590 X147.724 Y147.52
N4595 X147.57 Y147.623
N4600 X147.421 Y147.734
N4605 X147.28 Y147.851
N4610 X147.147 Y147.975
N4615 X147.022 Y148.102
N4620 X146.905 Y148.237
N4625 X146.793 Y148.38
N4630 X146.69 Y148.528
N4635 X146.593 Y148.686
N4640 X146.502 Y148.852
N4645 X146.419 Y149.022
N4650 X146.345 Y149.2
N4655 X146.28 Y149.379
N4660 X146.222 Y149.566
N4665 X146.172 Y149.759
N4670 X146.13 Y149.958
N4675 X146.096 Y150.162
N4680 X146.072 Y150.371
N4685 X146.057 Y150.587
N4690 X146.052 Y150.809
N4695 X146.057 Y151.02
N4700 X146.072 Y151.222
N4705 X146.096 Y151.418
N4710 X146.131 Y151.609
N4715 X146.174 Y151.794
N4720 X146.227 Y151.974
N4725 X146.29 Y152.152
N4730 X146.363 Y152.327
N4735 X146.445 Y152.498
N4740 X146.533 Y152.662
N4745 X146.627 Y152.816
N4750 X146.731 Y152.967
N4755 X146.841 Y153.111
N4760 X146.959 Y153.249
N4765 X147.087 Y153.385
N4770 X147.222 Y153.517
N4775 X147.361 Y153.638
N4780 X147.507 Y153.751
N4785 X147.658 Y153.857
N4790 X147.82 Y153.957
N4795 X147.99 Y154.052
N4800 X148.161 Y154.138
N4805 X148.444 Y154.259
N4810 G0 Z5.08
N4815 X155.737 Y145.927
N4820 G1 Z-0.001 F1270
N4825 X156.684 Y146.874 Z-2.286 F2540
N4830 Y157.339
N4835 X155.737 Y158.286 Z-0.001
N4840 X156.684 Y157.339 Z-2.286
N4845 X158.553
N4850 X159.5 Y158.286 Z-0.001
N4855 X158.553 Y157.339 Z-2.286
N4860 Y151.63
N4865 G3 X158.633 Y151.25 I0.947 J0
N4870 X158.541 Y150.844 I0.855 J-0.406
N4875 G1 Y146.874
N4880 X156.684
N4885 X158.541
N4890 X159.488 Y145.927 Z-0.001
N4895 X158.541 Y146.874 Z-2.286
N4900 Y150.844
N4905 G2 X158.633 Y151.25 I0.947 J0
N4910 G1 X158.781 Y151.248 Z-1.965
N4915 X158.912 Y151.246 Z-1.695
N4920 X158.973 Y151.245 Z-1.577
N4925 X159.084 Y151.243 Z-1.372
N4930 X159.135 Y151.242 Z-1.285
N4935 X159.185 Z-1.207
N4940 X159.232 Y151.241 Z-1.14
N4945 X159.278 Y151.24 Z-1.082
N4950 X159.323 Z-1.035
N4955 X159.367 Y151.239 Z-0.997
N4960 X159.41 Y151.238 Z-0.971
N4965 X159.452 Z-0.954
N4970 X159.494 Y151.237 Z-0.949
N4975 X159.519 Z-0.951
N4980 X159.543 Y151.236 Z-0.956
N4985 X159.587 Z-0.975
N4990 X159.626 Y151.235 Z-1.001
N4995 X159.662 Y151.234 Z-1.032
N5000 X159.696 Z-1.067
N5005 X159.728 Y151.233 Z-1.104
N5010 X159.788 Z-1.185
N5015 X159.836 Y151.23 Z-1.255
N5020 X159.884 Y151.227 Z-1.331
N5025 X159.935 Y151.221 Z-1.412
N5030 X159.986 Y151.215 Z-1.499
N5035 X160.093 Y151.196 Z-1.689
N5040 X160.149 Y151.182 Z-1.792
N5045 X160.404 Y151.116 Z-2.286
N5050 X162.325 Y146.874
N5055 X161.714 Y145.927 Z-0.001
N5060 X162.325 Y146.874 Z-2.286
N5065 X164.125
N5070 X165.606 Y145.927 Z-0.001
N5075 X164.125 Y146.874 Z-2.286
N5080 X161.72 Y152.068
N5085 X160.404 Y151.116
N5090 X161.72 Y152.068
N5095 X161.865 Y152.623 Z-1.405
N5100 X161.877 Y152.666 Z-1.337
N5105 X161.89 Y152.708 Z-1.274
N5110 X161.904 Y152.748 Z-1.215
N5115 X161.919 Y152.788 Z-1.161
N5120 X161.936 Y152.825 Z-1.109
N5125 X161.952 Y152.861 Z-1.064
N5130 X161.971 Y152.895 Z-1.021
N5135 X161.99 Y152.929 Z-0.984
N5140 X162.011 Y152.96 Z-0.949
N5145 X162.032 Y152.991 Z-0.922
N5150 X162.054 Y153.02 Z-0.895
N5155 X162.077 Y153.048 Z-0.877
N5160 X162.102 Y153.073 Z-0.859
N5165 X162.115 Y153.086 Z-0.853
N5170 X162.155 Y153.121 Z-0.839
N5175 X163.358 Y154.021 Z-0.788
N5180 X163.612 Y154.219 Z-0.793
N5185 X163.832 Y154.396 Z-0.81
N5190 X163.965 Y154.505 Z-0.835
N5195 X164.072 Y154.595 Z-0.853
N5200 X164.248 Y154.757 Z-0.891
N5205 X164.38 Y154.885 Z-0.909
N5210 X164.427 Y154.933 Z-0.913
N5215 X164.504 Y155.004 Z-0.891
N5220 X164.517 Y155.013 Z-0.883
N5225 X164.55 Y155.043 Z-0.851
N5230 X164.557 Y155.048 Z-0.841
N5235 X164.595 Y155.082 Z-0.772
N5240 X164.615 Y155.099 Z-0.723
N5245 X164.639 Y155.117 Z-0.656
N5250 G0 Z15.24
N5255 M5

(LOGO INSIDE VBIT)
N5260 T45
N5265 S12000 M3
N5270 G54
N5275 G0 X141.406 Y152.929
N5280 G43 Z15.24 H45
N5285 G0 Z5.08
N5290 G1 Z2.54 F203.2
N5295 Z-2.215
N5300 X141.395 Y152.947 Z-2.265
N5305 X141.376 Y152.963 Z-2.276
N5310 X141.353 Y152.972 Z-2.286
N5315 X141.348 Y152.973 F635
N5320 X141.324 Y152.976
N5325 X141.301 Y152.974
N5330 X141.108 Y152.941
N5335 X141.084 Y152.935
N5340 X141.062 Y152.924
N5345 X141.05 Y152.917
N5350 X141.019 Y152.891
N5355 X140.997 Y152.857
N5360 X140.986 Y152.818
N5365 X140.988 Y152.778
N5370 X141.002 Y152.74
N5375 X141.027 Y152.708
N5380 X141.06 Y152.685
N5385 X141.098 Y152.673
N5390 X141.266 Y152.647
N5395 X141.307 Y152.648
N5400 X141.511 Y152.681
N5405 G3 X141.515 Y152.941 I-0.021 J0.131
N5410 G1 X141.353 Y152.972
N5415 G2 X141.167 Y153.141 I0.046 J0.238
N5420 G3 X140.933 Y153.232 I-0.152 J-0.045
N5425 G1 X140.733 Y153.112
N5430 X140.625 Y152.97
N5435 X140.592 Y152.83
N5440 X140.633 Y152.593
N5445 X140.715 Y152.469
N5450 X140.874 Y152.372
N5455 X141.288 Y152.31
N5460 X141.67 Y152.372
N5465 X141.9 Y152.501
N5470 X142.002 Y152.632
N5475 X142.031 Y152.76
N5480 X142 Y152.923
N5485 X141.881 Y153.106
N5490 X141.683 Y153.245
N5495 X141.328 Y153.313
N5500 X140.967 Y153.252
N5505 X140.933 Y153.232
N5510 X140.914 Y153.215 Z-2.276
N5515 X140.902 Y153.193 Z-2.265
N5520 X140.899 Y153.173 Z-2.215
N5525 G0 Z5.08
N5530 X141.309 Y147.882
N5535 G1 Z2.54 F203.2
N5540 Z-2.215
N5545 X141.293 Y147.895 Z-2.265
N5550 X141.269 Y147.904 Z-2.276
N5555 X141.244 Z-2.286
N5560 X141.108 Y147.88 F635
N5565 X141.085 Y147.874
N5570 X141.063 Y147.864
N5575 X141.035 Y147.847
N5580 X141.004 Y147.821
N5585 X140.982 Y147.787
N5590 X140.972 Y147.748
N5595 X140.974 Y147.708
N5600 X140.987 Y147.67
N5605 X141.012 Y147.638
N5610 X141.045 Y147.615
N5615 X141.084 Y147.603
N5620 X141.253 Y147.577
N5625 X141.296 Y147.578
N5630 X141.523 Y147.618
N5635 X141.565 Y147.633
N5640 X141.6 Y147.661
N5645 X141.623 Y147.699
N5650 X141.633 Y147.742
N5655 X141.627 Y147.786
N5660 X141.608 Y147.826
N5665 X141.576 Y147.857
N5670 X141.551 Y147.871
N5675 X141.524 Y147.879
N5680 X141.349 Y147.913
N5685 X141.325 Y147.915
N5690 X141.301 Y147.914
N5695 X141.244 Y147.904
N5700 G2 X140.997 Y148.002 I-0.043 J0.253
N5705 G3 X140.735 Y148.052 I-0.159 J-0.121
N5710 G1 X140.732 Y148.05
N5715 X140.624 Y147.909
N5720 X140.592 Y147.768
N5725 X140.634 Y147.52
N5730 X140.715 Y147.397
N5735 X140.874 Y147.3
N5740 X141.279 Y147.24
N5745 X141.661 Y147.307
N5750 X141.9 Y147.441
N5755 X142.002 Y147.572
N5760 X142.031 Y147.7
N5765 X142 Y147.863
N5770 X141.881 Y148.046
N5775 X141.683 Y148.185
N5780 X141.329 Y148.253
N5785 X140.967 Y148.191
N5790 X140.735 Y148.052
N5795 X140.732 Y148.05
N5800 X140.716 Y148.03 Z-2.28
N5805 X140.703 Y148.012 Z-2.264
N5810 X140.694 Y148 Z-2.241
N5815 X140.691 Y147.996 Z-2.215
N5820 G0 Z5.08
N5825 X147.116 Y150.861
N5830 G1 Z2.54 F203.2
N5835 Z-2.215
N5840 X147.1 Y150.847 Z-2.265
N5845 X147.088 Y150.826 Z-2.276
N5850 X147.083 Y150.801 Z-2.286
N5855 X147.084 Y150.742 F635
N5860 G3 X147.236 Y149.727 I4.037 J0.087
N5865 G1 X147.253 Y149.693
N5870 X147.281 Y149.667
N5875 X147.316 Y149.652
N5880 X147.354 Y149.65
N5885 X147.39 Y149.662
N5890 X147.42 Y149.686
N5895 X147.439 Y149.719
N5900 X147.446 Y149.756
N5905 Y151.725
N5910 X147.439 Y151.762
N5915 X147.42 Y151.795
N5920 X147.39 Y151.82
N5925 X147.354 Y151.832
N5930 X147.316
N5935 X147.28 Y151.818
N5940 X147.251 Y151.792
N5945 X147.233 Y151.758
N5950 G3 X147.083 Y150.801 I2.938 J-0.949
N5955 G2 X146.93 Y150.564 I-0.258 J-0.001
N5960 G3 X146.791 Y150.319 I0.095 J-0.215
N5965 X147.011 Y149.467 I3.547 J0.462
N5970 X147.23 Y149.015 I3.173 J1.253
N5975 X147.516 Y148.602 I2.621 J1.513
N5980 X147.765 Y148.691 I0.109 J0.09
N5985 G1 Y152.72
N5990 G3 X147.512 Y152.816 I-0.145 J0
N5995 X146.788 Y151.213 I2.197 J-1.959
N6000 X146.791 Y150.319 I3.551 J-0.432
N6005 G2 X146.659 Y150.052 I-0.266 J-0.035
N6010 G3 X146.547 Y149.776 I0.121 J-0.21
N6015 G1 X146.673 Y149.334
N6020 X146.986 Y148.726
N6025 X147.397 Y148.227
N6030 X147.915 Y147.819
N6035 X148.096 Y147.729
N6040 Y153.699
N6045 X148.009 Y153.657
N6050 X147.458 Y153.251
N6055 X147.02 Y152.759
N6060 X146.689 Y152.185
N6065 X146.478 Y151.535
N6070 X146.406 Y150.804
N6075 X146.478 Y150.021
N6080 X146.547 Y149.776
N6085 X146.558 Y149.754 Z-2.276
N6090 X146.576 Y149.736 Z-2.265
N6095 X146.595 Y149.728 Z-2.215
N6100 G0 Z5.08
N6105 X157.395 Y151.325
N6110 G1 Z2.54 F203.2
N6115 Z-2.215
N6120 X157.38 Y151.312 Z-2.265
N6125 X157.367 Y151.29 Z-2.276
N6130 X157.363 Y151.265 Z-2.286
N6135 Y147.844 F635
N6140 G3 X157.862 I0.25 J0
N6145 X157.787 Y149.529 I-18.973 J0
N6150 G2 X157.904 Y151.211 I5.328 J0.475
N6155 G1 X157.91 Y151.261
N6160 X157.906 Y151.312
N6165 X157.877 Y151.47
N6170 X157.868 Y151.55
N6175 X157.864 Y151.63
N6180 X157.874 Y156.421
N6185 G3 X157.635 Y156.66 I-0.239 J0
N6190 G1 X157.602
N6195 G3 X157.363 Y156.421 I0 J-0.239
N6200 G1 Y151.265
N6205 G2 X157.197 Y151.018 I-0.268 J0
N6210 G3 X157.032 Y150.77 I0.103 J-0.248
N6215 G1 Y147.222
N6220 X158.193
N6225 Y150.844
N6230 G2 X158.26 Y151.256 I1.295 J0
N6235 X158.205 Y151.63 I1.24 J0.374
N6240 G1 Y156.991
N6245 X157.032
N6250 Y150.77
N6255 X157.037 Y150.745 Z-2.276
N6260 X157.049 Y150.724 Z-2.265
N6265 X157.065 Y150.71 Z-2.215
N6270 G0 Z5.08
N6275 X162.969 Y147.678
N6280 G1 Z2.54 F203.2
N6285 Z-2.215
N6290 X162.977 Y147.697 Z-2.265
N6295 X162.98 Y147.721 Z-2.276
N6300 X162.973 Y147.746 Z-2.286
N6305 X161.5 Y150.927 F635
N6310 X161.481 Y150.955
N6315 X161.452 Y150.975
N6320 X161.419 Y150.984
N6325 X161.385 Y150.98
N6330 X161.354 Y150.965
N6335 X161.316 Y150.938
N6340 X161.293 Y150.914
N6345 X161.279 Y150.884
N6350 X161.276 Y150.85
N6355 X161.284 Y150.818
N6360 X162.727 Y147.63
N6365 X162.748 Y147.598
N6370 X162.776 Y147.574
N6375 X162.81 Y147.558
N6380 X162.848 Y147.553
N6385 X162.893 Y147.558
N6390 X162.934 Y147.578
N6395 X162.965 Y147.61
N6400 X162.984 Y147.651
N6405 X162.988 Y147.697
N6410 X162.976 Y147.74
N6415 X162.973 Y147.746
N6420 G2 X163.019 Y148.04 I0.243 J0.113
N6425 G3 X163.065 Y148.334 I-0.198 J0.181
N6430 G1 X161.581 Y151.538
N6435 X160.839 Y151
N6440 X162.55 Y147.222
N6445 X163.58
N6450 X163.065 Y148.334
N6455 X163.051 Y148.354 Z-2.276
N6460 X163.03 Y148.369 Z-2.265
N6465 X163.01 Y148.374 Z-2.215
N6470 G0 Z5.08
N6475 X123.305 Y156.279
N6480 G1 Z2.54 F203.2
N6485 Z-2.215
N6490 X123.291 Y156.294 Z-2.265
N6495 X123.27 Y156.307 Z-2.276
N6500 X123.245 Y156.311 Z-2.286
N6505 X123.197 F635
N6510 G3 X122.958 Y156.072 I0 J-0.239
N6515 G1 Y148.15
N6520 G3 X123.532 I0.287 J0
N6525 G1 Y156.072
N6530 G3 X123.293 Y156.311 I-0.239 J0
N6535 G1 X123.245
N6540 G2 X123.028 Y156.481 I0 J0.224
N6545 G3 X122.77 Y156.577 I-0.162 J-0.04
N6550 X122.633 Y156.312 I0.187 J-0.265
N6555 G1 Y147.841
N6560 G3 X122.957 Y147.517 I0.324 J0
N6565 G1 X123.533
N6570 G3 X123.857 Y147.841 I0 J0.324
N6575 G1 Y156.312
N6580 G3 X123.533 Y156.636 I-0.324 J0
N6585 G1 X122.957
N6590 X122.891 Y156.63
N6595 X122.828 Y156.609
N6600 X122.77 Y156.577
N6605 G2 X122.52 Y156.566 I-0.133 J0.188
N6610 G3 X122.302 Y156.442 I-0.073 J-0.124
N6615 G1 Y147.186
N6620 X124.188
N6625 Y156.967
N6630 X122.302
N6635 Y156.442
N6640 X122.307 Y156.418 Z-2.276
N6645 X122.319 Y156.396 Z-2.265
N6650 X122.335 Y156.382 Z-2.215
N6655 G0 Z15.24
N6660 M5

(BOARD NAMES)
N6665 T2
N6670 S16000 M3
N6675 G54
N6680 G0 X23.759 Y121.479
N6685 G43 Z15.24 H2
N6690 G0 Z5.08
N6695 G1 Z-0.001 F1270
N6700 X24.421 Y122.141 Z-1.599 F2540
N6705 X25.083 Y121.479 Z-0.001
N6710 X24.421 Y122.141 Z-1.599
N6715 X24.423 Y125.971
N6720 X24.427 Y126.042 Z-1.61
N6725 X24.43 Y126.066 Z-1.615
N6730 X24.435 Y126.114 Z-1.632
N6735 X24.444 Y126.162 Z-1.649
N6740 X24.452 Y126.21 Z-1.674
N6745 X24.464 Y126.258 Z-1.699
N6750 X24.476 Y126.305 Z-1.732
N6755 X24.492 Y126.353 Z-1.766
N6760 X24.507 Y126.401 Z-1.807
N6765 X24.526 Y126.449 Z-1.849
N6770 X24.545 Y126.496 Z-1.898
N6775 X24.526 Y126.544 Z-1.849
N6780 X24.507 Y126.592 Z-1.807
N6785 X24.492 Y126.64 Z-1.766
N6790 X24.476 Y126.688 Z-1.732
N6795 X24.464 Y126.735 Z-1.699
N6800 X24.452 Y126.783 Z-1.674
N6805 X24.444 Y126.831 Z-1.649
N6810 X24.435 Y126.879 Z-1.632
N6815 X24.43 Y126.927 Z-1.615
N6820 X24.427 Y126.951 Z-1.61
N6825 X24.423 Y127.022 Z-1.599
N6830 X24.421 Y130.381
N6835 X24.422 Y130.405 Z-1.598
N6840 X24.424 Y130.454 Z-1.602
N6845 X24.43 Y130.526 Z-1.616
N6850 X24.435 Y130.575 Z-1.633
N6855 X24.444 Y130.623 Z-1.65
N6860 X24.453 Y130.671 Z-1.676
N6865 X24.465 Y130.72 Z-1.701
N6870 X24.478 Y130.768 Z-1.735
N6875 X23.759 Y131.487 Z-0.001
N6880 X24.478 Y130.768 Z-1.735
N6885 X24.521 Y130.79 Z-1.679
N6890 X24.564 Y130.812 Z-1.629
N6895 X24.608 Y130.831 Z-1.581
N6900 X24.651 Y130.849 Z-1.539
N6905 X24.694 Y130.865 Z-1.499
N6910 X24.737 Y130.88 Z-1.466
N6915 X24.781 Y130.892 Z-1.433
N6920 X24.824 Y130.904 Z-1.409
N6925 X24.867 Y130.912 Z-1.384
N6930 X24.91 Y130.92 Z-1.368
N6935 X24.954 Y130.926 Z-1.351
N6940 X24.997 Y130.931 Z-1.343
N6945 X25.04 Y130.932 Z-1.335
N6950 X25.083 Y130.934
N6955 X28.274 Y130.933 Z-1.334
N6960 X28.747 Y130.918 Z-1.347
N6965 X28.961 Y130.9 Z-1.359
N6970 X28.986 Y130.896
N6975 X29.012 Y130.893 Z-1.362
N6980 X29.155 Y130.872 Z-1.38
N6985 X29.256 Y130.853 Z-1.386
N6990 X29.374 Y130.825 Z-1.411
N6995 X29.527 Y130.782 Z-1.432
N7000 X29.591 Y130.762 Z-1.45
N7005 X29.788 Y130.69 Z-1.494
N7010 X29.816 Y130.679 Z-1.503
N7015 X29.996 Y130.605 Z-1.567
N7020 X30.241 Y130.469 Z-1.587
N7025 X30.267 Y130.452 Z-1.588
N7030 X30.319 Y130.415 Z-1.598
N7035 X30.344 Y130.396 Z-1.607
N7040 X30.379 Y130.365 Z-1.616
N7045 X30.427 Y130.32 Z-1.632
N7050 X30.505 Y130.238 Z-1.644
N7055 X30.588 Y130.142 Z-1.642
N7060 X30.624 Y130.097 Z-1.636
N7065 X30.648 Y130.065 Z-1.637
N7070 X30.761 Y129.909 Z-1.641
N7075 X30.787 Y129.861 Z-1.636
N7080 X30.871 Y129.698 Z-1.629
N7085 X30.888 Y129.662
N7090 X30.905 Y129.624 Z-1.635
N7095 X30.962 Y129.474 Z-1.644
N7100 X30.977 Y129.426
N7105 X30.997 Y129.358 Z-1.653
N7110 X31.026 Y129.225
N7115 X31.035 Y129.169 Z-1.652
N7120 X31.047 Y129.077 Z-1.655
N7125 X31.073 Y128.81 Z-1.643
N7130 X31.076 Y128.764 Z-1.645
N7135 X31.073 Y128.73 Z-1.64
N7140 X31.071 Y128.696
N7145 X31.043 Y128.416 Z-1.636
N7150 X31.035 Y128.358 Z-1.643
N7155 X31.001 Y128.184 Z-1.644
N7160 X30.985 Y128.121 Z-1.636
N7165 X30.967 Y128.062
N7170 X30.957 Y128.032 Z-1.64
N7175 X30.895 Y127.888 Z-1.629
N7180 X30.844 Y127.788 Z-1.607
N7185 X30.813 Y127.731 Z-1.602
N7190 X30.674 Y127.513 Z-1.556
N7195 X30.647 Y127.473
N7200 X30.602 Y127.414 Z-1.559
N7205 X30.458 Y127.273 Z-1.507
N7210 X30.448 Y127.265 Z-1.504
N7215 X30.321 Y127.152 Z-1.465
N7220 X30.298 Y127.132 Z-1.459
N7225 X30.275 Y127.113 Z-1.456
N7230 X30.176 Y127.039 Z-1.437
N7235 X30.148 Y127.02 Z-1.431
N7240 X30.059 Y126.96 Z-1.427
N7245 X30.017 Y126.936 Z-1.418
N7250 X29.863 Y126.854 Z-1.404
N7255 X29.644 Y126.763 Z-1.376
N7260 X29.565 Y126.735 Z-1.357
N7265 X29.517 Y126.72 Z-1.352
N7270 X29.405 Y126.69 Z-1.353
N7275 X29.136 Y126.631 Z-1.333
N7280 X28.838 Y126.576 Z-1.336
N7285 X28.814 Y126.571
N7290 X28.768 Y126.56 Z-1.342
N7295 X28.721 Y126.548 Z-1.354
N7300 X28.647 Y126.526 Z-1.387
N7305 X28.603 Y126.512 Z-1.417
N7310 X28.559 Y126.495 Z-1.447
N7315 X28.516 Y126.477 Z-1.485
N7320 X28.472 Y126.456 Z-1.524
N7325 X28.429 Y126.435 Z-1.571
N7330 X28.386 Y126.41 Z-1.62
N7335 X28.304 Y126.361 Z-1.729
N7340 X28.241 Y126.32 Z-1.826
N7345 X28.148 Y126.343 Z-1.764
N7350 X27.93 Y126.393 Z-1.635
N7355 X27.906 Y126.397 Z-1.624
N7360 X27.703 Y126.434 Z-1.536
N7365 X27.509 Y126.462 Z-1.465
N7370 X27.452 Y126.468 Z-1.451
N7375 X27.423 Y126.471 Z-1.447
N7380 X27.027 Y126.492 Z-1.394
N7385 X27 Y126.493 Z-1.393
N7390 X26.619 Y126.496 Z-1.385
N7395 X25.056 Z-1.386
N7400 X25.028 Z-1.391
N7405 X24.999 Z-1.399
N7410 X24.971 Z-1.411
N7415 X24.942 Z-1.426
N7420 X24.912 Z-1.445
N7425 X24.881 Z-1.468
N7430 X24.817 Z-1.526
N7435 X24.748 Z-1.604
N7440 X24.673 Z-1.702
N7445 X24.633 Z-1.761
N7450 X24.545 Z-1.898
N7455 X24.633 Z-1.761
N7460 X24.673 Z-1.702
N7465 X24.748 Z-1.604
N7470 X24.817 Z-1.526
N7475 X24.881 Z-1.468
N7480 X24.912 Z-1.445
N7485 X24.942 Z-1.426
N7490 X24.971 Z-1.411
N7495 X24.999 Z-1.399
N7500 X25.028 Z-1.391
N7505 X25.056 Z-1.386
N7510 X26.619 Z-1.385
N7515 X27 Y126.493 Z-1.393
N7520 X27.027 Y126.492 Z-1.394
N7525 X27.423 Y126.471 Z-1.447
N7530 X27.452 Y126.468 Z-1.451
N7535 X27.509 Y126.462 Z-1.465
N7540 X27.703 Y126.434 Z-1.536
N7545 X27.906 Y126.397 Z-1.624
N7550 X27.93 Y126.393 Z-1.635
N7555 X28.148 Y126.343 Z-1.764
N7560 X28.241 Y126.32 Z-1.826
N7565 X28.266 Y126.248 Z-1.708
N7570 X28.294 Y126.18 Z-1.601
N7575 X28.317 Y126.128 Z-1.524
N7580 X28.353 Y126.047 Z-1.419
N7585 X28.372 Y126.007 Z-1.374
N7590 X28.393 Y125.969 Z-1.33
N7595 X28.414 Y125.931 Z-1.294
N7600 X28.437 Y125.896 Z-1.258
N7605 X28.46 Y125.861 Z-1.23
N7610 X28.502 Y125.805 Z-1.191
N7615 X28.547 Y125.751 Z-1.167
N7620 X28.595 Y125.701 Z-1.154
N7625 X28.642 Y125.658 Z-1.156
N7630 X28.663 Y125.64 Z-1.159
N7635 X28.699 Y125.61 Z-1.173
N7640 X28.87 Y125.48 Z-1.268
N7645 X29.056 Y125.325 Z-1.378
N7650 X29.08 Y125.303 Z-1.389
N7655 X29.198 Y125.189 Z-1.457
N7660 X29.321 Y125.062 Z-1.518
N7665 X29.564 Y124.776 Z-1.585
N7670 X29.664 Y124.651 Z-1.605
N7675 X29.804 Y124.47 Z-1.644
N7680 X30.03 Y124.152 Z-1.675
N7685 X30.17 Y123.945 Z-1.681
N7690 X30.256 Y123.816 Z-1.688
N7695 X31.298 Y122.18 Z-1.693
N7700 X30.913 Y121.479 Z-0.001
N7705 X31.298 Y122.18 Z-1.693
N7710 X32.578 Y121.479 Z-0.001
N7715 G0 Z5.08
N7720 X108.045 Y53.795
N7725 G1 Z-1.354 F1270
N7730 X108.006 Y53.75 Z-1.351 F2540
N7735 X107.983 Y53.721
N7740 X107.938 Y53.661 Z-1.363
N7745 X107.906 Y53.611 Z-1.381
N7750 X107.82 Y53.456 Z-1.428
N7755 X107.732 Y53.279 Z-1.457
N7760 X107.698 Y53.203 Z-1.462
N7765 X107.648 Y53.087 Z-1.474
N7770 X107.52 Y52.764 Z-1.484
N7775 X107.487 Y52.672 Z-1.494
N7780 X107.388 Y52.31 Z-1.465
N7785 X107.331 Y52.073 Z-1.467
N7790 X107.322 Y52.029 Z-1.47
N7795 X107.283 Y51.825 Z-1.473
N7800 X107.263 Y51.703 Z-1.484
N7805 X107.217 Y51.359 Z-1.492
N7810 X107.193 Y51.046 Z-1.504
N7815 X107.184 Y50.893
N7820 X107.178 Y50.709 Z-1.514
N7825 X107.167 Y50.007 Z-1.524
N7830 X107.172 Y49.488 Z-1.516
N7835 X107.18 Y49.127 Z-1.501
N7840 X107.187 Y48.975 Z-1.503
N7845 X107.21 Y48.668 Z-1.489
N7850 X107.23 Y48.48 Z-1.495
N7855 X107.268 Y48.204 Z-1.483
N7860 X107.304 Y48.021 Z-1.484
N7865 X107.362 Y47.77 Z-1.466
N7870 X107.37 Y47.744 Z-1.465
N7875 X107.419 Y47.581 Z-1.461
N7880 X107.511 Y47.311 Z-1.435
N7885 X107.579 Y47.139 Z-1.423
N7890 X107.679 Y46.903 Z-1.392
N7895 X107.782 Y46.671 Z-1.371
N7900 X107.866 Y46.492 Z-1.346
N7905 X107.895 Y46.437
N7910 X107.929 Y46.381 Z-1.356
N7915 X107.991 Y46.289 Z-1.387
N7920 X108.148 Y46.124 Z-1.365
N7925 X108.262 Y46.01 Z-1.341
N7930 X108.358 Y45.922 Z-1.339
N7935 X108.465 Y45.834 Z-1.322
N7940 X108.499 Y45.808
N7945 X108.569 Y45.757 Z-1.325
N7950 X108.669 Y45.692 Z-1.314
N7955 X108.704 Y45.672 Z-1.307
N7960 X108.758 Y45.643 Z-1.308
N7965 X108.86 Y45.599 Z-1.3
N7970 X108.967 Y45.558 Z-1.282
N7975 X108.993 Y45.551 Z-1.276
N7980 X109.019 Y45.543 Z-1.274
N7985 X109.233 Y45.488 Z-1.253
N7990 X109.27 Y45.481 Z-1.249
N7995 X109.525 Y45.44 Z-1.23
N8000 X109.752 Y45.413 Z-1.214
N8005 X109.777 Y45.411
N8010 X109.802 Y45.409 Z-1.217
N8015 X109.837 Y45.411 Z-1.216
N8020 X109.875 Y45.415 Z-1.218
N8025 X110.115 Y45.443 Z-1.241
N8030 X110.229 Y45.459 Z-1.258
N8035 X110.353 Y45.481 Z-1.265
N8040 X110.423 Y45.497 Z-1.277
N8045 X110.618 Y45.553 Z-1.287
N8050 X110.655 Y45.568 Z-1.289
N8055 X110.762 Y45.614 Z-1.299
N8060 X110.89 Y45.679 Z-1.296
N8065 X110.931 Y45.703 Z-1.304
N8070 X111.128 Y45.835 Z-1.322
N8075 X111.159 Y45.857 Z-1.332
N8080 X111.258 Y45.933 Z-1.362
N8085 X111.336 Y46.01 Z-1.357
N8090 X111.359 Y46.035 Z-1.358
N8095 X111.546 Y46.238 Z-1.378
N8100 X111.68 Y46.396 Z-1.379
N8105 X111.702 Y46.43
N8110 X111.737 Y46.485 Z-1.388
N8115 X111.782 Y46.565 Z-1.413
N8120 X111.87 Y46.745 Z-1.446
N8125 X111.955 Y46.937 Z-1.463
N8130 X112.114 Y47.351 Z-1.482
N8135 X112.229 Y47.777 Z-1.454
N8140 X112.234 Y47.799 Z-1.455
N8145 X112.277 Y47.994 Z-1.464
N8150 X112.324 Y48.232 Z-1.463
N8155 X112.338 Y48.32 Z-1.472
N8160 X112.385 Y48.682 Z-1.483
N8165 X112.387 Y48.708 Z-1.484
N8170 X112.406 Y48.975 Z-1.497
N8175 X112.416 Y49.158 Z-1.499
N8180 X112.42 Y49.312 Z-1.509
N8185 X112.429 Y50.012 Z-1.524
N8190 X112.424 Y50.583 Z-1.516
N8195 X112.415 Y50.892 Z-1.497
N8200 X112.402 Y51.146
N8205 X112.384 Y51.351 Z-1.484
N8210 X112.377 Y51.413
N8215 X112.341 Y51.686 Z-1.473
N8220 X112.321 Y51.816 Z-1.465
N8225 X112.241 Y52.23 Z-1.473
N8230 X112.228 Y52.28 Z-1.471
N8235 X112.141 Y52.572 Z-1.474
N8240 X112.093 Y52.716 Z-1.465
N8245 X112.024 Y52.908 Z-1.468
N8250 X111.931 Y53.126 Z-1.443
N8255 X111.885 Y53.233 Z-1.435
N8260 X111.733 Y53.546 Z-1.385
N8265 X111.718 Y53.568 Z-1.379
N8270 X111.689 Y53.612 Z-1.373
N8275 X111.647 Y53.668 Z-1.375
N8280 X111.556 Y53.779 Z-1.388
N8285 X111.468 Y53.882 Z-1.391
N8290 X111.382 Y53.975 Z-1.382
N8295 X111.337 Y54.018 Z-1.371
N8300 X111.292 Y54.06 Z-1.368
N8305 X111.188 Y54.145 Z-1.35
N8310 X111.12 Y54.196 Z-1.332
N8315 X111.089 Y54.218 Z-1.33
N8320 X110.954 Y54.309 Z-1.323
N8325 X110.873 Y54.352 Z-1.302
N8330 X110.831 Y54.372 Z-1.298
N8335 X110.679 Y54.44 Z-1.291
N8340 X110.618 Y54.464 Z-1.283
N8345 X110.567 Y54.482 Z-1.284
N8350 X110.541 Y54.491 Z-1.286
N8355 X110.408 Y54.529 Z-1.283
N8360 X110.339 Y54.544 Z-1.274
N8365 X110.269 Y54.558 Z-1.273
N8370 X110.079 Y54.586 Z-1.253
N8375 X109.815 Y54.612 Z-1.227
N8380 X109.803 Y54.613
N8385 X109.774 Y54.612 Z-1.223
N8390 X109.712 Y54.607 Z-1.224
N8395 X109.368 Y54.569 Z-1.252
N8400 X109.277 Y54.554 Z-1.251
N8405 X109.174 Y54.533 Z-1.264
N8410 X109.028 Y54.495 Z-1.266
N8415 X108.988 Y54.482 Z-1.271
N8420 X108.831 Y54.419 Z-1.278
N8425 X108.777 Y54.393 Z-1.274
N8430 X108.751 Y54.379
N8435 X108.661 Y54.328 Z-1.288
N8440 X108.532 Y54.244 Z-1.293
N8445 X108.501 Y54.223 Z-1.3
N8450 X108.333 Y54.098 Z-1.342
N8455 X108.299 Y54.064 Z-1.341
N8460 X108.045 Y53.795 Z-1.354
N8465 G0 Z5.08
N8470 X68.957 Y123.814
N8475 G1 Z-0.001 F1270
N8480 X69.247 Y123.316 Z-1.107 F2540
N8485 X69.345 Y123.136 Z-1.511
N8490 X69.43 Y123.178 Z-1.382
N8495 X69.667 Y123.313 Z-0.991
N8500 X70.226 Y123.657 Z-0.001
N8505 X69.667 Y123.313 Z-0.991
N8510 X69.43 Y123.178 Z-1.382
N8515 X69.345 Y123.136 Z-1.511
N8520 X69.284 Y123.021 Z-1.502
N8525 X69.187 Y122.874 Z-1.482
N8530 X69.17 Y122.852 Z-1.476
N8535 X69.153 Y122.829 Z-1.473
N8540 X69.045 Y122.697 Z-1.451
N8545 X69.01 Y122.659 Z-1.443
N8550 X68.861 Y122.504 Z-1.423
N8555 X68.759 Y122.405 Z-1.421
N8560 X68.564 Y122.259 Z-1.344
N8565 X68.505 Y122.22 Z-1.333
N8570 X68.475 Y122.201
N8575 X68.378 Y122.146 Z-1.332
N8580 X68.166 Y122.038 Z-1.308
N8585 X67.981 Y121.963 Z-1.283
N8590 X67.804 Y121.911 Z-1.256
N8595 X67.77 Y121.902 Z-1.255
N8600 X67.603 Y121.87 Z-1.234
N8605 X67.541 Y121.861
N8610 X67.395 Y121.846 Z-1.221
N8615 X67.04 Y121.821 Z-1.218
N8620 X66.989 Y121.824 Z-1.217
N8625 X66.73 Y121.848 Z-1.229
N8630 X66.539 Y121.87 Z-1.231
N8635 X66.408 Y121.89 Z-1.247
N8640 X66.28 Y121.916 Z-1.252
N8645 X66.251 Y121.922 Z-1.257
N8650 X66.111 Y121.958 Z-1.282
N8655 X66.019 Y121.987 Z-1.289
N8660 X65.977 Y122.001 Z-1.298
N8665 X65.862 Y122.049 Z-1.32
N8670 X65.746 Y122.104 Z-1.334
N8675 X65.638 Y122.167 Z-1.351
N8680 X65.529 Y122.238 Z-1.356
N8685 X65.507 Y122.253 Z-1.36
N8690 X65.393 Y122.334 Z-1.381
N8695 X65.143 Y122.529 Z-1.399
N8700 X65.117 Y122.552 Z-1.401
N8705 X65.067 Y122.6 Z-1.416
N8710 X65.043 Y122.624 Z-1.428
N8715 X64.962 Y122.712 Z-1.47
N8720 X64.802 Y122.941 Z-1.473
N8725 X64.735 Y123.042 Z-1.469
N8730 X64.621 Y123.228 Z-1.484
N8735 X64.572 Y123.319 Z-1.483
N8740 X64.478 Y123.511 Z-1.508
N8745 X64.44 Y123.601 Z-1.509
N8750 X64.426 Y123.636 Z-1.515
N8755 X64.383 Y123.768 Z-1.526
N8760 X64.353 Y123.87
N8765 X64.315 Y124.042 Z-1.531
N8770 X64.293 Y124.17 Z-1.524
N8775 X64.266 Y124.365 Z-1.53
N8780 X64.231 Y124.708 Z-1.517
N8785 X64.228 Y124.757 Z-1.515
N8790 X64.227 Y124.804
N8795 Y124.852 Z-1.523
N8800 X64.229 Y124.899 Z-1.532
N8805 X64.232 Y124.947 Z-1.549
N8810 X64.239 Y124.995 Z-1.567
N8815 X64.245 Y125.043 Z-1.592
N8820 X64.258 Y125.091 Z-1.613
N8825 X64.271 Y125.139 Z-1.642
N8830 X64.287 Y125.188 Z-1.672
N8835 X64.304 Y125.236 Z-1.71
N8840 X64.324 Y125.284 Z-1.749
N8845 X64.344 Y125.332 Z-1.796
N8850 X64.328 Y125.384 Z-1.751
N8855 X64.318 Y125.429 Z-1.713
N8860 X64.307 Y125.474 Z-1.682
N8865 X64.299 Y125.519 Z-1.651
N8870 X64.291 Y125.565 Z-1.627
N8875 X64.287 Y125.609 Z-1.603
N8880 X64.282 Y125.654 Z-1.586
N8885 X64.28 Y125.699 Z-1.57
N8890 X64.279 Y125.743 Z-1.561
N8895 X64.281 Y125.781 Z-1.55
N8900 X64.287 Y125.856 Z-1.539
N8905 X64.292 Y125.893
N8910 X64.319 Y126.078
N8915 X64.346 Y126.223 Z-1.527
N8920 X64.376 Y126.362 Z-1.507
N8925 X64.378 Y126.368
N8930 X64.419 Y126.508 Z-1.487
N8935 X64.447 Y126.59 Z-1.468
N8940 X64.466 Y126.642 Z-1.462
N8945 X64.554 Y126.843 Z-1.418
N8950 X64.604 Y126.943 Z-1.413
N8955 X64.686 Y127.086 Z-1.39
N8960 X64.702 Y127.113
N8965 X64.814 Y127.288 Z-1.388
N8970 X64.843 Y127.329
N8975 X64.96 Y127.489 Z-1.4
N8980 X65.117 Y127.654 Z-1.341
N8985 X65.16 Y127.696 Z-1.327
N8990 X65.199 Y127.73 Z-1.321
N8995 X65.383 Y127.873 Z-1.325
N9000 X65.546 Y127.989 Z-1.31
N9005 X65.575 Y128.009 Z-1.308
N9010 X65.622 Y128.039 Z-1.31
N9015 X65.728 Y128.102 Z-1.301
N9020 X65.781 Y128.129 Z-1.291
N9025 X65.84 Y128.157 Z-1.289
N9030 X65.957 Y128.207 Z-1.274
N9035 X66.021 Y128.23 Z-1.261
N9040 X66.056 Y128.242 Z-1.26
N9045 X66.242 Y128.29 Z-1.237
N9050 X66.269 Y128.297 Z-1.233
N9055 X66.365 Y128.316
N9060 X66.489 Y128.336 Z-1.222
N9065 X66.677 Y128.359 Z-1.223
N9070 X66.931 Y128.383 Z-1.217
N9075 X66.97 Y128.386 Z-1.218
N9080 X66.999 Y128.385 Z-1.214
N9085 X67.253 Y128.359 Z-1.223
N9090 X67.484 Y128.33 Z-1.222
N9095 X67.511 Y128.326
N9100 X67.536 Y128.323 Z-1.225
N9105 X67.746 Y128.278 Z-1.234
N9110 X67.779 Y128.27 Z-1.235
N9115 X67.837 Y128.254 Z-1.246
N9120 X67.953 Y128.216 Z-1.258
N9125 X68.039 Y128.183
N9130 X68.067 Y128.172 Z-1.262
N9135 X68.176 Y128.116 Z-1.274
N9140 X68.273 Y128.062 Z-1.276
N9145 X68.33 Y128.024
N9150 X68.513 Y127.895 Z-1.292
N9155 X68.743 Y127.699 Z-1.32
N9160 X68.882 Y127.575 Z-1.33
N9165 X68.907 Y127.552 Z-1.332
N9170 X68.931 Y127.528 Z-1.338
N9175 X68.946 Y127.507 Z-1.335
N9180 X68.962 Y127.486
N9185 X69.095 Y127.28 Z-1.354
N9190 X69.179 Y127.143 Z-1.359
N9195 X69.27 Y126.983 Z-1.381
N9200 X69.301 Y126.922 Z-1.384
N9205 X69.388 Y126.733 Z-1.415
N9210 X69.398 Y126.71 Z-1.419
N9215 X69.454 Y126.556 Z-1.449
N9220 X69.47 Y126.506 Z-1.454
N9225 X69.494 Y126.419 Z-1.468
N9230 X69.526 Y126.284 Z-1.482
N9235 X69.553 Y126.134 Z-1.497
N9240 X69.588 Y125.88 Z-1.503
N9245 X69.592 Y125.842
N9250 X69.596 Y125.805 Z-1.51
N9255 Y125.764 Z-1.513
N9260 X69.595 Y125.681 Z-1.534
N9265 X69.588 Y125.597 Z-1.568
N9270 X69.575 Y125.513 Z-1.615
N9275 X69.567 Y125.471 Z-1.645
N9280 X69.585 Y125.455 Z-1.606
N9285 X69.944 Y125.113 Z-0.78
N9290 X70.26 Y124.791 Z-0.002
N9295 X69.944 Y125.113 Z-0.78
N9300 X69.585 Y125.455 Z-1.606
N9305 X69.567 Y125.471 Z-1.645
N9310 X69.525 Y125.448 Z-1.585
N9315 X69.482 Y125.424 Z-1.532
N9320 X69.439 Y125.405 Z-1.48
N9325 X69.397 Y125.385 Z-1.436
N9330 X69.354 Y125.369 Z-1.393
N9335 X69.312 Y125.353 Z-1.358
N9340 X69.269 Y125.34 Z-1.324
N9345 X69.226 Y125.327 Z-1.297
N9350 X69.184 Y125.318 Z-1.271
N9355 X69.141 Y125.309 Z-1.254
N9360 X69.099 Y125.304 Z-1.237
N9365 X69.056 Y125.299 Z-1.228
N9370 X69.013 Y125.297 Z-1.219
N9375 X64.923 Y125.295
N9380 X64.888 Y125.296
N9385 X64.828 Y125.299 Z-1.231
N9390 X64.802 Y125.301 Z-1.24
N9395 X64.749 Y125.304 Z-1.267
N9400 X64.694 Y125.308 Z-1.309
N9405 X64.636 Y125.312 Z-1.366
N9410 X64.573 Y125.316 Z-1.441
N9415 X64.504 Y125.321 Z-1.535
N9420 X64.429 Y125.326 Z-1.653
N9425 X64.344 Y125.332 Z-1.796
N9430 G0 Z5.08
N9435 X71.756 Y121.479
N9440 G1 Z-0.001 F1270
N9445 X72.37 Y122.093 Z-1.483 F2540
N9450 X72.984 Y121.479 Z-0.001
N9455 X72.37 Y122.093 Z-1.483
N9460 Y125.275
N9465 X72.378 Y125.662 Z-1.501
N9470 X72.396 Y126.059 Z-1.544
N9475 X72.398 Y126.089 Z-1.548
N9480 X72.434 Y126.482 Z-1.638
N9485 X72.484 Y126.886 Z-1.757
N9490 X72.491 Y126.934 Z-1.772
N9495 X72.499 Y126.982 Z-1.794
N9500 X72.474 Y127.028 Z-1.729
N9505 X72.448 Y127.074 Z-1.672
N9510 X72.427 Y127.121 Z-1.617
N9515 X72.406 Y127.167 Z-1.569
N9520 X72.388 Y127.213 Z-1.523
N9525 X72.371 Y127.26 Z-1.485
N9530 X72.357 Y127.306 Z-1.448
N9535 X72.344 Y127.352 Z-1.419
N9540 X72.334 Y127.398 Z-1.391
N9545 X72.324 Y127.445 Z-1.372
N9550 X72.319 Y127.491 Z-1.354
N9555 X72.313 Y127.537 Z-1.344
N9560 X72.311 Y127.584 Z-1.335
N9565 X72.309 Y127.63
N9570 Y128.176
N9575 X72.861 Y128.729 Z-0.001
N9580 X72.309 Y128.176 Z-1.335
N9585 X71.756 Y128.729 Z-0.001
N9590 X72.309 Y128.176 Z-1.335
N9595 Y127.63
N9600 X72.311 Y127.584
N9605 X72.313 Y127.537 Z-1.344
N9610 X72.319 Y127.491 Z-1.354
N9615 X72.324 Y127.445 Z-1.372
N9620 X72.334 Y127.398 Z-1.391
N9625 X72.344 Y127.352 Z-1.419
N9630 X72.357 Y127.306 Z-1.448
N9635 X72.371 Y127.26 Z-1.485
N9640 X72.388 Y127.213 Z-1.523
N9645 X72.406 Y127.167 Z-1.569
N9650 X72.427 Y127.121 Z-1.617
N9655 X72.448 Y127.074 Z-1.672
N9660 X72.474 Y127.028 Z-1.729
N9665 X72.499 Y126.982 Z-1.794
N9670 X72.553 Y127.002 Z-1.69
N9675 X72.644 Y127.04 Z-1.518
N9680 X72.729 Y127.081 Z-1.365
N9685 X72.806 Y127.122 Z-1.234
N9690 X72.867 Y127.157 Z-1.141
N9695 X72.901 Y127.178 Z-1.096
N9700 X72.932 Y127.2 Z-1.053
N9705 X72.963 Y127.221 Z-1.016
N9710 X72.991 Y127.245 Z-0.98
N9715 X73.038 Y127.286 Z-0.933
N9720 X73.053 Y127.3 Z-0.921
N9725 X73.095 Y127.339 Z-0.9
N9730 X73.128 Y127.374 Z-0.892
N9735 X73.165 Y127.419
N9740 X73.221 Y127.495 Z-0.913
N9745 X73.234 Y127.513 Z-0.921
N9750 X73.377 Y127.694 Z-1.006
N9755 X73.399 Y127.717 Z-1.017
N9760 X73.42 Y127.74 Z-1.033
N9765 X73.584 Y127.899 Z-1.151
N9770 X73.611 Y127.921 Z-1.169
N9775 X73.681 Y127.976 Z-1.219
N9780 X73.806 Y128.063 Z-1.29
N9785 X73.825 Y128.075 Z-1.301
N9790 X73.865 Y128.098 Z-1.331
N9795 X73.994 Y128.168 Z-1.426
N9800 X74.066 Y128.195 Z-1.452
N9805 X74.091 Y128.204 Z-1.463
N9810 X74.203 Y128.233 Z-1.505
N9815 X74.314 Y128.25 Z-1.519
N9820 X74.342 Y128.252
N9825 X74.399 Y128.254 Z-1.526
N9830 X74.434 Z-1.532
N9835 X74.698 Y128.225 Z-1.527
N9840 X74.737 Y128.218
N9845 X74.793 Y128.207 Z-1.529
N9850 X74.905 Y128.181 Z-1.521
N9855 X75.045 Y128.245 Z-1.258
N9860 X75.231 Y128.321 Z-0.902
N9865 X75.694 Y128.497 Z-0.001
N9870 X75.231 Y128.321 Z-0.902
N9875 X75.045 Y128.245 Z-1.258
N9880 X74.905 Y128.181 Z-1.521
N9885 X74.982 Y128.039 Z-1.228
N9890 X75.008 Y127.984 Z-1.122
N9895 X75.155 Y127.655 Z-0.515
N9900 X75.271 Y127.358 Z-0.001
N9905 G0 Z5.08
N9910 X76.412 Y121.479
N9915 G1 Z-0.001 F1270
N9920 X77.026 Y122.093 Z-1.483 F2540
N9925 X77.64 Y121.479 Z-0.001
N9930 X77.026 Y122.093 Z-1.483
N9935 Y125.299 Z-1.484
N9940 X77.034 Y125.696 Z-1.503
N9945 X77.053 Y126.089 Z-1.548
N9950 X77.056 Y126.12 Z-1.555
N9955 X77.094 Y126.522 Z-1.648
N9960 X77.147 Y126.934 Z-1.772
N9965 X77.155 Y126.982 Z-1.794
N9970 X77.129 Y127.028 Z-1.729
N9975 X77.104 Y127.074 Z-1.672
N9980 X77.083 Y127.121 Z-1.617
N9985 X77.061 Y127.167 Z-1.569
N9990 X77.044 Y127.213 Z-1.523
N9995 X77.027 Y127.26 Z-1.485
N10000 X77.013 Y127.306 Z-1.448
N10005 X76.999 Y127.352 Z-1.419
N10010 X76.99 Y127.399 Z-1.391
N10015 X76.98 Y127.445 Z-1.372
N10020 X76.974 Y127.491 Z-1.354
N10025 X76.968 Y127.537 Z-1.344
N10030 X76.966 Y127.584 Z-1.335
N10035 X76.965 Y127.63
N10040 Y128.176
N10045 X76.412 Y128.729 Z-0.001
N10050 X76.965 Y128.176 Z-1.335
N10055 X77.517 Y128.729 Z-0.001
N10060 X76.965 Y128.176 Z-1.335
N10065 Y127.63
N10070 X76.966 Y127.584
N10075 X76.968 Y127.537 Z-1.344
N10080 X76.974 Y127.491 Z-1.354
N10085 X76.98 Y127.445 Z-1.372
N10090 X76.99 Y127.399 Z-1.391
N10095 X76.999 Y127.352 Z-1.419
N10100 X77.013 Y127.306 Z-1.448
N10105 X77.027 Y127.26 Z-1.485
N10110 X77.044 Y127.213 Z-1.523
N10115 X77.061 Y127.167 Z-1.569
N10120 X77.083 Y127.121 Z-1.617
N10125 X77.104 Y127.074 Z-1.672
N10130 X77.129 Y127.028 Z-1.729
N10135 X77.155 Y126.982 Z-1.794
N10140 X77.209 Y127.002 Z-1.689
N10145 X77.3 Y127.04 Z-1.518
N10150 X77.385 Y127.081 Z-1.364
N10155 X77.462 Y127.122 Z-1.234
N10160 X77.523 Y127.157 Z-1.141
N10165 X77.556 Y127.178 Z-1.096
N10170 X77.587 Y127.199 Z-1.053
N10175 X77.618 Y127.221 Z-1.016
N10180 X77.646 Y127.245 Z-0.98
N10185 X77.693 Y127.286 Z-0.933
N10190 X77.709 Y127.3 Z-0.921
N10195 X77.75 Y127.339 Z-0.9
N10200 X77.784 Y127.374 Z-0.892
N10205 X77.821 Y127.419
N10210 X77.877 Y127.495 Z-0.913
N10215 X77.89 Y127.513 Z-0.921
N10220 X78.033 Y127.695 Z-1.006
N10225 X78.054 Y127.717 Z-1.017
N10230 X78.076 Y127.74 Z-1.033
N10235 X78.24 Y127.899 Z-1.151
N10240 X78.267 Y127.921 Z-1.17
N10245 X78.337 Y127.976 Z-1.219
N10250 X78.461 Y128.063 Z-1.29
N10255 X78.481 Y128.075 Z-1.301
N10260 X78.52 Y128.098 Z-1.331
N10265 X78.65 Y128.168 Z-1.426
N10270 X78.722 Y128.195 Z-1.452
N10275 X78.747 Y128.204 Z-1.463
N10280 X78.859 Y128.233 Z-1.505
N10285 X78.97 Y128.25 Z-1.519
N10290 X78.998 Y128.252
N10295 X79.054 Y128.254 Z-1.526
N10300 X79.09 Z-1.532
N10305 X79.354 Y128.225 Z-1.527
N10310 X79.393 Y128.218
N10315 X79.449 Y128.207 Z-1.529
N10320 X79.561 Y128.181 Z-1.521
N10325 X79.701 Y128.245 Z-1.258
N10330 X79.887 Y128.321 Z-0.902
N10335 X80.35 Y128.497 Z-0.001
N10340 X79.887 Y128.321 Z-0.902
N10345 X79.701 Y128.245 Z-1.258
N10350 X79.561 Y128.181 Z-1.521
N10355 X79.638 Y128.039 Z-1.229
N10360 X79.664 Y127.984 Z-1.123
N10365 X79.81 Y127.655 Z-0.515
N10370 X79.927 Y127.358 Z-0.001
N10375 G0 Z5.08
N10380 X80.385 Y128.729
N10385 G1 Z-0.001 F1270
N10390 X81.276 Y128.113 Z-1.486 F2540
N10395 X81.709 Y128.729 Z-0.001
N10400 X81.276 Y128.113 Z-1.486
N10405 X82.669 Y124.338 Z-1.403
N10410 X82.96 Y123.528 Z-1.367
N10415 X83.248 Y122.663 Z-1.278
N10420 X83.265 Y122.623
N10425 X83.283 Y122.582 Z-1.287
N10430 X83.304 Y122.542 Z-1.296
N10435 X83.337 Y122.484 Z-1.322
N10440 X83.349 Y122.465 Z-1.332
N10445 X83.374 Y122.426 Z-1.359
N10450 X83.401 Y122.39 Z-1.386
N10455 X83.429 Y122.353 Z-1.422
N10460 X83.461 Y122.317 Z-1.458
N10465 X83.492 Y122.282 Z-1.503
N10470 X83.527 Y122.247 Z-1.548
N10475 X83.562 Y122.213 Z-1.601
N10480 X83.6 Y122.18 Z-1.656
N10485 X83.638 Y122.147 Z-1.718
N10490 X83.68 Y122.116 Z-1.782
N10495 X83.722 Y122.084 Z-1.853
N10500 X83.723 Y121.687 Z-1.515
N10505 X83.722 Y121.656 Z-1.489
N10510 X83.719 Y121.595 Z-1.444
N10515 X83.712 Y121.528 Z-1.4
N10520 X83.7 Y121.454 Z-1.363
N10525 X83.684 Y121.382 Z-1.338
N10530 X83.663 Y121.312 Z-1.325
N10535 X83.446 Y120.729 Z-1.312
N10540 X83.361 Y120.516 Z-1.295
N10545 X83.281 Y120.336 Z-1.297
N10550 X83.137 Y120.028 Z-1.291
N10555 X83.12 Y119.993
N10560 X83.105 Y119.964 Z-1.296
N10565 X83.004 Y119.811 Z-1.316
N10570 X82.989 Y119.79 Z-1.32
N10575 X82.974 Y119.769 Z-1.326
N10580 X82.887 Y119.66 Z-1.346
N10585 X82.859 Y119.628 Z-1.351
N10590 X82.815 Y119.579 Z-1.373
N10595 X82.749 Y119.516 Z-1.389
N10600 X82.708 Y119.481 Z-1.394
N10605 X82.687 Y119.463 Z-1.4
N10610 X82.574 Y119.378 Z-1.42
N10615 X82.534 Y119.35 Z-1.429
N10620 X82.493 Y119.322 Z-1.443
N10625 X82.327 Y119.245 Z-1.466
N10630 X82.287 Y119.23 Z-1.468
N10635 X82.258 Y119.218 Z-1.473
N10640 X82.18 Y119.193 Z-1.479
N10645 X82.108 Y119.175 Z-1.474
N10650 X82.06 Y119.166 Z-1.465
N10655 X82.023 Y119.16 Z-1.464
N10660 X81.838 Y119.141 Z-1.452
N10665 X81.678 Z-1.431
N10670 X81.588 Y119.146 Z-1.412
N10675 X81.559 Y119.148 Z-1.409
N10680 X81.542 Y119.165 Z-1.372
N10685 X81.183 Y119.516 Z-0.61
N10690 X80.89 Y119.841 Z-0.001
N10695 X81.183 Y119.516 Z-0.61
N10700 X81.542 Y119.165 Z-1.372
N10705 X81.559 Y119.148 Z-1.409
N10710 X81.518 Y119.107 Z-1.297
N10715 X81.3 Y118.915 Z-0.721
N10720 X81.027 Y118.687 Z-0.001
N10725 X81.3 Y118.915 Z-0.721
N10730 X81.518 Y119.107 Z-1.297
N10735 X81.559 Y119.148 Z-1.409
N10740 X81.588 Y119.146 Z-1.412
N10745 X81.678 Y119.141 Z-1.431
N10750 X81.838 Z-1.452
N10755 X82.023 Y119.16 Z-1.464
N10760 X82.06 Y119.166 Z-1.465
N10765 X82.108 Y119.175 Z-1.474
N10770 X82.18 Y119.193 Z-1.479
N10775 X82.258 Y119.218 Z-1.473
N10780 X82.287 Y119.23 Z-1.468
N10785 X82.327 Y119.245 Z-1.466
N10790 X82.493 Y119.322 Z-1.443
N10795 X82.534 Y119.35 Z-1.429
N10800 X82.574 Y119.378 Z-1.42
N10805 X82.687 Y119.463 Z-1.4
N10810 X82.708 Y119.481 Z-1.394
N10815 X82.749 Y119.516 Z-1.389
N10820 X82.815 Y119.579 Z-1.373
N10825 X82.859 Y119.628 Z-1.351
N10830 X82.887 Y119.66 Z-1.346
N10835 X82.974 Y119.769 Z-1.326
N10840 X82.989 Y119.79 Z-1.32
N10845 X83.004 Y119.811 Z-1.316
N10850 X83.105 Y119.964 Z-1.296
N10855 X83.12 Y119.993 Z-1.291
N10860 X83.137 Y120.028
N10865 X83.281 Y120.336 Z-1.297
N10870 X83.361 Y120.516 Z-1.295
N10875 X83.446 Y120.729 Z-1.312
N10880 X83.663 Y121.312 Z-1.325
N10885 X83.684 Y121.382 Z-1.338
N10890 X83.7 Y121.454 Z-1.363
N10895 X83.712 Y121.528 Z-1.4
N10900 X83.719 Y121.595 Z-1.444
N10905 X83.722 Y121.656 Z-1.489
N10910 X83.723 Y121.687 Z-1.515
N10915 X83.722 Y122.084 Z-1.853
N10920 X83.766 Y122.116 Z-1.776
N10925 X83.811 Y122.148 Z-1.706
N10930 X83.851 Y122.181 Z-1.639
N10935 X83.892 Y122.214 Z-1.579
N10940 X83.928 Y122.249 Z-1.521
N10945 X83.965 Y122.284 Z-1.471
N10950 X83.998 Y122.32 Z-1.423
N10955 X84.031 Y122.356 Z-1.383
N10960 X84.06 Y122.393 Z-1.344
N10965 X84.089 Y122.431 Z-1.315
N10970 X84.115 Y122.47 Z-1.285
N10975 X84.14 Y122.509 Z-1.266
N10980 X84.162 Y122.549 Z-1.246
N10985 X84.183 Y122.589 Z-1.236
N10990 X84.201 Y122.631 Z-1.226
N10995 X84.219 Y122.673
N11000 X84.497 Y123.524 Z-1.319
N11005 X84.778 Y124.317 Z-1.354
N11010 X86.199 Y128.155 Z-1.386
N11015 X85.798 Y128.729 Z-0.001
N11020 X86.199 Y128.155 Z-1.386
N11025 X87.026 Y128.729 Z-0.001
N11030 G0 Z5.08
N11035 X92.113 Y121.479
N11040 G1 Z-0.001 F1270
N11045 X92.775 Y122.141 Z-1.599 F2540
N11050 X93.436 Y121.479 Z-0.001
N11055 X92.775 Y122.141 Z-1.599
N11060 X92.776 Y125.597
N11065 X92.778 Y125.646 Z-1.608
N11070 X92.784 Y125.696 Z-1.616
N11075 X92.794 Y125.769 Z-1.642
N11080 X92.798 Y125.794 Z-1.652
N11085 X92.808 Y125.843 Z-1.678
N11090 X92.82 Y125.892 Z-1.705
N11095 X92.833 Y125.942 Z-1.74
N11100 X92.85 Y125.991 Z-1.776
N11105 X92.866 Y126.04 Z-1.819
N11110 X92.886 Y126.089 Z-1.864
N11115 X92.906 Y126.138 Z-1.917
N11120 X92.886 Y126.188 Z-1.864
N11125 X92.866 Y126.237 Z-1.819
N11130 X92.85 Y126.286 Z-1.776
N11135 X92.833 Y126.335 Z-1.74
N11140 X92.82 Y126.385 Z-1.705
N11145 X92.808 Y126.434 Z-1.678
N11150 X92.798 Y126.483 Z-1.652
N11155 X92.789 Y126.532 Z-1.634
N11160 X92.784 Y126.581 Z-1.616
N11165 X92.778 Y126.631 Z-1.608
N11170 X92.776 Y126.68 Z-1.599
N11175 X92.775 Y126.729
N11180 X92.776 Y130.35
N11185 X92.778 Y130.395 Z-1.606
N11190 X92.782 Y130.439 Z-1.613
N11195 X92.787 Y130.484 Z-1.627
N11200 X92.794 Y130.528 Z-1.642
N11205 X92.801 Y130.573 Z-1.663
N11210 X92.812 Y130.617 Z-1.685
N11215 X92.822 Y130.661 Z-1.714
N11220 X92.836 Y130.706 Z-1.743
N11225 X92.849 Y130.75 Z-1.779
N11230 X92.113 Y131.487 Z-0.001
N11235 X92.849 Y130.75 Z-1.779
N11240 X92.898 Y130.773 Z-1.721
N11245 X92.947 Y130.795 Z-1.671
N11250 X92.996 Y130.813 Z-1.622
N11255 X93.045 Y130.832 Z-1.582
N11260 X93.094 Y130.846 Z-1.544
N11265 X93.143 Y130.86 Z-1.514
N11270 X93.192 Y130.87 Z-1.485
N11275 X93.241 Y130.88 Z-1.465
N11280 X93.29 Y130.886 Z-1.445
N11285 X93.339 Y130.892 Z-1.435
N11290 X93.388 Y130.894 Z-1.426
N11295 X95.885 Y130.896
N11300 X96.256 Y130.895 Z-1.423
N11305 X96.615 Y130.883 Z-1.42
N11310 X96.638 Y130.881 Z-1.419
N11315 X96.97 Y130.852 Z-1.423
N11320 X97.31 Y130.805 Z-1.433
N11325 X97.358 Y130.796 Z-1.43
N11330 X97.405 Y130.784
N11335 X97.585 Y130.731 Z-1.467
N11340 X97.703 Y130.69 Z-1.48
N11345 X97.842 Y130.637 Z-1.508
N11350 X97.898 Y130.61 Z-1.512
N11355 X97.927 Y130.596 Z-1.518
N11360 X98.039 Y130.534 Z-1.534
N11365 X98.081 Y130.508 Z-1.539
N11370 X98.212 Y130.418 Z-1.57
N11375 X98.238 Y130.4 Z-1.577
N11380 X98.268 Y130.378 Z-1.588
N11385 X98.38 Y130.275 Z-1.603
N11390 X98.443 Y130.214 Z-1.621
N11395 X98.519 Y130.134 Z-1.635
N11400 X98.58 Y130.065 Z-1.638
N11405 X98.625 Y130.005 Z-1.637
N11410 X98.644 Y129.979 Z-1.64
N11415 X98.703 Y129.881 Z-1.648
N11420 X98.801 Y129.707 Z-1.649
N11425 X98.825 Y129.662 Z-1.651
N11430 X98.882 Y129.532 Z-1.643
N11435 X98.896 Y129.498 Z-1.641
N11440 X98.936 Y129.393 Z-1.646
N11445 X98.967 Y129.301 Z-1.645
N11450 X98.976 Y129.27 Z-1.649
N11455 X99.008 Y129.143 Z-1.654
N11460 X99.017 Y129.1 Z-1.652
N11465 X99.03 Y129.02 Z-1.655
N11470 X99.041 Y128.936 Z-1.652
N11475 X99.067 Y128.602 Z-1.648
N11480 X99.065 Y128.547 Z-1.638
N11485 X99.051 Y128.361 Z-1.639
N11490 X99.025 Y128.113 Z-1.631
N11495 X99.024 Y128.098
N11500 X98.982 Y127.869 Z-1.628
N11505 X98.972 Y127.833 Z-1.623
N11510 X98.923 Y127.667 Z-1.624
N11515 X98.89 Y127.582 Z-1.61
N11520 X98.842 Y127.475 Z-1.612
N11525 X98.77 Y127.342 Z-1.598
N11530 X98.741 Y127.293
N11535 X98.629 Y127.124 Z-1.595
N11540 X98.598 Y127.081 Z-1.597
N11545 X98.471 Y126.916 Z-1.61
N11550 X98.305 Y126.766 Z-1.535
N11555 X98.265 Y126.733 Z-1.525
N11560 X98.222 Y126.702 Z-1.517
N11565 X98.178 Y126.674 Z-1.514
N11570 X98.15 Y126.657 Z-1.515
N11575 X97.957 Y126.544 Z-1.529
N11580 X97.819 Y126.468 Z-1.528
N11585 X97.692 Y126.404 Z-1.519
N11590 X97.676 Y126.397 Z-1.518
N11595 X97.545 Y126.342 Z-1.512
N11600 X97.431 Y126.3 Z-1.496
N11605 X97.388 Y126.287 Z-1.493
N11610 X97.258 Y126.252 Z-1.482
N11615 X97.133 Y126.222 Z-1.464
N11620 X97.091 Y126.214 Z-1.461
N11625 X96.814 Y126.174 Z-1.439
N11630 X96.756 Y126.168
N11635 X96.527 Y126.152 Z-1.428
N11640 X96.387 Y126.146 Z-1.431
N11645 X95.999 Y126.138 Z-1.426
N11650 X93.409 Z-1.427
N11655 X93.382 Z-1.432
N11660 X93.354 Z-1.44
N11665 X93.325 Z-1.451
N11670 X93.297 Z-1.465
N11675 X93.267 Z-1.483
N11680 X93.206 Z-1.531
N11685 X93.14 Z-1.595
N11690 X93.07 Z-1.679
N11695 X92.992 Z-1.785
N11700 X92.906 Z-1.917
N11705 G0 Z5.08
N11710 X101.287 Y121.479
N11715 G1 Z-0.001 F1270
N11720 X101.901 Y122.093 Z-1.484 F2540
N11725 X102.516 Y121.479 Z-0.001
N11730 X101.901 Y122.093 Z-1.484
N11735 Y128.115
N11740 X101.287 Y128.729 Z-0.001
N11745 X101.901 Y128.115 Z-1.484
N11750 X102.516 Y128.729 Z-0.001
N11755 G0 Z5.08
N11760 X101.287 Y130.074
N11765 G1 Z-0.001 F1270
N11770 X101.901 Y130.689 Z-1.484 F2540
N11775 X102.516 Y130.074 Z-0.001
N11780 X101.901 Y130.689 Z-1.484
N11785 Y130.872
N11790 X101.287 Y131.487 Z-0.001
N11795 X101.901 Y130.872 Z-1.484
N11800 X102.516 Y131.487 Z-0.001
N11805 G0 Z5.08
N11810 X56.213 Y121.479
N11815 G1 Z-0.001 F1270
N11820 X56.782 Y122.049 Z-1.376 F2540
N11825 X57.352 Y121.479 Z-0.001
N11830 X56.782 Y122.049 Z-1.376
N11835 X56.784 Y122.434
N11840 X56.786 Y122.481 Z-1.385
N11845 X56.792 Y122.527 Z-1.395
N11850 X56.797 Y122.574 Z-1.413
N11855 X56.807 Y122.621 Z-1.432
N11860 X56.817 Y122.668 Z-1.46
N11865 X56.83 Y122.714 Z-1.488
N11870 X56.844 Y122.761 Z-1.524
N11875 X56.861 Y122.808 Z-1.562
N11880 X56.878 Y122.855 Z-1.608
N11885 X56.899 Y122.902 Z-1.655
N11890 X56.92 Y122.948 Z-1.71
N11895 X56.945 Y122.995 Z-1.766
N11900 X56.97 Y123.042 Z-1.83
N11905 X57.035 Y123.018 Z-1.706
N11910 X57.1 Y122.993 Z-1.585
N11915 X57.154 Y122.972 Z-1.492
N11920 X57.202 Y122.954 Z-1.417
N11925 X57.289 Y122.918 Z-1.292
N11930 X57.333 Y122.9 Z-1.239
N11935 X57.373 Y122.878 Z-1.187
N11940 X57.414 Y122.857 Z-1.145
N11945 X57.451 Y122.833 Z-1.103
N11950 X57.488 Y122.809 Z-1.071
N11955 X57.532 Y122.776 Z-1.035
N11960 X57.561 Y122.754 Z-1.019
N11965 X57.587 Y122.73 Z-1.003
N11970 X57.613 Y122.705 Z-0.994
N11975 X57.637 Y122.679 Z-0.986
N11980 X57.682 Y122.629 Z-0.984
N11985 X57.861 Y122.433 Z-1.003
N11990 X57.89 Y122.405 Z-1.005
N11995 X58.062 Y122.249 Z-1.052
N12000 X58.111 Y122.211 Z-1.058
N12005 X58.231 Y122.125 Z-1.097
N12010 X58.265 Y122.102 Z-1.111
N12015 X58.353 Y122.052 Z-1.137
N12020 X58.392 Y122.033 Z-1.143
N12025 X58.444 Y122.01 Z-1.16
N12030 X58.536 Y121.974 Z-1.178
N12035 X58.629 Y121.943 Z-1.185
N12040 X58.657 Y121.935 Z-1.184
N12045 X58.868 Y121.886 Z-1.198
N12050 X58.921 Y121.876 Z-1.196
N12055 X59.132 Y121.843 Z-1.199
N12060 X59.189 Y121.835 Z-1.196
N12065 X59.239 Y121.83
N12070 X59.306 Y121.827 Z-1.207
N12075 X59.366 Z-1.227
N12080 X59.615 Y121.86 Z-1.238
N12085 X59.745 Y121.88
N12090 X59.772 Y121.885
N12095 X59.896 Y121.91 Z-1.254
N12100 X59.992 Y121.935 Z-1.257
N12105 X60.025 Y121.944 Z-1.258
N12110 X60.152 Y121.984 Z-1.283
N12115 X60.242 Y122.017 Z-1.292
N12120 X60.288 Y122.037 Z-1.294
N12125 X60.355 Y122.07 Z-1.308
N12130 X60.453 Y122.125 Z-1.318
N12135 X60.518 Y122.166 Z-1.319
N12140 X60.545 Y122.183 Z-1.324
N12145 X60.704 Y122.303 Z-1.333
N12150 X60.726 Y122.321 Z-1.334
N12155 X60.748 Y122.339 Z-1.339
N12160 X60.968 Y122.539 Z-1.362
N12165 X61.05 Y122.616 Z-1.366
N12170 X61.072 Y122.638 Z-1.367
N12175 X61.117 Y122.685 Z-1.378
N12180 X61.138 Y122.709 Z-1.388
N12185 X61.302 Y122.974 Z-1.413
N12190 X61.444 Y123.213 Z-1.424
N12195 X61.457 Y123.236 Z-1.425
N12200 X61.47 Y123.259 Z-1.429
N12205 X61.591 Y123.505 Z-1.448
N12210 X61.604 Y123.535 Z-1.45
N12215 X61.618 Y123.565 Z-1.456
N12220 X61.676 Y123.72 Z-1.473
N12225 X61.71 Y123.82 Z-1.475
N12230 X61.723 Y123.861 Z-1.477
N12235 X61.759 Y124.008 Z-1.487
N12240 X61.79 Y124.157 Z-1.488
N12245 X61.832 Y124.48 Z-1.495
N12250 X61.857 Y124.859 Z-1.509
N12255 X61.867 Y125.082
N12260 X61.868 Y125.109
N12265 X61.869 Y125.215 Z-1.52
N12270 X61.856 Y125.544 Z-1.519
N12275 X61.845 Y125.694 Z-1.508
N12280 X61.828 Y125.868
N12285 X61.806 Y126.011 Z-1.493
N12290 X61.802 Y126.037 Z-1.49
N12295 X61.773 Y126.188
N12300 X61.741 Y126.329 Z-1.48
N12305 X61.732 Y126.364 Z-1.478
N12310 X61.692 Y126.504 Z-1.487
N12315 X61.641 Y126.655 Z-1.478
N12320 X61.631 Y126.681 Z-1.477
N12325 X61.597 Y126.769 Z-1.483
N12330 X61.508 Y126.969 Z-1.482
N12335 X61.496 Y126.994
N12340 X61.484 Y127.019 Z-1.485
N12345 X61.348 Y127.258 Z-1.477
N12350 X61.205 Y127.488 Z-1.445
N12355 X61.177 Y127.524 Z-1.432
N12360 X61.133 Y127.578 Z-1.422
N12365 X61.111 Y127.604
N12370 X61.037 Y127.681 Z-1.428
N12375 X60.952 Y127.762 Z-1.427
N12380 X60.87 Y127.837 Z-1.418
N12385 X60.786 Y127.907 Z-1.398
N12390 X60.689 Y127.975 Z-1.376
N12395 X60.586 Y128.042 Z-1.349
N12400 X60.556 Y128.06 Z-1.341
N12405 X60.462 Y128.115 Z-1.333
N12410 X60.357 Y128.166 Z-1.307
N12415 X60.318 Y128.184 Z-1.297
N12420 X60.215 Y128.226 Z-1.294
N12425 X60.1 Y128.266 Z-1.278
N12430 X60.073 Y128.275 Z-1.275
N12435 X59.961 Y128.307 Z-1.278
N12440 X59.842 Y128.331 Z-1.262
N12445 X59.815 Y128.335 Z-1.259
N12450 X59.699 Y128.353
N12455 X59.441 Y128.38 Z-1.233
N12460 X59.359 Z-1.207
N12465 X59.293 Y128.377 Z-1.197
N12470 X59.261 Y128.374
N12475 X58.948 Y128.327 Z-1.198
N12480 X58.818 Y128.301 Z-1.183
N12485 X58.716 Y128.275 Z-1.185
N12490 X58.623 Y128.246 Z-1.177
N12495 X58.567 Y128.225 Z-1.166
N12500 X58.539 Y128.214 Z-1.165
N12505 X58.441 Y128.168 Z-1.151
N12510 X58.364 Y128.127 Z-1.131
N12515 X58.326 Y128.104 Z-1.118
N12520 X58.153 Y127.984 Z-1.089
N12525 X58.117 Y127.956 Z-1.077
N12530 X57.953 Y127.814 Z-1.056
N12535 X57.93 Y127.792 Z-1.052
N12540 X57.75 Y127.613 Z-1.045
N12545 X57.723 Y127.588
N12550 X57.68 Y127.551 Z-1.054
N12555 X57.635 Y127.517 Z-1.072
N12560 X57.589 Y127.485 Z-1.099
N12565 X57.564 Y127.469 Z-1.119
N12570 X57.536 Y127.451 Z-1.147
N12575 X57.501 Y127.428 Z-1.188
N12580 X57.46 Y127.403 Z-1.239
N12585 X57.419 Y127.379 Z-1.298
N12590 X57.375 Y127.357 Z-1.36
N12595 X57.331 Y127.334 Z-1.429
N12600 X57.283 Y127.314 Z-1.502
N12605 X57.234 Y127.295 Z-1.581
N12610 X57.182 Y127.277 Z-1.665
N12615 X57.131 Y127.259 Z-1.754
N12620 X57.019 Y127.228 Z-1.948
N12625 X56.977 Y127.069 Z-1.845
N12630 X56.969 Y127.035 Z-1.826
N12635 X56.902 Y126.732 Z-1.663
N12640 X56.894 Y126.694 Z-1.647
N12645 X56.845 Y126.394 Z-1.526
N12650 X56.84 Y126.356 Z-1.517
N12655 X56.81 Y126.066 Z-1.442
N12660 X56.808 Y126.039 Z-1.438
N12665 X56.789 Y125.73 Z-1.394
N12670 X56.775 Y125.147 Z-1.36
N12675 X56.781 Y124.632 Z-1.372
N12680 X56.791 Y124.353 Z-1.397
N12685 X56.811 Y124.064 Z-1.445
N12690 X56.84 Y123.798 Z-1.515
N12695 X56.843 Y123.771 Z-1.524
N12700 X56.888 Y123.483 Z-1.631
N12705 X56.97 Y123.042 Z-1.83
N12710 X56.888 Y123.483 Z-1.631
N12715 X56.843 Y123.771 Z-1.524
N12720 X56.84 Y123.798 Z-1.515
N12725 X56.811 Y124.064 Z-1.445
N12730 X56.791 Y124.353 Z-1.397
N12735 X56.781 Y124.632 Z-1.372
N12740 X56.775 Y125.147 Z-1.36
N12745 X56.789 Y125.73 Z-1.394
N12750 X56.808 Y126.039 Z-1.438
N12755 X56.81 Y126.066 Z-1.442
N12760 X56.84 Y126.356 Z-1.517
N12765 X56.845 Y126.394 Z-1.526
N12770 X56.894 Y126.694 Z-1.647
N12775 X56.902 Y126.732 Z-1.663
N12780 X56.969 Y127.035 Z-1.826
N12785 X56.977 Y127.069 Z-1.845
N12790 X57.019 Y127.228 Z-1.948
N12795 X56.994 Y127.277 Z-1.883
N12800 X56.968 Y127.326 Z-1.825
N12805 X56.946 Y127.375 Z-1.769
N12810 X56.925 Y127.424 Z-1.721
N12815 X56.907 Y127.474 Z-1.674
N12820 X56.889 Y127.523 Z-1.635
N12825 X56.876 Y127.572 Z-1.597
N12830 X56.862 Y127.621 Z-1.569
N12835 X56.852 Y127.67 Z-1.54
N12840 X56.842 Y127.719 Z-1.521
N12845 X56.836 Y127.769 Z-1.502
N12850 X56.83 Y127.818 Z-1.493
N12855 X56.828 Y127.867 Z-1.483
N12860 X56.826 Y127.916
N12865 Y130.873
N12870 X56.213 Y131.487 Z-0.001
N12875 X56.826 Y130.873 Z-1.483
N12880 X57.44 Y131.487 Z-0.001
N12885 G0 Z5.08
N12890 X48.444 Y118.701
N12895 G1 Z-0.001 F1270
N12900 X49.058 Y119.315 Z-1.483 F2540
N12905 X49.672 Y118.701 Z-0.001
N12910 X49.058 Y119.315 Z-1.483
N12915 X49.06 Y122.279
N12920 X49.062 Y122.327 Z-1.493
N12925 X49.068 Y122.376 Z-1.502
N12930 X49.073 Y122.425 Z-1.521
N12935 X49.083 Y122.474 Z-1.539
N12940 X49.093 Y122.522 Z-1.567
N12945 X49.106 Y122.571 Z-1.596
N12950 X49.12 Y122.62 Z-1.633
N12955 X49.137 Y122.668 Z-1.67
N12960 X49.154 Y122.717 Z-1.716
N12965 X49.176 Y122.766 Z-1.764
N12970 X49.197 Y122.815 Z-1.819
N12975 X49.222 Y122.863 Z-1.876
N12980 X49.247 Y122.912 Z-1.94
N12985 X49.344 Y122.885 Z-1.768
N12990 X49.39 Y122.869 Z-1.687
N12995 X49.479 Y122.837 Z-1.539
N13000 X49.561 Y122.802 Z-1.406
N13005 X49.601 Y122.783 Z-1.347
N13010 X49.638 Y122.763 Z-1.29
N13015 X49.675 Y122.743 Z-1.238
N13020 X49.718 Y122.718 Z-1.183
N13025 X49.753 Y122.697 Z-1.145
N13030 X49.783 Y122.68 Z-1.118
N13035 X49.838 Y122.645 Z-1.08
N13040 X49.893 Y122.607 Z-1.056
N13045 X49.945 Y122.566 Z-1.044
N13050 X49.969 Y122.544
N13055 X50.112 Y122.4 Z-1.06
N13060 X50.164 Y122.351 Z-1.072
N13065 X50.291 Y122.243 Z-1.09
N13070 X50.309 Y122.228 Z-1.093
N13075 X50.327 Y122.213 Z-1.098
N13080 X50.495 Y122.103 Z-1.119
N13085 X50.532 Y122.082 Z-1.121
N13090 X50.69 Y122.002 Z-1.156
N13095 X50.763 Y121.973 Z-1.158
N13100 X50.906 Y121.924 Z-1.187
N13105 X51.003 Y121.898 Z-1.195
N13110 X51.123 Y121.87 Z-1.218
N13115 X51.344 Y121.836 Z-1.221
N13120 X51.443 Y121.826 Z-1.211
N13125 X51.49 Y121.824
N13130 X51.543 Y121.823 Z-1.217
N13135 X51.569 Z-1.224
N13140 X51.935 Y121.867 Z-1.249
N13145 X52.004 Y121.879 Z-1.248
N13150 X52.103 Y121.899 Z-1.259
N13155 X52.221 Y121.928 Z-1.26
N13160 X52.259 Y121.939 Z-1.262
N13165 X52.413 Y121.996 Z-1.27
N13170 X52.47 Y122.02 Z-1.268
N13175 X52.515 Y122.041
N13180 X52.546 Y122.055 Z-1.273
N13185 X52.717 Y122.15 Z-1.29
N13190 X52.745 Y122.167 Z-1.292
N13195 X52.877 Y122.251 Z-1.327
N13200 X52.959 Y122.316 Z-1.328
N13205 X53.174 Y122.5 Z-1.364
N13210 X53.287 Y122.605 Z-1.371
N13215 X53.307 Y122.624 Z-1.372
N13220 X53.33 Y122.649
N13225 X53.372 Y122.699 Z-1.381
N13230 X53.415 Y122.755 Z-1.401
N13235 X53.509 Y122.897 Z-1.426
N13240 X53.551 Y122.965 Z-1.43
N13245 X53.602 Y123.053 Z-1.439
N13250 X53.699 Y123.23 Z-1.44
N13255 X53.783 Y123.399 Z-1.456
N13260 X53.834 Y123.526 Z-1.444
N13265 X53.85 Y123.568 Z-1.442
N13270 X53.938 Y123.827 Z-1.453
N13275 X53.957 Y123.889 Z-1.452
N13280 X53.996 Y124.043 Z-1.471
N13285 X54.028 Y124.192 Z-1.478
N13290 X54.038 Y124.243 Z-1.483
N13295 X54.069 Y124.466 Z-1.497
N13300 X54.075 Y124.523
N13305 X54.087 Y124.69 Z-1.507
N13310 X54.108 Y125.14 Z-1.514
N13315 X54.088 Y125.6 Z-1.509
N13320 X54.078 Y125.747 Z-1.5
N13325 X54.075 Y125.78 Z-1.499
N13330 X54.045 Y126.015 Z-1.49
N13335 X54.032 Y126.086 Z-1.481
N13340 X54.005 Y126.215 Z-1.477
N13345 X53.966 Y126.376 Z-1.462
N13350 X53.961 Y126.398 Z-1.459
N13355 X53.863 Y126.698 Z-1.455
N13360 X53.851 Y126.732
N13365 X53.814 Y126.828 Z-1.467
N13370 X53.728 Y127.007 Z-1.456
N13375 X53.716 Y127.032 Z-1.455
N13380 X53.645 Y127.165 Z-1.462
N13385 X53.559 Y127.315 Z-1.458
N13390 X53.473 Y127.45 Z-1.437
N13395 X53.399 Y127.554 Z-1.405
N13400 X53.379 Y127.581 Z-1.402
N13405 X53.346 Y127.617 Z-1.393
N13410 X53.258 Y127.704 Z-1.389
N13415 X53.017 Y127.922 Z-1.357
N13420 X52.989 Y127.947 Z-1.355
N13425 X52.812 Y128.065 Z-1.305
N13430 X52.783 Y128.083 Z-1.297
N13435 X52.685 Y128.141 Z-1.288
N13440 X52.586 Y128.193 Z-1.27
N13445 X52.558 Y128.207 Z-1.265
N13450 X52.53 Y128.221 Z-1.264
N13455 X52.377 Y128.279 Z-1.252
N13460 X52.297 Y128.304 Z-1.236
N13465 X52.218 Y128.325 Z-1.233
N13470 X52.074 Y128.354 Z-1.213
N13475 X51.66 Y128.405 Z-1.175
N13480 X51.598 Y128.408 Z-1.159
N13485 X51.548 Y128.407 Z-1.153
N13490 X51.495 Y128.404
N13495 X51.391 Y128.393 Z-1.167
N13500 X51.265 Y128.375 Z-1.176
N13505 X51.15 Y128.355
N13510 X51.061 Y128.336 Z-1.165
N13515 X50.922 Y128.293 Z-1.152
N13520 X50.821 Y128.257 Z-1.135
N13525 X50.793 Y128.246 Z-1.131
N13530 X50.682 Y128.199 Z-1.132
N13535 X50.583 Y128.145 Z-1.109
N13540 X50.552 Y128.126 Z-1.101
N13545 X50.472 Y128.075 Z-1.1
N13550 X50.359 Y127.993 Z-1.082
N13555 X50.341 Y127.979 Z-1.079
N13560 X50.269 Y127.921 Z-1.081
N13565 X50.167 Y127.825 Z-1.06
N13570 X50.085 Y127.742 Z-1.054
N13575 X49.893 Y127.525 Z-1.017
N13580 X49.877 Y127.508 Z-1.014
N13585 X49.842 Y127.472 Z-1.016
N13590 X49.825 Y127.455 Z-1.021
N13595 X49.804 Y127.434 Z-1.032
N13600 X49.778 Y127.408 Z-1.052
N13605 X49.748 Y127.38 Z-1.078
N13610 X49.718 Y127.353 Z-1.113
N13615 X49.684 Y127.327 Z-1.149
N13620 X49.65 Y127.301 Z-1.192
N13625 X49.613 Y127.277 Z-1.238
N13630 X49.576 Y127.253 Z-1.29
N13635 X49.536 Y127.231 Z-1.345
N13640 X49.496 Y127.209 Z-1.406
N13645 X49.453 Y127.188 Z-1.47
N13650 X49.409 Y127.168 Z-1.54
N13655 X49.362 Y127.15 Z-1.614
N13660 X49.315 Y127.131 Z-1.693
N13665 X49.215 Y127.098 Z-1.863
N13670 X49.19 Y127.141 Z-1.8
N13675 X49.166 Y127.184 Z-1.743
N13680 X49.144 Y127.227 Z-1.688
N13685 X49.123 Y127.27 Z-1.639
N13690 X49.104 Y127.313 Z-1.592
N13695 X49.086 Y127.356 Z-1.551
N13700 X49.071 Y127.399 Z-1.512
N13705 X49.056 Y127.442 Z-1.479
N13710 X49.045 Y127.486 Z-1.448
N13715 X49.033 Y127.529 Z-1.423
N13720 X49.025 Y127.572 Z-1.4
N13725 X49.017 Y127.615 Z-1.383
N13730 X49.012 Y127.658 Z-1.368
N13735 X49.007 Y127.701 Z-1.359
N13740 X49.005 Y127.744 Z-1.351
N13745 X49.003 Y127.787
N13750 Y128.169
N13755 X48.444 Y128.729 Z-0.001
N13760 X49.003 Y128.169 Z-1.351
N13765 X49.563 Y128.729 Z-0.001
N13770 X49.003 Y128.169 Z-1.351
N13775 Y127.787
N13780 X49.005 Y127.744
N13785 X49.007 Y127.701 Z-1.359
N13790 X49.012 Y127.658 Z-1.368
N13795 X49.017 Y127.615 Z-1.383
N13800 X49.025 Y127.572 Z-1.4
N13805 X49.033 Y127.529 Z-1.423
N13810 X49.045 Y127.486 Z-1.448
N13815 X49.056 Y127.442 Z-1.479
N13820 X49.071 Y127.399 Z-1.512
N13825 X49.086 Y127.356 Z-1.551
N13830 X49.104 Y127.313 Z-1.592
N13835 X49.123 Y127.27 Z-1.639
N13840 X49.144 Y127.227 Z-1.688
N13845 X49.166 Y127.184 Z-1.743
N13850 X49.19 Y127.141 Z-1.8
N13855 X49.215 Y127.098 Z-1.863
N13860 X49.202 Y127.045 Z-1.83
N13865 X49.194 Y127.012 Z-1.812
N13870 X49.126 Y126.696 Z-1.646
N13875 X49.119 Y126.659 Z-1.632
N13880 X49.07 Y126.346 Z-1.51
N13885 X49.065 Y126.31 Z-1.501
N13890 X49.034 Y126.006 Z-1.425
N13895 X49.032 Y125.981 Z-1.422
N13900 X49.014 Y125.66 Z-1.377
N13905 X49 Y125.063 Z-1.343
N13910 Y125.041 Z-1.344
N13915 X49.013 Y124.448 Z-1.374
N13920 X49.03 Y124.15 Z-1.414
N13925 X49.032 Y124.125 Z-1.42
N13930 X49.063 Y123.82 Z-1.492
N13935 X49.067 Y123.784 Z-1.506
N13940 X49.116 Y123.479 Z-1.621
N13945 X49.123 Y123.441 Z-1.641
N13950 X49.189 Y123.139 Z-1.797
N13955 X49.197 Y123.105 Z-1.818
N13960 X49.247 Y122.912 Z-1.94
N13965 G0 Z5.08
N13970 X40.962 Y123.643
N13975 G1 Z-0.001 F1270
N13980 X41.52 Y123.275 Z-1.086 F2540
N13985 X41.727 Y123.15 Z-1.462
N13990 X41.757 Y123.2 Z-1.354
N13995 X41.91 Y123.443 Z-0.833
N14000 X42.176 Y123.833 Z-0.001
N14005 X41.91 Y123.443 Z-0.833
N14010 X41.757 Y123.2 Z-1.354
N14015 X41.727 Y123.15 Z-1.462
N14020 X41.734 Y123.13 Z-1.463
N14025 X41.805 Y122.967 Z-1.458
N14030 X41.82 Y122.941 Z-1.453
N14035 X41.835 Y122.915
N14040 X41.895 Y122.815 Z-1.449
N14045 X41.936 Y122.756 Z-1.438
N14050 X42.007 Y122.661 Z-1.434
N14055 X42.072 Y122.585 Z-1.42
N14060 X42.09 Y122.564 Z-1.419
N14065 X42.267 Y122.37 Z-1.412
N14070 X42.351 Y122.306 Z-1.369
N14075 X42.386 Y122.28 Z-1.359
N14080 X42.423 Y122.257 Z-1.349
N14085 X42.65 Y122.126 Z-1.339
N14090 X42.769 Y122.066 Z-1.32
N14095 X42.857 Y122.024 Z-1.313
N14100 X42.969 Y121.979 Z-1.293
N14105 X42.998 Y121.969 Z-1.288
N14110 X43.065 Y121.945 Z-1.286
N14115 X43.191 Y121.911 Z-1.265
N14120 X43.219 Y121.904 Z-1.26
N14125 X43.286 Y121.889 Z-1.258
N14130 X43.417 Y121.867 Z-1.24
N14135 X43.441 Y121.863 Z-1.237
N14140 X43.528 Y121.852 Z-1.236
N14145 X43.638 Y121.843 Z-1.225
N14150 X44.024 Y121.822 Z-1.217
N14155 X44.03 Y121.821
N14160 X44.41 Y121.836 Z-1.214
N14165 X44.586 Y121.854 Z-1.216
N14170 X44.608 Y121.857 Z-1.215
N14175 X44.747 Y121.88 Z-1.221
N14180 X44.825 Y121.897 Z-1.218
N14185 X44.905 Y121.917 Z-1.224
N14190 X45.043 Y121.96 Z-1.229
N14195 X45.23 Y122.032 Z-1.25
N14200 X45.377 Y122.097 Z-1.281
N14205 X45.569 Y122.201 Z-1.287
N14210 X45.596 Y122.217
N14215 X45.624 Y122.233 Z-1.293
N14220 X45.662 Y122.26 Z-1.299
N14225 X45.727 Y122.311 Z-1.321
N14230 X45.816 Y122.388 Z-1.346
N14235 X45.878 Y122.447 Z-1.353
N14240 X45.899 Y122.468 Z-1.356
N14245 X45.981 Y122.562 Z-1.369
N14250 X46.014 Y122.605 Z-1.37
N14255 X46.1 Y122.724 Z-1.394
N14260 X46.118 Y122.75 Z-1.399
N14265 X46.136 Y122.777 Z-1.409
N14270 X46.198 Y122.905 Z-1.427
N14275 X46.214 Y122.941 Z-1.432
N14280 X46.23 Y122.977 Z-1.443
N14285 X46.27 Y123.086 Z-1.469
N14290 X46.281 Y123.121 Z-1.475
N14295 X46.299 Y123.187 Z-1.491
N14300 X46.318 Y123.279 Z-1.502
N14305 X46.335 Y123.382 Z-1.503
N14310 X46.342 Y123.457 Z-1.502
N14315 X46.344 Y123.534 Z-1.514
N14320 X46.343 Y123.619 Z-1.539
N14325 X46.327 Y123.772 Z-1.554
N14330 X46.324 Y123.798 Z-1.557
N14335 X46.303 Y123.911 Z-1.576
N14340 X46.284 Y123.985 Z-1.583
N14345 X46.266 Y124.033 Z-1.586
N14350 X46.226 Y124.128 Z-1.589
N14355 X46.19 Y124.194 Z-1.588
N14360 X46.137 Y124.286 Z-1.602
N14365 X46.1 Y124.333 Z-1.594
N14370 X46.077 Y124.36
N14375 X46.028 Y124.416 Z-1.597
N14380 X45.984 Y124.464 Z-1.595
N14385 X45.921 Y124.52 Z-1.594
N14390 X45.865 Y124.564 Z-1.586
N14395 X45.797 Y124.613 Z-1.568
N14400 X45.748 Y124.645 Z-1.552
N14405 X45.682 Y124.684 Z-1.54
N14410 X45.62 Y124.716 Z-1.541
N14415 X45.306 Y124.843 Z-1.517
N14420 X44.957 Y124.967 Z-1.508
N14425 X44.794 Y125.018 Z-1.515
N14430 X44.597 Y125.074 Z-1.514
N14435 X44.256 Y125.164 Z-1.526
N14440 X43.79 Y125.288 Z-1.539
N14445 X43.347 Y125.412 Z-1.535
N14450 X42.897 Y125.556 Z-1.519
N14455 X42.794 Y125.591 Z-1.51
N14460 X42.754 Y125.605 Z-1.508
N14465 X42.58 Y125.677 Z-1.522
N14470 X42.553 Y125.689 Z-1.524
N14475 X42.499 Y125.714 Z-1.535
N14480 X42.4 Y125.771
N14485 X42.364 Y125.793
N14490 X42.329 Y125.815 Z-1.542
N14495 X42.259 Y125.867 Z-1.552
N14500 X42.201 Y125.913 Z-1.554
N14505 X42.162 Y125.949 Z-1.551
N14510 X42.09 Y126.025 Z-1.546
N14515 X42.026 Y126.1 Z-1.533
N14520 X41.975 Y126.165 Z-1.535
N14525 X41.912 Y126.278 Z-1.517
N14530 X41.897 Y126.305 Z-1.513
N14535 X41.834 Y126.452 Z-1.493
N14540 X41.822 Y126.49 Z-1.483
N14545 X41.806 Y126.551 Z-1.471
N14550 X41.79 Y126.625 Z-1.467
N14555 X41.775 Y126.732 Z-1.448
N14560 X41.767 Y126.806 Z-1.445
N14565 X41.766 Y126.886 Z-1.429
N14570 Y126.928 Z-1.42
N14575 X41.767 Y126.969 Z-1.419
N14580 X41.772 Y127.005 Z-1.413
N14585 X41.791 Y127.126 Z-1.415
N14590 X41.82 Y127.242 Z-1.394
N14595 X41.83 Y127.279 Z-1.389
N14600 X41.872 Y127.395 Z-1.37
N14605 X41.886 Y127.432 Z-1.366
N14610 X41.95 Y127.549 Z-1.343
N14615 X41.965 Y127.577 Z-1.339
N14620 X41.982 Y127.602 Z-1.333
N14625 X42.054 Y127.703 Z-1.325
N14630 X42.079 Y127.734 Z-1.319
N14635 X42.096 Y127.753 Z-1.317
N14640 X42.175 Y127.837 Z-1.306
N14645 X42.305 Y127.951 Z-1.292
N14650 X42.357 Y127.99 Z-1.277
N14655 X42.395 Y128.018 Z-1.268
N14660 X42.434 Y128.043 Z-1.265
N14665 X42.455 Y128.055 Z-1.262
N14670 X42.582 Y128.12 Z-1.266
N14675 X42.739 Y128.188 Z-1.249
N14680 X42.776 Y128.203 Z-1.242
N14685 X42.91 Y128.251 Z-1.231
N14690 X42.99 Y128.276 Z-1.218
N14695 X43.14 Y128.315 Z-1.215
N14700 X43.203 Y128.329 Z-1.211
N14705 X43.368 Y128.358 Z-1.216
N14710 X43.561 Y128.376 Z-1.215
N14715 X43.835 Y128.386 Z-1.222
N14720 X43.913 Z-1.216
N14725 X44.181 Y128.374 Z-1.217
N14730 X44.245 Y128.369 Z-1.213
N14735 X44.427 Y128.349 Z-1.216
N14740 X44.52 Y128.335 Z-1.226
N14745 X44.639 Y128.31 Z-1.229
N14750 X44.804 Y128.264 Z-1.246
N14755 X44.828 Y128.257 Z-1.249
N14760 X44.996 Y128.194 Z-1.279
N14765 X45.141 Y128.133 Z-1.319
N14770 X45.304 Y128.051 Z-1.341
N14775 X45.333 Y128.036 Z-1.345
N14780 X45.362 Y128.02 Z-1.353
N14785 X45.402 Y127.994 Z-1.365
N14790 X45.441 Y127.966 Z-1.381
N14795 X45.525 Y127.899 Z-1.414
N14800 X45.593 Y127.839 Z-1.431
N14805 X45.664 Y127.769 Z-1.439
N14810 X45.759 Y127.66 Z-1.453
N14815 X45.778 Y127.637 Z-1.456
N14820 X45.797 Y127.613 Z-1.463
N14825 X45.865 Y127.503 Z-1.457
N14830 X45.891 Y127.456 Z-1.456
N14835 X45.905 Y127.431 Z-1.459
N14840 X45.937 Y127.364 Z-1.463
N14845 X45.897 Y127.291 Z-1.301
N14850 X45.852 Y127.214 Z-1.131
N14855 X45.725 Y127.012 Z-0.69
N14860 X45.508 Y126.694 Z-0.001
N14865 X45.725 Y127.012 Z-0.69
N14870 X45.852 Y127.214 Z-1.131
N14875 X45.897 Y127.291 Z-1.301
N14880 X45.937 Y127.364 Z-1.463
N14885 X45.982 Y127.341 Z-1.393
N14890 X46.092 Y127.278 Z-1.205
N14895 X46.383 Y127.089 Z-0.659
N14900 X46.709 Y126.858 Z-0.001
N14905 G0 Z5.08
N14910 X33.474 Y126.66
N14915 G1 Z-0.001 F1270
N14920 X33.846 Y126.91 Z-0.72 F2540
N14925 X34.012 Y127.015 Z-1.026
N14930 X34.161 Y127.103 Z-1.285
N14935 X34.261 Y127.157 Z-1.447
N14940 X34.41 Y126.907 Z-0.897
N14945 X34.674 Y126.497 Z-0.001
N14950 X34.41 Y126.907 Z-0.897
N14955 X34.261 Y127.157 Z-1.447
N14960 X34.336 Y127.308 Z-1.433
N14965 X34.371 Y127.369 Z-1.423
N14970 X34.471 Y127.528 Z-1.42
N14975 X34.493 Y127.555 Z-1.412
N14980 X34.614 Y127.694 Z-1.387
N14985 X34.727 Y127.806 Z-1.369
N14990 X34.811 Y127.88 Z-1.345
N14995 X34.887 Y127.941 Z-1.313
N15000 X34.93 Y127.972 Z-1.294
N15005 X34.985 Y128.006 Z-1.279
N15010 X35.012 Y128.023 Z-1.276
N15015 X35.271 Y128.142 Z-1.256
N15020 X35.359 Y128.176 Z-1.235
N15025 X35.558 Y128.243 Z-1.21
N15030 X35.602 Y128.257 Z-1.207
N15035 X35.765 Y128.3 Z-1.202
N15040 X35.974 Y128.34 Z-1.204
N15045 X36.183 Y128.361 Z-1.205
N15050 X36.359 Y128.373 Z-1.218
N15055 X36.549 Y128.38 Z-1.22
N15060 X36.745 Z-1.239
N15065 X36.968 Y128.371 Z-1.245
N15070 X37.097 Y128.362 Z-1.258
N15075 X37.215 Y128.349 Z-1.263
N15080 X37.42 Y128.318 Z-1.295
N15085 X37.44 Y128.315 Z-1.299
N15090 X37.59 Y128.278 Z-1.328
N15095 X37.692 Y128.247 Z-1.343
N15100 X37.724 Y128.237 Z-1.352
N15105 X37.897 Y128.172 Z-1.395
N15110 X37.922 Y128.162 Z-1.401
N15115 X38.054 Y128.106 Z-1.448
N15120 X38.225 Y128.019 Z-1.481
N15125 X38.31 Y127.97 Z-1.488
N15130 X38.362 Y127.937 Z-1.499
N15135 X38.388 Y127.919 Z-1.509
N15140 X38.412 Y127.898 Z-1.514
N15145 X38.437 Y127.877 Z-1.523
N15150 X38.461 Y127.853 Z-1.53
N15155 X38.486 Y127.828 Z-1.541
N15160 X38.602 Y127.694 Z-1.584
N15165 X38.667 Y127.601 Z-1.581
N15170 X38.677 Y127.586
N15175 X38.75 Y127.455 Z-1.578
N15180 X38.786 Y127.374 Z-1.562
N15185 X38.803 Y127.333 Z-1.561
N15190 X38.847 Y127.201 Z-1.545
N15195 X38.858 Y127.167 Z-1.542
N15200 X38.863 Y127.141 Z-1.536
N15205 X38.892 Y126.977 Z-1.512
N15210 X38.897 Y126.947 Z-1.509
N15215 X38.915 Y126.77 Z-1.497
N15220 X38.92 Y126.719 Z-1.496
N15225 X38.929 Y126.428 Z-1.487
N15230 X38.928 Y126.151 Z-1.498
N15235 X38.927 Y126.067 Z-1.5
N15240 X38.926 Y126.043 Z-1.499
N15245 X38.924 Y125.996 Z-1.505
N15250 X38.917 Y125.926 Z-1.521
N15255 X38.911 Y125.88 Z-1.539
N15260 X38.902 Y125.833 Z-1.557
N15265 X38.893 Y125.786 Z-1.584
N15270 X38.88 Y125.739 Z-1.611
N15275 X38.867 Y125.693 Z-1.646
N15280 X38.851 Y125.646 Z-1.681
N15285 X38.834 Y125.599 Z-1.724
N15290 X38.768 Z-1.61
N15295 X38.709 Z-1.514
N15300 X38.655 Z-1.435
N15305 X38.606 Z-1.368
N15310 X38.56 Z-1.313
N15315 X38.517 Z-1.268
N15320 X38.476 Z-1.231
N15325 X38.435 Z-1.202
N15330 X38.393 Y125.597 Z-1.176
N15335 X38.35 Y125.595 Z-1.157
N15340 X38.309 Y125.59 Z-1.14
N15345 X38.267 Y125.585 Z-1.13
N15350 X38.247 Y125.58 Z-1.125
N15355 X38.206 Y125.571 Z-1.12
N15360 X37.889 Y125.479 Z-1.139
N15365 X37.679 Y125.423 Z-1.163
N15370 X37.327 Y125.337 Z-1.181
N15375 X37.207 Y125.312 Z-1.194
N15380 X36.749 Y125.231 Z-1.212
N15385 X36.222 Y125.157 Z-1.23
N15390 X35.95 Y125.118 Z-1.235
N15395 X35.662 Y125.072 Z-1.252
N15400 X35.356 Y125.002 Z-1.272
N15405 X35.16 Y124.951 Z-1.298
N15410 X35.061 Y124.919
N15415 X35.016 Y124.903 Z-1.3
N15420 X34.826 Y124.818 Z-1.331
N15425 X34.791 Y124.802 Z-1.337
N15430 X34.637 Y124.71 Z-1.363
N15435 X34.584 Y124.674 Z-1.371
N15440 X34.471 Y124.588 Z-1.414
N15445 X34.401 Y124.524 Z-1.427
N15450 X34.345 Y124.469 Z-1.447
N15455 X34.267 Y124.382 Z-1.466
N15460 X34.233 Y124.343 Z-1.477
N15465 X34.217 Y124.319 Z-1.479
N15470 X34.141 Y124.204 Z-1.507
N15475 X34.101 Y124.132 Z-1.515
N15480 X34.062 Y124.058 Z-1.534
N15485 X34.021 Y123.961 Z-1.539
N15490 X34.009 Y123.929 Z-1.541
N15495 X33.996 Y123.897 Z-1.547
N15500 X33.953 Y123.735 Z-1.57
N15505 X33.944 Y123.682 Z-1.569
N15510 X33.929 Y123.568 Z-1.577
N15515 X33.922 Y123.479 Z-1.576
N15520 X33.92 Y123.437
N15525 X33.918 Y123.404 Z-1.579
N15530 X33.921 Y123.378 Z-1.577
N15535 X33.952 Y123.111 Z-1.58
N15540 X33.957 Y123.073 Z-1.582
N15545 X33.986 Y122.939 Z-1.583
N15550 X33.997 Y122.902 Z-1.578
N15555 X34.021 Y122.83 Z-1.579
N15560 X34.068 Y122.724 Z-1.562
N15565 X34.084 Y122.696 Z-1.553
N15570 X34.138 Y122.607 Z-1.541
N15575 X34.185 Y122.54 Z-1.521
N15580 X34.208 Y122.508 Z-1.517
N15585 X34.294 Y122.399 Z-1.504
N15590 X34.318 Y122.37
N15595 X34.498 Y122.216 Z-1.424
N15600 X34.525 Y122.194 Z-1.412
N15605 X34.581 Y122.152 Z-1.398
N15610 X34.609 Y122.131 Z-1.396
N15615 X34.769 Y122.042 Z-1.379
N15620 X34.904 Y121.977 Z-1.345
N15625 X34.926 Y121.966 Z-1.341
N15630 X34.95 Y121.957 Z-1.333
N15635 X35.097 Y121.905 Z-1.292
N15640 X35.282 Y121.859 Z-1.242
N15645 X35.319 Y121.852 Z-1.231
N15650 X35.487 Y121.827 Z-1.198
N15655 X35.675 Y121.809 Z-1.18
N15660 X35.742 Y121.804 Z-1.179
N15665 X36.009 Z-1.146
N15670 X36.045 Z-1.144
N15675 X36.345 Y121.832 Z-1.123
N15680 X36.392 Y121.839 Z-1.113
N15685 X36.58 Y121.872 Z-1.087
N15690 X36.643 Y121.885 Z-1.083
N15695 X36.769 Y121.917 Z-1.066
N15700 X36.933 Y121.965 Z-1.06
N15705 X36.962 Y121.975 Z-1.054
N15710 X37.143 Y122.051 Z-1.033
N15715 X37.251 Y122.099 Z-1.03
N15720 X37.464 Y122.205 Z-1.004
N15725 X37.497 Y122.222 Z-1.002
N15730 X37.563 Y122.262 Z-1.008
N15735 X37.779 Y122.411 Z-1.004
N15740 X37.852 Y122.465 Z-1.009
N15745 X37.92 Y122.519
N15750 X38.06 Y122.638 Z-1.026
N15755 X38.077 Y122.654 Z-1.028
N15760 X38.155 Y122.727 Z-1.052
N15765 X38.187 Y122.756 Z-1.067
N15770 X38.236 Y122.795 Z-1.101
N15775 X38.268 Y122.818 Z-1.127
N15780 X38.299 Y122.841 Z-1.161
N15785 X38.334 Y122.862 Z-1.195
N15790 X38.368 Y122.883 Z-1.236
N15795 X38.444 Y122.924 Z-1.334
N15800 X38.482 Y122.945 Z-1.392
N15805 X38.524 Y122.963 Z-1.452
N15810 X38.566 Y122.982 Z-1.518
N15815 X38.611 Y122.998 Z-1.587
N15820 X38.704 Y123.03 Z-1.739
N15825 X38.79 Y123.055 Z-1.888
N15830 X38.798 Y123.094 Z-1.861
N15835 X38.813 Y123.172 Z-1.818
N15840 X38.819 Y123.21 Z-1.801
N15845 X38.847 Y123.426 Z-1.708
N15850 X38.868 Y123.565 Z-1.656
N15855 X38.892 Y123.767 Z-1.595
N15860 X38.908 Y123.953 Z-1.552
N15865 X38.91 Y123.983 Z-1.548
N15870 X38.925 Y124.339 Z-1.509
N15875 X38.927 Y124.667 Z-1.5
N15880 X38.926 Y125.166
N15885 X38.924 Y125.214 Z-1.509
N15890 X38.918 Y125.262 Z-1.518
N15895 X38.913 Y125.31 Z-1.536
N15900 X38.903 Y125.358 Z-1.554
N15905 X38.894 Y125.407 Z-1.581
N15910 X38.881 Y125.455 Z-1.608
N15915 X38.868 Y125.503 Z-1.644
N15920 X38.851 Y125.551 Z-1.68
N15925 X38.834 Y125.599 Z-1.724
N15930 X38.851 Y125.551 Z-1.68
N15935 X38.868 Y125.503 Z-1.644
N15940 X38.881 Y125.455 Z-1.608
N15945 X38.894 Y125.407 Z-1.581
N15950 X38.903 Y125.358 Z-1.554
N15955 X38.913 Y125.31 Z-1.536
N15960 X38.918 Y125.262 Z-1.518
N15965 X38.924 Y125.214 Z-1.509
N15970 X38.926 Y125.166 Z-1.5
N15975 X38.927 Y124.667
N15980 X38.925 Y124.339 Z-1.509
N15985 X38.91 Y123.983 Z-1.548
N15990 X38.908 Y123.953 Z-1.552
N15995 X38.892 Y123.767 Z-1.595
N16000 X38.868 Y123.565 Z-1.656
N16005 X38.847 Y123.426 Z-1.708
N16010 X38.819 Y123.21 Z-1.801
N16015 X38.813 Y123.172 Z-1.818
N16020 X38.798 Y123.094 Z-1.861
N16025 X38.79 Y123.055 Z-1.888
N16030 X38.83 Y122.989 Z-1.801
N16035 X38.865 Y122.922 Z-1.723
N16040 X38.881 Y122.888 Z-1.687
N16045 X38.905 Y122.835 Z-1.637
N16050 X38.923 Y122.789 Z-1.598
N16055 X38.942 Y122.743 Z-1.566
N16060 X38.956 Y122.696 Z-1.536
N16065 X38.971 Y122.65 Z-1.513
N16070 X38.982 Y122.603 Z-1.492
N16075 X38.993 Y122.556 Z-1.478
N16080 X39 Y122.509 Z-1.466
N16085 X39.007 Y122.462 Z-1.462
N16090 X39.031 Y122.258 Z-1.446
N16095 X39.041 Y122.207
N16100 X39.07 Y122.079 Z-1.449
N16105 X39.064 Y122.071 Z-1.43
N16110 X38.877 Y121.811 Z-0.802
N16115 X38.655 Y121.479 Z-0.001
N16120 X38.877 Y121.811 Z-0.802
N16125 X39.064 Y122.071 Z-1.43
N16130 X39.07 Y122.079 Z-1.449
N16135 X39.203 Y121.975 Z-1.198
N16140 X39.467 Y121.781 Z-0.729
N16145 X39.706 Y121.623 Z-0.348
N16150 X39.937 Y121.479 Z-0.001
N16155 G0 Z5.08
N16160 X49.364 Y45.074
N16165 G1 Z-0.001 F1270
N16170 X49.978 Y45.688 Z-1.483 F2540
N16175 X50.592 Y45.074 Z-0.001
N16180 X49.978 Y45.688 Z-1.483
N16185 Y49.033
N16190 X49.985 Y49.566 Z-1.5
N16195 X50 Y49.867 Z-1.537
N16200 X50.002 Y49.899 Z-1.541
N16205 X50.03 Y50.178 Z-1.609
N16210 X50.036 Y50.223 Z-1.62
N16215 X50.084 Y50.514 Z-1.739
N16220 X50.094 Y50.564 Z-1.76
N16225 X50.11 Y50.638 Z-1.803
N16230 X50.085 Y50.685 Z-1.737
N16235 X50.059 Y50.732 Z-1.679
N16240 X50.037 Y50.778 Z-1.622
N16245 X50.015 Y50.825 Z-1.574
N16250 X49.998 Y50.872 Z-1.527
N16255 X49.98 Y50.919 Z-1.488
N16260 X49.966 Y50.965 Z-1.45
N16265 X49.952 Y51.012 Z-1.421
N16270 X49.942 Y51.059 Z-1.392
N16275 X49.932 Y51.106 Z-1.373
N16280 X49.926 Y51.153 Z-1.354
N16285 X49.921 Y51.199 Z-1.344
N16290 X49.919 Y51.246 Z-1.335
N16295 X49.917 Y51.293
N16300 Y51.771
N16305 X50.469 Y52.323 Z-0.001
N16310 X49.917 Y51.771 Z-1.335
N16315 X49.364 Y52.323 Z-0.001
N16320 X49.917 Y51.771 Z-1.335
N16325 Y51.293
N16330 X49.919 Y51.246
N16335 X49.921 Y51.199 Z-1.344
N16340 X49.926 Y51.153 Z-1.354
N16345 X49.932 Y51.106 Z-1.373
N16350 X49.942 Y51.059 Z-1.392
N16355 X49.952 Y51.012 Z-1.421
N16360 X49.966 Y50.965 Z-1.45
N16365 X49.98 Y50.919 Z-1.488
N16370 X49.998 Y50.872 Z-1.527
N16375 X50.015 Y50.825 Z-1.574
N16380 X50.037 Y50.778 Z-1.622
N16385 X50.059 Y50.732 Z-1.679
N16390 X50.085 Y50.685 Z-1.737
N16395 X50.11 Y50.638 Z-1.803
N16400 X50.21 Y50.671 Z-1.626
N16405 X50.302 Y50.708 Z-1.468
N16410 X50.345 Y50.728 Z-1.395
N16415 X50.387 Y50.749 Z-1.329
N16420 X50.471 Y50.793 Z-1.207
N16425 X50.532 Y50.829 Z-1.129
N16430 X50.588 Y50.868 Z-1.064
N16435 X50.641 Y50.91 Z-1.011
N16440 X50.679 Y50.945 Z-0.981
N16445 X50.701 Y50.967 Z-0.965
N16450 X50.743 Y51.013 Z-0.945
N16455 X50.763 Y51.037 Z-0.94
N16460 X50.858 Y51.158 Z-0.92
