%
(THREAD_BORDER_ROUTER_LID_1-8BIT_V01)
(MACHINE)
(  VENDOR KIRBRE ENTERPRISES INC)
(  MODEL JOURNEYMAN)
(  DESCRIPTION ONEFINITY COMMUNITY EDITION V2022.02.21.1)
(T1 D=3.175 CR=0 - ZMIN=-3.81 - FLAT END MILL)
N10 G90 G94 G17 G91.1
N15 G21

(2D POCKET1)
(T1)
N20 S16000 M3
N25 G54
N30 G0 X152.611 Y171.861
N35 G43 Z15.24 H1
N40 G0 Z5.08
N45 G1 Z2.838 F1270
N50 X152.588 Y171.873 Z2.713 F1016
N55 X152.519 Y171.897 Z2.607
N60 X152.465 Y171.908 Z2.574
N65 X152.411 Y171.912 Z2.54
N70 G3 X152.389 Y170.988 Z2.011 I-0.011 J-0.462
N75 X152.411 Y171.912 Z1.482 I0.011 J0.462
N80 X152.389 Y170.988 Z0.953 I-0.011 J-0.462
N85 X152.411 Y171.912 Z0.425 I0.011 J0.462
N90 X152.389 Y170.988 Z-0.104 I-0.011 J-0.462
N95 X152.411 Y171.912 Z-0.633 I0.011 J0.462
N100 X152.389 Y170.988 Z-1.162 I-0.011 J-0.462
N105 X152.411 Y171.912 Z-1.691 I0.011 J0.462
N110 X152.389 Y170.988 Z-2.22 I-0.011 J-0.462
N115 X152.411 Y171.912 Z-2.748 I0.011 J0.462
N120 X152.389 Y170.988 Z-3.277 I-0.011 J-0.462
N125 X152.862 Y171.445 Z-3.544 I0.011 J0.462
N130 X152.4 Y171.913 Z-3.81 I-0.462 J0.005
N135 Y170.987 I0 J-0.463 F1778
N140 Y171.913 I0 J0.463
N145 G1 X152.34 Y171.907 Z-3.798
N150 X152.281 Y171.89 Z-3.786
N155 X152.235 Y171.867 Z-3.751
N160 X152.194 Y171.836 Z-3.717
N165 X152.147 Y171.786 Z-3.614
N170 X152.133 Y171.767 Z-3.493
N175 G0 Z5.08
N180 X25.611 Y171.861
N185 G1 Z2.838 F1270
N190 X25.588 Y171.873 Z2.713 F1016
N195 X25.519 Y171.897 Z2.607
N200 X25.465 Y171.908 Z2.574
N205 X25.411 Y171.912 Z2.54
N210 G3 X25.389 Y170.988 Z2.011 I-0.011 J-0.462
N215 X25.411 Y171.912 Z1.482 I0.011 J0.462
N220 X25.389 Y170.988 Z0.953 I-0.011 J-0.462
N225 X25.411 Y171.912 Z0.425 I0.011 J0.462
N230 X25.389 Y170.988 Z-0.104 I-0.011 J-0.462
N235 X25.411 Y171.912 Z-0.633 I0.011 J0.462
N240 X25.389 Y170.988 Z-1.162 I-0.011 J-0.462
N245 X25.411 Y171.912 Z-1.691 I0.011 J0.462
N250 X25.389 Y170.988 Z-2.22 I-0.011 J-0.462
N255 X25.411 Y171.912 Z-2.748 I0.011 J0.462
N260 X25.389 Y170.988 Z-3.277 I-0.011 J-0.462
N265 X25.862 Y171.445 Z-3.544 I0.011 J0.462
N270 X25.4 Y171.913 Z-3.81 I-0.462 J0.005
N275 Y170.987 I0 J-0.463 F1778
N280 Y171.913 I0 J0.463
N285 G1 X25.34 Y171.907 Z-3.798
N290 X25.281 Y171.89 Z-3.786
N295 X25.235 Y171.867 Z-3.751
N300 X25.194 Y171.836 Z-3.717
N305 X25.147 Y171.786 Z-3.614
N310 X25.133 Y171.767 Z-3.493
N315 G0 Z5.08
N320 X25.611 Y6.761
N325 G1 Z2.838 F1270
N330 X25.588 Y6.773 Z2.713 F1016
N335 X25.519 Y6.797 Z2.607
N340 X25.465 Y6.808 Z2.574
N345 X25.411 Y6.812 Z2.54
N350 G3 X25.389 Y5.888 Z2.011 I-0.011 J-0.462
N355 X25.411 Y6.812 Z1.482 I0.011 J0.462
N360 X25.389 Y5.888 Z0.953 I-0.011 J-0.462
N365 X25.411 Y6.812 Z0.425 I0.011 J0.462
N370 X25.389 Y5.888 Z-0.104 I-0.011 J-0.462
N375 X25.411 Y6.812 Z-0.633 I0.011 J0.462
N380 X25.389 Y5.888 Z-1.162 I-0.011 J-0.462
N385 X25.411 Y6.812 Z-1.691 I0.011 J0.462
N390 X25.389 Y5.888 Z-2.22 I-0.011 J-0.462
N395 X25.411 Y6.812 Z-2.748 I0.011 J0.462
N400 X25.389 Y5.888 Z-3.277 I-0.011 J-0.462
N405 X25.862 Y6.345 Z-3.544 I0.011 J0.462
N410 X25.4 Y6.813 Z-3.81 I-0.462 J0.005
N415 Y5.887 I0 J-0.463 F1778
N420 Y6.813 I0 J0.463
N425 G1 X25.34 Y6.807 Z-3.798
N430 X25.281 Y6.79 Z-3.786
N435 X25.235 Y6.767 Z-3.751
N440 X25.194 Y6.736 Z-3.717
N445 X25.147 Y6.686 Z-3.614
N450 X25.133 Y6.667 Z-3.493
N455 G0 Z5.08
N460 X152.611 Y6.761
N465 G1 Z2.838 F1270
N470 X152.588 Y6.773 Z2.713 F1016
N475 X152.519 Y6.797 Z2.607
N480 X152.465 Y6.808 Z2.574
N485 X152.411 Y6.812 Z2.54
N490 G3 X152.389 Y5.888 Z2.011 I-0.011 J-0.462
N495 X152.411 Y6.812 Z1.482 I0.011 J0.462
N500 X152.389 Y5.888 Z0.953 I-0.011 J-0.462
N505 X152.411 Y6.812 Z0.425 I0.011 J0.462
N510 X152.389 Y5.888 Z-0.104 I-0.011 J-0.462
N515 X152.411 Y6.812 Z-0.633 I0.011 J0.462
N520 X152.389 Y5.888 Z-1.162 I-0.011 J-0.462
N525 X152.411 Y6.812 Z-1.691 I0.011 J0.462
N530 X152.389 Y5.888 Z-2.22 I-0.011 J-0.462
N535 X152.411 Y6.812 Z-2.748 I0.011 J0.462
N540 X152.389 Y5.888 Z-3.277 I-0.011 J-0.462
N545 X152.862 Y6.345 Z-3.544 I0.011 J0.462
N550 X152.4 Y6.813 Z-3.81 I-0.462 J0.005
N555 Y5.887 I0 J-0.463 F1778
N560 Y6.813 I0 J0.463
N565 G1 X152.34 Y6.807 Z-3.798
N570 X152.281 Y6.79 Z-3.786
N575 X152.235 Y6.767 Z-3.751
N580 X152.194 Y6.736 Z-3.717
N585 X152.147 Y6.686 Z-3.614
N590 X152.133 Y6.667 Z-3.493
N595 G0 Z15.24

(2D CONTOUR1)
N600 G0 X-2.54 Y12.382
N605 Z15.24
N610 Z5.08
N615 G1 Z0.635 F1270
N620 Z-1.27
N625 G18 G2 X-2.223 Z-1.587 I0.317 K0 F1778
N630 G1 X-1.905
N635 G17 G3 X-1.587 Y12.7 I0 J0.318
N640 G1 Y165.1
N645 G2 X12.7 Y179.387 I14.287 J0
N650 G1 X165.1
N655 G2 X179.387 Y165.1 I0 J-14.287
N660 G1 Y12.7
N665 G2 X165.1 Y-1.587 I-14.287 J0
N670 G1 X12.7
N675 G2 X-1.587 Y12.7 I0 J14.287
N680 G3 X-1.905 Y13.017 I-0.317 J0
N685 G1 X-2.223
N690 G18 G3 X-2.54 Z-1.27 I0 K0.317
N695 G0 Z5.08
N700 Y12.382
N705 G1 Z-0.952 F1270
N710 Z-2.858
N715 G2 X-2.223 Z-3.175 I0.317 K0 F1778
N720 G1 X-1.905
N725 G17 G3 X-1.587 Y12.7 I0 J0.318
N730 G1 Y165.1
N735 G2 X12.7 Y179.387 I14.287 J0
N740 G1 X165.1
N745 G2 X179.387 Y165.1 I0 J-14.287
N750 G1 Y12.7
N755 G2 X165.1 Y-1.587 I-14.287 J0
N760 G1 X12.7
N765 G2 X-1.587 Y12.7 I0 J14.287
N770 G3 X-1.905 Y13.017 I-0.317 J0
N775 G1 X-2.223
N780 G18 G3 X-2.54 Z-2.858 I0 K0.317
N785 G0 Z5.08
N790 Y12.382
N795 G1 Z-2.54 F1270
N800 Z-3.493
N805 G2 X-2.223 Z-3.81 I0.317 K0 F1778
N810 G1 X-1.905
N815 G17 G3 X-1.587 Y12.7 I0 J0.318
N820 G1 Y165.1
N825 G2 X12.7 Y179.387 I14.287 J0
N830 G1 X165.1
N835 G2 X179.387 Y165.1 I0 J-14.287
N840 G1 Y12.7
N845 G2 X165.1 Y-1.587 I-14.287 J0
N850 G1 X12.7
N855 G2 X-1.587 Y12.7 I0 J14.287
N860 G3 X-1.905 Y13.017 I-0.317 J0
N865 G1 X-2.223
N870 G18 G3 X-2.54 Z-3.493 I0 K0.317
N875 G0 Z15.24
N880 G17
N885 M30
%
